; generated by SuperSlicer 2.4 on 2024-05-28 at 00:37:36 UTC

; 

; external perimeters extrusion width = 0.42mm
; perimeters extrusion width = 0.46mm
; infill extrusion width = 0.44mm
; solid infill extrusion width = 0.46mm
; top infill extrusion width = 0.44mm
; support material extrusion width = 0.38mm
; first layer extrusion width = 0.56mm

; object:{"name":"Cover","id":"Cover.stl id:0 copy 0","object_center":[115.000002,112.500000,0.000000],"boundingbox_center":[115.000002,112.500000,2.500334],"boundingbox_size":[67.699928,67.699928,5.000668]}
; Total objects to print: 1
M486 T1
; plater:{"center":[115.000002,112.500000,0.000000],"boundingbox_center":[115.000002,112.500000,2.500334],"boundingbox_size":[67.699928,67.699928,5.000668]}

;TYPE:Custom
G90 ; use absolute coordinates
M83 ; extruder relative mode
M140 S60 ; set final bed temp
M104 S150 ; set temporary nozzle temp to prevent oozing during homing and auto bed leveling
G4 S10 ; allow partial nozzle warmup
G28 ; home all axis
G1 Z50 F240
G1 X2 Y10 F3000
M104 S205 ; set final nozzle temp
M190 S60 ; wait for bed temp to stabilize
M109 S205 ; wait for nozzle temp to stabilize
G1 Z0.28 F240
G92 E0
G1 Y140 E10 F1500 ; prime the nozzle
G1 X2.3 F5000
G92 E0
G1 Y10 E10 F1200 ; prime the nozzle
G92 E0
M107
G21 ; set units to millimeters
G90 ; use absolute coordinates
M82 ; use absolute distances for extrusion
G92 E0
; Filament gcode
;_TOOLCHANGE 0
M107
;LAYER_CHANGE
;Z:0.2
;HEIGHT:0.2
;BEFORE_LAYER_CHANGE
;0.2


G1 E-2 F3600
G1 Z0.2 F18000
;AFTER_LAYER_CHANGE
;0.2
G92 E0
M204 S500
G1 X89.461 Y86.324
G1 E2 F2400
;TYPE:Skirt
;WIDTH:0.48
G1 F1200
G1 X87.872 Y87.971 E2.08319
G1 X86.461 Y89.631 E2.16235
G1 X85.265 Y91.214 E2.23446
G1 X83.954 Y93.182 E2.32039
G1 X82.864 Y95.059 E2.39929
G1 X81.883 Y96.999 E2.47829
G1 X81.018 Y98.994 E2.55731
G1 X80.272 Y101.037 E2.63638
G1 X79.648 Y103.123 E2.71551
G1 X79.19 Y105.054 E2.78763
G1 X78.783 Y107.39 E2.8738
G1 X78.543 Y109.552 E2.95285
G1 X78.437 Y111.534 E3.02498
G1 X78.45 Y113.898 E3.1109
G1 X78.595 Y116.068 E3.18994
G1 X78.868 Y118.221 E3.26883
G1 X79.266 Y120.362 E3.34798
G1 X79.74 Y122.29 E3.42013
G1 X80.445 Y124.556 E3.50637
G1 X81.22 Y126.59 E3.58549
G1 X82.031 Y128.403 E3.65767
G1 X83.031 Y130.336 E3.73677
G1 X84.143 Y132.207 E3.81587
G1 X85.364 Y134.009 E3.89498
G1 X86.69 Y135.737 E3.97413
G1 X88.248 Y137.524 E4.06031
G1 X89.778 Y139.074 E4.13944
G1 X91.252 Y140.408 E4.2117
G1 X93.102 Y141.891 E4.29785
G1 X94.882 Y143.147 E4.37705
G1 X96.735 Y144.296 E4.45627
G1 X98.652 Y145.334 E4.53553
G1 X100.454 Y146.182 E4.60789
G1 X102.662 Y147.063 E4.69428
G1 X104.735 Y147.744 E4.7736
G1 X106.661 Y148.257 E4.84602
G1 X108.794 Y148.702 E4.9252
G1 X110.955 Y149.02 E5.0046
G1 X113.321 Y149.221 E5.0909
G1 X115.507 Y149.272 E5.17036
G1 X117.503 Y149.205 E5.24294
G1 X119.868 Y148.985 E5.32928
G1 X122.023 Y148.652 E5.40851
G1 X124.167 Y148.195 E5.4882
G1 X126.281 Y147.611 E5.56788
G1 X128.178 Y146.969 E5.6407
G1 X131.722 Y145.49 E5.78023
G1 X133.563 Y144.575 E5.85498
G1 X136.415 Y142.755 E5.97792
G1 X137.968 Y141.592 E6.04844
G1 X139.446 Y140.362 E6.1183
G1 X141.872 Y138.029 E6.24063
G1 X144.28 Y135.227 E6.37491
G1 X146.397 Y132.199 E6.50919
G1 X148.202 Y128.975 E6.64348
G1 X149.677 Y125.587 E6.77776
G1 X150.809 Y122.07 E6.91204
G1 X151.584 Y118.457 E7.04633
G1 X151.996 Y114.785 E7.18062
G1 X152.065 Y112.935 E7.2479
G1 X151.999 Y111.248 E7.30925
G1 X151.743 Y108.443 E7.41165
G1 X151.497 Y106.632 E7.47806
G1 X150.731 Y103.027 E7.61199
G1 X149.61 Y99.517 E7.74591
G1 X148.92 Y97.808 E7.81289
G1 X148.074 Y95.992 E7.8857
G1 X146.248 Y92.755 E8.02077
G1 X144.468 Y90.18 E8.13455
G1 X143.326 Y88.747 E8.20113
G1 X142.007 Y87.257 E8.27345
G1 X140.625 Y85.856 E8.34499
G1 X139.19 Y84.547 E8.41558
G1 X136.458 Y82.399 E8.54188
G1 X133.521 Y80.515 E8.66869
G1 X131.524 Y79.526 E8.74966
G1 X127.731 Y77.976 E8.89861
G1 X125.831 Y77.359 E8.9712
G1 X123.717 Y76.803 E9.05063
G1 X121.575 Y76.372 E9.13004
G1 X119.429 Y76.063 E9.20885
G1 X117.06 Y75.869 E9.29524
G1 X115.055 Y75.827 E9.3681
G1 X112.89 Y75.904 E9.44686
G1 X110.533 Y76.133 E9.53292
G1 X108.382 Y76.477 E9.61208
G1 X106.263 Y76.945 E9.69094
G1 X104.35 Y77.478 E9.76314
G1 X102.289 Y78.18 E9.84224
G1 X100.098 Y79.084 E9.92837
G1 X98.149 Y80.033 E10.00717
G1 X96.25 Y81.094 E10.08622
G1 X94.419 Y82.266 E10.16524
G1 X92.659 Y83.544 E10.24426
G1 X91.122 Y84.798 E10.31639
G1 X89.517 Y86.266 E10.39542
G1 X89.503 Y86.281 E10.39617
G92 E0
G1 E-1.4 F3600
;WIPE_START
G1 F14400
G1 X87.872 Y87.971 E-1.95786
G1 X87.839 Y88.01 E-1.97
;WIPE_END
G1 E-2 F3600
; printing object Cover.stl id:0 copy 0
M486 S0
; acceleration to travel
M204 S1500
G1 X97.221 Y92.922 F18000
; decel to extrusion
M204 S500
G1 X98.352 Y93.515
; end travel
G1 E0 F2400
;TYPE:Support material
;WIDTH:0.564
G1 F1200
G1 X103.026 Y93.515 E0.20252
G1 X103.026 Y91.177 E0.30378
G1 X110.037 Y91.177 E0.60756
G1 X110.037 Y88.84 E0.70883
G1 X119.963 Y88.84 E1.1389
G1 X119.963 Y91.177 E1.24016
G1 X126.974 Y91.177 E1.54394
G1 X126.974 Y93.515 E1.6452
G1 X131.648 Y93.515 E1.84772
G1 X131.648 Y95.852 E1.94898
G1 X133.985 Y95.852 E2.05024
G1 X133.985 Y100.526 E2.25277
G1 X136.323 Y100.526 E2.35403
G1 X136.323 Y107.537 E2.65781
G1 X138.66 Y107.537 E2.75907
G1 X138.66 Y117.463 E3.18914
G1 X136.323 Y117.463 E3.2904
G1 X136.323 Y124.474 E3.59418
G1 X133.985 Y124.474 E3.69545
G1 X133.985 Y129.148 E3.89797
G1 X131.648 Y129.148 E3.99923
G1 X131.648 Y131.485 E4.10049
G1 X126.974 Y131.485 E4.30301
G1 X126.974 Y133.823 E4.40427
G1 X119.963 Y133.823 E4.70805
G1 X119.963 Y136.16 E4.80931
G1 X110.037 Y136.16 E5.23939
G1 X110.037 Y133.823 E5.34065
G1 X103.026 Y133.823 E5.64443
G1 X103.026 Y131.485 E5.74569
G1 X98.352 Y131.485 E5.94821
G1 X98.352 Y129.148 E6.04947
G1 X96.015 Y129.148 E6.15073
G1 X96.015 Y124.474 E6.35325
G1 X93.677 Y124.474 E6.45451
G1 X93.677 Y117.463 E6.7583
G1 X91.34 Y117.463 E6.85956
G1 X91.34 Y107.537 E7.28963
G1 X93.677 Y107.537 E7.39089
G1 X93.677 Y100.526 E7.69467
G1 X96.015 Y100.526 E7.79593
G1 X96.015 Y95.852 E7.99846
G1 X98.352 Y95.852 E8.09972
G1 X98.352 Y93.575 E8.19838
; acceleration to travel
M204 S1500
G1 X104.043 Y100.974 F18000
; decel to extrusion
M204 S500
G1 X105.941 Y103.441
; end travel
G1 F1200
G1 X105.941 Y105.778 E8.29964
G1 X103.603 Y105.778 E8.4009
G1 X103.603 Y110.452 E8.60342
G1 X101.266 Y110.452 E8.70468
G1 X101.266 Y114.548 E8.88217
G1 X103.603 Y114.548 E8.98344
G1 X103.603 Y119.222 E9.18596
G1 X105.941 Y119.222 E9.28722
G1 X105.941 Y121.559 E9.38848
G1 X108.278 Y121.559 E9.48974
G1 X108.278 Y123.897 E9.591
G1 X112.952 Y123.897 E9.79352
G1 X112.952 Y126.234 E9.89478
G1 X117.048 Y126.234 E10.07228
G1 X117.048 Y123.897 E10.17354
G1 X121.722 Y123.897 E10.37606
G1 X121.722 Y121.559 E10.47732
G1 X124.059 Y121.559 E10.57858
G1 X124.059 Y119.222 E10.67984
G1 X126.397 Y119.222 E10.7811
G1 X126.397 Y114.548 E10.98362
G1 X128.734 Y114.548 E11.08488
G1 X128.734 Y110.452 E11.26238
G1 X126.397 Y110.452 E11.36364
G1 X126.397 Y105.778 E11.56616
G1 X124.059 Y105.778 E11.66742
G1 X124.059 Y103.441 E11.76868
G1 X121.722 Y103.441 E11.86994
G1 X121.722 Y101.103 E11.9712
G1 X117.048 Y101.103 E12.17372
G1 X117.048 Y98.766 E12.27498
G1 X112.952 Y98.766 E12.45248
G1 X112.952 Y101.103 E12.55374
G1 X108.278 Y101.103 E12.75626
G1 X108.278 Y103.441 E12.85752
G1 X106.001 Y103.441 E12.95618
G92 E0
G1 E-1.4 F3600
;WIPE_START
G1 F14400
G1 X105.941 Y105.778 E-1.95524
G1 X105.878 Y105.778 E-1.97
;WIPE_END
G1 E-2 F3600
; acceleration to travel
M204 S1500
G1 X134.687 Y107.464 F18000
; decel to extrusion
M204 S500
G1 X138.159 Y107.667
; end travel
G1 E0 F2400
G1 F1200
G1 X138.159 Y117.109 E0.40907
G1 X137.58 Y117.109 E0.43416
G1 X137.58 Y107.891 E0.83353
G1 X137.001 Y107.891 E0.85861
G1 X137.001 Y117.109 E1.25798
G1 X136.422 Y117.109 E1.28306
G1 X136.422 Y107.891 E1.68243
G1 X135.968 Y107.891 E1.7021
G1 X135.968 Y100.88 E2.00588
G1 X135.843 Y100.88 E2.0113
G1 X135.843 Y124.12 E3.01823
G1 X135.264 Y124.12 E3.04332
G1 X135.264 Y100.88 E4.05025
G1 X134.685 Y100.88 E4.07533
G1 X134.685 Y124.12 E5.08226
G1 X134.106 Y124.12 E5.10735
G1 X134.106 Y100.88 E6.11428
G1 X133.631 Y100.88 E6.13487
G1 X133.631 Y96.206 E6.33739
G1 X133.527 Y96.206 E6.34189
G1 X133.527 Y128.794 E7.75386
G1 X132.948 Y128.794 E7.77895
G1 X132.948 Y96.206 E9.19092
G1 X132.369 Y96.206 E9.21601
G1 X132.369 Y128.794 E10.62798
G1 X131.79 Y128.794 E10.65307
G1 X131.79 Y96.206 E12.06504
G1 X131.294 Y96.206 E12.08655
G1 X131.294 Y93.869 E12.18781
G1 X131.211 Y93.869 E12.19139
G1 X131.211 Y131.131 E13.80589
G1 X130.632 Y131.131 E13.83097
G1 X130.632 Y93.869 E15.44547
G1 X130.053 Y93.869 E15.47055
G1 X130.053 Y131.131 E17.08505
G1 X129.474 Y131.131 E17.11014
G1 X129.474 Y93.869 E18.72463
G1 X128.895 Y93.869 E18.74972
G1 X128.895 Y131.131 E20.36421
G1 X128.316 Y131.131 E20.3893
G1 X128.316 Y114.903 E21.09245
G1 X127.737 Y114.903 E21.11753
G1 X127.737 Y131.131 E21.82068
G1 X127.159 Y131.131 E21.84577
G1 X127.159 Y114.903 E22.54892
G1 X126.751 Y114.903 E22.56658
G1 X126.751 Y119.577 E22.7691
G1 X126.58 Y119.577 E22.77652
G1 X126.58 Y133.468 E23.37841
G1 X126.001 Y133.468 E23.4035
G1 X126.001 Y119.577 E24.00539
G1 X125.422 Y119.577 E24.03047
G1 X125.422 Y133.468 E24.63236
G1 X124.843 Y133.468 E24.65745
G1 X124.843 Y119.577 E25.25933
G1 X124.414 Y119.577 E25.27791
G1 X124.414 Y121.914 E25.37917
G1 X124.264 Y121.914 E25.38568
G1 X124.264 Y133.468 E25.88631
G1 X123.685 Y133.468 E25.91139
G1 X123.685 Y121.914 E26.41202
G1 X123.106 Y121.914 E26.43711
G1 X123.106 Y133.468 E26.93773
G1 X122.527 Y133.468 E26.96282
G1 X122.527 Y121.914 E27.46345
G1 X122.077 Y121.914 E27.48294
G1 X122.077 Y124.251 E27.5842
G1 X121.948 Y124.251 E27.58979
G1 X121.948 Y133.468 E27.98916
G1 X121.369 Y133.468 E28.01425
G1 X121.369 Y124.251 E28.41361
G1 X120.79 Y124.251 E28.4387
G1 X120.79 Y133.468 E28.83806
G1 X120.211 Y133.468 E28.86315
G1 X120.211 Y124.251 E29.26252
G1 X119.632 Y124.251 E29.2876
G1 X119.632 Y133.468 E29.68697
G1 X119.609 Y133.468 E29.68797
G1 X119.609 Y135.805 E29.78923
G1 X119.053 Y135.805 E29.81332
G1 X119.053 Y124.251 E30.31394
G1 X118.474 Y124.251 E30.33903
G1 X118.474 Y135.805 E30.83966
G1 X117.895 Y135.805 E30.86474
G1 X117.895 Y124.251 E31.36537
G1 X117.403 Y124.251 E31.3867
G1 X117.403 Y126.588 E31.48796
G1 X117.316 Y126.588 E31.49172
G1 X117.316 Y135.805 E31.89108
G1 X116.737 Y135.805 E31.91617
G1 X116.737 Y126.588 E32.31553
G1 X116.158 Y126.588 E32.34062
G1 X116.158 Y135.805 E32.73999
G1 X115.579 Y135.805 E32.76507
G1 X115.579 Y126.588 E33.16444
G1 X115 Y126.588 E33.18952
G1 X115 Y135.805 E33.58889
G1 X114.421 Y135.805 E33.61398
G1 X114.421 Y126.588 E34.01334
G1 X113.842 Y126.588 E34.03843
G1 X113.842 Y135.805 E34.4378
G1 X113.263 Y135.805 E34.46288
G1 X113.263 Y126.588 E34.86225
G1 X112.684 Y126.588 E34.88733
G1 X112.684 Y135.805 E35.2867
G1 X112.105 Y135.805 E35.31179
G1 X112.105 Y124.251 E35.81241
G1 X111.526 Y124.251 E35.8375
G1 X111.526 Y135.805 E36.33813
G1 X110.947 Y135.805 E36.36321
G1 X110.947 Y124.251 E36.86384
G1 X110.368 Y124.251 E36.88892
G1 X110.368 Y133.468 E37.28829
G1 X109.789 Y133.468 E37.31338
G1 X109.789 Y124.251 E37.71274
G1 X109.21 Y124.251 E37.73783
G1 X109.21 Y133.468 E38.1372
G1 X108.631 Y133.468 E38.16228
G1 X108.631 Y124.251 E38.56165
G1 X108.052 Y124.251 E38.58673
G1 X108.052 Y133.468 E38.9861
G1 X107.473 Y133.468 E39.01119
G1 X107.473 Y121.914 E39.51181
G1 X106.894 Y121.914 E39.5369
G1 X106.894 Y133.468 E40.03753
G1 X106.315 Y133.468 E40.06261
G1 X106.315 Y121.914 E40.56324
G1 X105.736 Y121.914 E40.58832
G1 X105.736 Y133.468 E41.08895
G1 X105.157 Y133.468 E41.11404
G1 X105.157 Y119.577 E41.71593
G1 X104.578 Y119.577 E41.74101
G1 X104.578 Y133.468 E42.3429
G1 X103.999 Y133.468 E42.36799
G1 X103.999 Y119.577 E42.96987
G1 X103.42 Y119.577 E42.99496
G1 X103.42 Y133.468 E43.59685
G1 X103.38 Y133.468 E43.5986
G1 X103.38 Y131.131 E43.69986
G1 X102.841 Y131.131 E43.72319
G1 X102.841 Y114.903 E44.42634
G1 X102.263 Y114.903 E44.45143
G1 X102.263 Y131.131 E45.15458
G1 X101.684 Y131.131 E45.17966
G1 X101.684 Y114.679 E45.89252
G92 E0
G1 E-1.4 F3600
;WIPE_START
G1 F14400
G1 X101.684 Y117.079 E-1.97
;WIPE_END
G1 E-2 F3600
; acceleration to travel
M204 S1500
G1 X125.452 Y111.048 F18000
; decel to extrusion
M204 S500
G1 X128.316 Y110.321
; end travel
G1 E0 F2400
G1 F1200
G1 X128.316 Y93.869 E0.71286
G1 X127.737 Y93.869 E0.73794
G1 X127.737 Y110.097 E1.44109
G1 X127.159 Y110.097 E1.46618
G1 X127.159 Y93.869 E2.16933
G1 X126.62 Y93.869 E2.19266
G1 X126.62 Y91.532 E2.29393
G1 X126.58 Y91.532 E2.29567
G1 X126.58 Y105.423 E2.89756
G1 X126.001 Y105.423 E2.92265
G1 X126.001 Y91.532 E3.52453
G1 X125.422 Y91.532 E3.54962
G1 X125.422 Y105.423 E4.15151
G1 X124.843 Y105.423 E4.17659
G1 X124.843 Y91.532 E4.77848
G1 X124.264 Y91.532 E4.80357
G1 X124.264 Y103.086 E5.3042
G1 X123.685 Y103.086 E5.32928
G1 X123.685 Y91.532 E5.82991
G1 X123.106 Y91.532 E5.85499
G1 X123.106 Y103.086 E6.35562
G1 X122.527 Y103.086 E6.38071
G1 X122.527 Y91.532 E6.88133
G1 X121.948 Y91.532 E6.90642
G1 X121.948 Y100.749 E7.30579
G1 X121.369 Y100.749 E7.33087
G1 X121.369 Y91.532 E7.73024
G1 X120.79 Y91.532 E7.75532
G1 X120.79 Y100.749 E8.15469
G1 X120.211 Y100.749 E8.17978
G1 X120.211 Y91.532 E8.57914
G1 X119.632 Y91.532 E8.60423
G1 X119.632 Y100.749 E9.0036
G1 X119.053 Y100.749 E9.02868
G1 X119.053 Y89.195 E9.52931
G1 X118.474 Y89.195 E9.55439
G1 X118.474 Y100.749 E10.05502
G1 X117.895 Y100.749 E10.08011
G1 X117.895 Y89.195 E10.58073
G1 X117.316 Y89.195 E10.60582
G1 X117.316 Y98.412 E11.00519
G1 X116.737 Y98.412 E11.03027
G1 X116.737 Y89.195 E11.42964
G1 X116.158 Y89.195 E11.45472
G1 X116.158 Y98.412 E11.85409
G1 X115.579 Y98.412 E11.87918
G1 X115.579 Y89.195 E12.27854
G1 X115 Y89.195 E12.30363
G1 X115 Y98.412 E12.703
G1 X114.421 Y98.412 E12.72808
G1 X114.421 Y89.195 E13.12745
G1 X113.842 Y89.195 E13.15253
G1 X113.842 Y98.412 E13.5519
G1 X113.263 Y98.412 E13.57699
G1 X113.263 Y89.195 E13.97635
G1 X112.684 Y89.195 E14.00144
G1 X112.684 Y98.412 E14.4008
G1 X112.597 Y98.412 E14.40456
G1 X112.597 Y100.749 E14.50582
G1 X112.105 Y100.749 E14.52715
G1 X112.105 Y89.195 E15.02778
G1 X111.526 Y89.195 E15.05286
G1 X111.526 Y100.749 E15.55349
G1 X110.947 Y100.749 E15.57858
G1 X110.947 Y89.195 E16.0792
G1 X110.391 Y89.195 E16.10329
G1 X110.391 Y91.532 E16.20455
G1 X110.368 Y91.532 E16.20555
G1 X110.368 Y100.749 E16.60492
G1 X109.789 Y100.749 E16.63
G1 X109.789 Y91.532 E17.02937
G1 X109.21 Y91.532 E17.05446
G1 X109.21 Y100.749 E17.45382
G1 X108.631 Y100.749 E17.47891
G1 X108.631 Y91.532 E17.87827
G1 X108.052 Y91.532 E17.90336
G1 X108.052 Y100.749 E18.30273
G1 X107.923 Y100.749 E18.30832
G1 X107.923 Y103.086 E18.40958
G1 X107.473 Y103.086 E18.42907
G1 X107.473 Y91.532 E18.9297
G1 X106.894 Y91.532 E18.95479
G1 X106.894 Y103.086 E19.45541
G1 X106.315 Y103.086 E19.4805
G1 X106.315 Y91.532 E19.98113
G1 X105.736 Y91.532 E20.00621
G1 X105.736 Y103.086 E20.50684
G1 X105.586 Y103.086 E20.51335
G1 X105.586 Y105.423 E20.61461
G1 X105.157 Y105.423 E20.63319
G1 X105.157 Y91.532 E21.23507
G1 X104.578 Y91.532 E21.26016
G1 X104.578 Y105.423 E21.86205
G1 X103.999 Y105.423 E21.88713
G1 X103.999 Y91.532 E22.48902
G1 X103.42 Y91.532 E22.51411
G1 X103.42 Y105.423 E23.116
G1 X103.249 Y105.423 E23.12342
G1 X103.249 Y110.097 E23.32594
G1 X102.841 Y110.097 E23.3436
G1 X102.841 Y93.869 E24.04675
G1 X102.263 Y93.869 E24.07184
G1 X102.263 Y110.097 E24.77499
G1 X101.684 Y110.097 E24.80007
G1 X101.684 Y93.869 E25.50322
G1 X101.105 Y93.869 E25.52831
G1 X101.105 Y131.131 E27.1428
G1 X100.526 Y131.131 E27.16789
G1 X100.526 Y93.869 E28.78238
G1 X99.947 Y93.869 E28.80747
G1 X99.947 Y131.131 E30.42197
G1 X99.368 Y131.131 E30.44705
G1 X99.368 Y93.869 E32.06155
G1 X98.789 Y93.869 E32.08663
G1 X98.789 Y131.131 E33.70113
G1 X98.706 Y131.131 E33.70471
G1 X98.706 Y128.794 E33.80597
G1 X98.21 Y128.794 E33.82748
G1 X98.21 Y96.206 E35.23945
G1 X97.631 Y96.206 E35.26454
G1 X97.631 Y128.794 E36.67651
G1 X97.052 Y128.794 E36.7016
G1 X97.052 Y96.206 E38.11357
G1 X96.473 Y96.206 E38.13866
G1 X96.473 Y128.794 E39.55063
G1 X96.369 Y128.794 E39.55513
G1 X96.369 Y124.12 E39.75765
