; generated by SuperSlicer 2.4 on 2024-05-31 at 17:27:40 UTC

; 

; external perimeters extrusion width = 0.42mm
; perimeters extrusion width = 0.46mm
; infill extrusion width = 0.44mm
; solid infill extrusion width = 0.46mm
; top infill extrusion width = 0.44mm
; support material extrusion width = 0.38mm
; first layer extrusion width = 0.56mm

; external perimeters extrusion width = 0.42mm
; perimeters extrusion width = 0.46mm
; infill extrusion width = 0.44mm
; solid infill extrusion width = 0.46mm
; top infill extrusion width = 0.44mm
; support material extrusion width = 0.38mm
; first layer extrusion width = 0.56mm

; external perimeters extrusion width = 0.42mm
; perimeters extrusion width = 0.46mm
; infill extrusion width = 0.44mm
; solid infill extrusion width = 0.46mm
; top infill extrusion width = 0.44mm
; support material extrusion width = 0.38mm
; first layer extrusion width = 0.56mm

; object:{"name":"Cover","id":"Cover.stl id:0 copy 0","object_center":[107.748370,112.500000,0.000000],"boundingbox_center":[107.748370,112.500000,2.500334],"boundingbox_size":[67.699928,67.699928,5.000668]}
; object:{"name":"Eccentric Nut","id":"Eccentric Nut.stl id:1 copy 0","object_center":[149.053407,127.212406,0.000000],"boundingbox_center":[149.053407,127.212406,2.500000],"boundingbox_size":[7.998065,7.999032,5.000000]}
; object:{"name":"Load Pin","id":"Load Pin.stl id:2 copy 0","object_center":[151.752652,108.380605,0.000000],"boundingbox_center":[151.752652,108.380605,2.500000],"boundingbox_size":[8.697895,8.698948,5.000000]}
; Total objects to print: 3
M486 T3
; plater:{"center":[115.000003,112.500000,0.000000],"boundingbox_center":[115.000003,112.500000,2.500334],"boundingbox_size":[82.203194,67.699928,5.000668]}

;TYPE:Custom
G90 ; use absolute coordinates
M83 ; extruder relative mode
M140 S60 ; set final bed temp
M104 S150 ; set temporary nozzle temp to prevent oozing during homing and auto bed leveling
G4 S10 ; allow partial nozzle warmup
G28 ; home all axis
G1 Z50 F240
G1 X2 Y10 F3000
M104 S205 ; set final nozzle temp
M190 S60 ; wait for bed temp to stabilize
M109 S205 ; wait for nozzle temp to stabilize
G1 Z0.28 F240
G92 E0
G1 Y140 E10 F1500 ; prime the nozzle
G1 X2.3 F5000
G92 E0
G1 Y10 E10 F1200 ; prime the nozzle
G92 E0
M107
G21 ; set units to millimeters
G90 ; use absolute coordinates
M82 ; use absolute distances for extrusion
G92 E0
; Filament gcode
;_TOOLCHANGE 0
M107
;LAYER_CHANGE
;Z:0.2
;HEIGHT:0.2
;BEFORE_LAYER_CHANGE
;0.2


G1 E-2 F3600
G1 Z0.2 F18000
;AFTER_LAYER_CHANGE
;0.2
G92 E0
M204 S500
G1 X82.266 Y86.266
G1 E2 F2400
;TYPE:Skirt
;WIDTH:0.48
G1 F1200
G1 X80.62 Y87.971 E2.08612
G1 X79.209 Y89.631 E2.16528
G1 X78.013 Y91.214 E2.23739
G1 X76.703 Y93.182 E2.32332
G1 X75.612 Y95.059 E2.40222
G1 X74.631 Y96.999 E2.48122
G1 X73.766 Y98.994 E2.56024
G1 X73.02 Y101.037 E2.63931
G1 X72.397 Y103.123 E2.71844
G1 X71.938 Y105.054 E2.79056
G1 X71.531 Y107.39 E2.87673
G1 X71.292 Y109.552 E2.95579
G1 X71.185 Y111.534 E3.02791
G1 X71.198 Y113.898 E3.11384
G1 X71.344 Y116.068 E3.19287
G1 X71.616 Y118.221 E3.27176
G1 X72.014 Y120.362 E3.35091
G1 X72.488 Y122.29 E3.42306
G1 X73.193 Y124.556 E3.5093
G1 X73.968 Y126.59 E3.58842
G1 X74.78 Y128.403 E3.6606
G1 X75.78 Y130.336 E3.7397
G1 X76.892 Y132.207 E3.8188
G1 X78.113 Y134.009 E3.89791
G1 X79.438 Y135.737 E3.97706
G1 X80.997 Y137.524 E4.06324
G1 X82.526 Y139.074 E4.14237
G1 X84.001 Y140.408 E4.21463
G1 X85.85 Y141.891 E4.30079
G1 X87.631 Y143.147 E4.37998
G1 X89.483 Y144.296 E4.4592
G1 X91.401 Y145.334 E4.53846
G1 X93.202 Y146.182 E4.61082
G1 X95.41 Y147.063 E4.69721
G1 X97.484 Y147.744 E4.77653
G1 X99.409 Y148.257 E4.84895
G1 X101.542 Y148.702 E4.92813
G1 X103.703 Y149.02 E5.00754
G1 X106.07 Y149.221 E5.09383
G1 X108.255 Y149.272 E5.17329
G1 X110.251 Y149.205 E5.24587
G1 X112.617 Y148.985 E5.33222
G1 X114.771 Y148.652 E5.41145
G1 X116.916 Y148.195 E5.49113
G1 X119.029 Y147.611 E5.57081
G1 X120.927 Y146.969 E5.64363
G1 X123.032 Y146.12 E5.72611
G1 X151.697 Y133.712 E6.86131
G1 X152.612 Y133.26 E6.89842
G1 X153.31 Y132.789 E6.92901
G1 X154.114 Y132.073 E6.96813
G1 X154.952 Y131.013 E7.01725
G1 X155.575 Y129.801 E7.06676
G1 X155.881 Y128.834 E7.10362
G1 X158.991 Y109.749 E7.80638
G1 X159.114 Y108.668 E7.84595
G1 X158.997 Y107.048 E7.90498
G1 X158.834 Y106.349 E7.93104
G1 X158.477 Y105.37 E7.96892
G1 X157.772 Y104.134 E8.02064
G1 X157.097 Y103.31 E8.05936
G1 X156.548 Y102.79 E8.08683
G1 X129.206 Y82.399 E9.32643
G1 X127.578 Y81.301 E9.39781
G1 X125.872 Y80.296 E9.46977
G1 X124.273 Y79.526 E9.53427
G1 X120.658 Y78.04 E9.67633
G1 X118.579 Y77.359 E9.75581
G1 X116.466 Y76.803 E9.83524
G1 X114.15 Y76.343 E9.92104
G1 X111.987 Y76.041 E10.00043
G1 X109.808 Y75.869 E10.07985
G1 X107.804 Y75.827 E10.15271
G1 X105.638 Y75.904 E10.23147
G1 X103.281 Y76.133 E10.31754
G1 X101.13 Y76.477 E10.3967
G1 X99.012 Y76.945 E10.47555
G1 X97.098 Y77.478 E10.54775
G1 X95.038 Y78.18 E10.62686
G1 X92.847 Y79.084 E10.71299
G1 X90.897 Y80.033 E10.79179
G1 X88.999 Y81.094 E10.87084
G1 X87.167 Y82.266 E10.94986
G1 X85.408 Y83.544 E11.02888
G1 X83.87 Y84.798 E11.101
G1 X82.31 Y86.226 E11.17785
G92 E0
G1 E-1.4 F3600
;WIPE_START
G1 F14400
G1 X80.641 Y87.95 E-1.97
;WIPE_END
G1 E-2 F3600
; printing object Cover.stl id:0 copy 0
M486 S0
; acceleration to travel
M204 S1500
G1 X89.975 Y92.916 F18000
; decel to extrusion
M204 S500
G1 X91.1 Y93.515
; end travel
G1 E0 F2400
;TYPE:Support material
;WIDTH:0.564
G1 F1200
G1 X95.774 Y93.515 E0.20252
G1 X95.774 Y91.177 E0.30378
G1 X102.785 Y91.177 E0.60756
G1 X102.785 Y88.84 E0.70883
G1 X112.711 Y88.84 E1.1389
G1 X112.711 Y91.177 E1.24016
G1 X119.723 Y91.177 E1.54394
G1 X119.723 Y93.515 E1.6452
G1 X124.397 Y93.515 E1.84772
G1 X124.397 Y95.852 E1.94898
G1 X126.734 Y95.852 E2.05024
G1 X126.734 Y100.526 E2.25277
G1 X129.071 Y100.526 E2.35403
G1 X129.071 Y107.537 E2.65781
G1 X131.408 Y107.537 E2.75907
G1 X131.408 Y117.463 E3.18914
G1 X129.071 Y117.463 E3.2904
G1 X129.071 Y124.474 E3.59418
G1 X126.734 Y124.474 E3.69545
G1 X126.734 Y129.148 E3.89797
G1 X124.397 Y129.148 E3.99923
G1 X124.397 Y131.485 E4.10049
G1 X119.723 Y131.485 E4.30301
G1 X119.723 Y133.823 E4.40427
G1 X112.711 Y133.823 E4.70805
G1 X112.711 Y136.16 E4.80931
G1 X102.785 Y136.16 E5.23939
G1 X102.785 Y133.823 E5.34065
G1 X95.774 Y133.823 E5.64443
G1 X95.774 Y131.485 E5.74569
G1 X91.1 Y131.485 E5.94821
G1 X91.1 Y129.148 E6.04947
G1 X88.763 Y129.148 E6.15073
G1 X88.763 Y124.474 E6.35325
G1 X86.426 Y124.474 E6.45451
G1 X86.426 Y117.463 E6.7583
G1 X84.089 Y117.463 E6.85956
G1 X84.089 Y107.537 E7.28963
G1 X86.426 Y107.537 E7.39089
G1 X86.426 Y100.526 E7.69467
G1 X88.763 Y100.526 E7.79593
G1 X88.763 Y95.852 E7.99846
G1 X91.1 Y95.852 E8.09972
G1 X91.1 Y93.575 E8.19838
; acceleration to travel
M204 S1500
G1 X96.792 Y100.974 F18000
; decel to extrusion
M204 S500
G1 X98.689 Y103.441
; end travel
G1 F1200
G1 X98.689 Y105.778 E8.29964
G1 X96.352 Y105.778 E8.4009
G1 X96.352 Y110.452 E8.60342
G1 X94.015 Y110.452 E8.70468
G1 X94.015 Y114.548 E8.88217
G1 X96.352 Y114.548 E8.98344
G1 X96.352 Y119.222 E9.18596
G1 X98.689 Y119.222 E9.28722
G1 X98.689 Y121.559 E9.38848
G1 X101.026 Y121.559 E9.48974
G1 X101.026 Y123.897 E9.591
G1 X105.7 Y123.897 E9.79352
G1 X105.7 Y126.234 E9.89478
G1 X109.797 Y126.234 E10.07228
G1 X109.797 Y123.897 E10.17354
G1 X114.471 Y123.897 E10.37606
G1 X114.471 Y121.559 E10.47732
G1 X116.808 Y121.559 E10.57858
G1 X116.808 Y119.222 E10.67984
G1 X119.145 Y119.222 E10.7811
G1 X119.145 Y114.548 E10.98362
G1 X121.482 Y114.548 E11.08488
G1 X121.482 Y110.452 E11.26238
G1 X119.145 Y110.452 E11.36364
G1 X119.145 Y105.778 E11.56616
G1 X116.808 Y105.778 E11.66742
G1 X116.808 Y103.441 E11.76868
G1 X114.471 Y103.441 E11.86994
G1 X114.471 Y101.103 E11.9712
G1 X109.797 Y101.103 E12.17372
G1 X109.797 Y98.766 E12.27498
G1 X105.7 Y98.766 E12.45248
G1 X105.7 Y101.103 E12.55374
G1 X101.026 Y101.103 E12.75626
G1 X101.026 Y103.441 E12.85752
G1 X98.749 Y103.441 E12.95618
G92 E0
G1 E-1.4 F3600
;WIPE_START
G1 F14400
G1 X98.689 Y105.778 E-1.95524
G1 X98.627 Y105.778 E-1.97
;WIPE_END
G1 E-2 F3600
; acceleration to travel
M204 S1500
G1 X127.435 Y107.464 F18000
; decel to extrusion
M204 S500
G1 X130.907 Y107.667
; end travel
G1 E0 F2400
G1 F1200
G1 X130.907 Y117.109 E0.40907
G1 X130.328 Y117.109 E0.43416
G1 X130.328 Y107.891 E0.83353
G1 X129.749 Y107.891 E0.85861
G1 X129.749 Y117.109 E1.25798
G1 X129.171 Y117.109 E1.28306
G1 X129.171 Y107.891 E1.68243
G1 X128.717 Y107.891 E1.7021
G1 X128.717 Y100.88 E2.00588
G1 X128.592 Y100.88 E2.0113
G1 X128.592 Y124.12 E3.01823
G1 X128.013 Y124.12 E3.04332
G1 X128.013 Y100.88 E4.05025
G1 X127.434 Y100.88 E4.07533
G1 X127.434 Y124.12 E5.08226
G1 X126.855 Y124.12 E5.10735
G1 X126.855 Y100.88 E6.11428
G1 X126.379 Y100.88 E6.13487
G1 X126.379 Y96.206 E6.33739
G1 X126.276 Y96.206 E6.34189
G1 X126.276 Y128.794 E7.75386
G1 X125.697 Y128.794 E7.77895
G1 X125.697 Y96.206 E9.19092
G1 X125.118 Y96.206 E9.21601
G1 X125.118 Y128.794 E10.62798
G1 X124.539 Y128.794 E10.65307
G1 X124.539 Y96.206 E12.06504
G1 X124.042 Y96.206 E12.08655
G1 X124.042 Y93.869 E12.18781
G1 X123.96 Y93.869 E12.19139
G1 X123.96 Y131.131 E13.80589
G1 X123.381 Y131.131 E13.83097
G1 X123.381 Y93.869 E15.44547
G1 X122.802 Y93.869 E15.47055
G1 X122.802 Y131.131 E17.08505
G1 X122.223 Y131.131 E17.11014
G1 X122.223 Y93.869 E18.72463
G1 X121.644 Y93.869 E18.74972
G1 X121.644 Y131.131 E20.36421
G1 X121.065 Y131.131 E20.3893
G1 X121.065 Y114.903 E21.09245
G1 X120.486 Y114.903 E21.11753
G1 X120.486 Y131.131 E21.82068
G1 X119.907 Y131.131 E21.84577
G1 X119.907 Y114.903 E22.54892
G1 X119.499 Y114.903 E22.56658
G1 X119.499 Y119.577 E22.7691
G1 X119.328 Y119.577 E22.77652
G1 X119.328 Y133.468 E23.37841
G1 X118.749 Y133.468 E23.4035
G1 X118.749 Y119.577 E24.00539
G1 X118.17 Y119.577 E24.03047
G1 X118.17 Y133.468 E24.63236
G1 X117.591 Y133.468 E24.65745
G1 X117.591 Y119.577 E25.25933
G1 X117.162 Y119.577 E25.27791
G1 X117.162 Y121.914 E25.37917
G1 X117.012 Y121.914 E25.38568
G1 X117.012 Y133.468 E25.88631
G1 X116.433 Y133.468 E25.91139
G1 X116.433 Y121.914 E26.41202
G1 X115.854 Y121.914 E26.43711
G1 X115.854 Y133.468 E26.93773
G1 X115.275 Y133.468 E26.96282
G1 X115.275 Y121.914 E27.46345
G1 X114.825 Y121.914 E27.48294
G1 X114.825 Y124.251 E27.5842
G1 X114.696 Y124.251 E27.58979
G1 X114.696 Y133.468 E27.98916
G1 X114.117 Y133.468 E28.01425
G1 X114.117 Y124.251 E28.41361
G1 X113.538 Y124.251 E28.4387
G1 X113.538 Y133.468 E28.83806
G1 X112.959 Y133.468 E28.86315
G1 X112.959 Y124.251 E29.26252
G1 X112.38 Y124.251 E29.2876
G1 X112.38 Y133.468 E29.68697
G1 X112.357 Y133.468 E29.68797
G1 X112.357 Y135.805 E29.78923
G1 X111.801 Y135.805 E29.81332
G1 X111.801 Y124.251 E30.31394
G1 X111.222 Y124.251 E30.33903
G1 X111.222 Y135.805 E30.83966
G1 X110.643 Y135.805 E30.86474
G1 X110.643 Y124.251 E31.36537
G1 X110.151 Y124.251 E31.3867
G1 X110.151 Y126.588 E31.48796
G1 X110.064 Y126.588 E31.49172
G1 X110.064 Y135.805 E31.89108
G1 X109.485 Y135.805 E31.91617
G1 X109.485 Y126.588 E32.31553
G1 X108.906 Y126.588 E32.34062
G1 X108.906 Y135.805 E32.73999
G1 X108.327 Y135.805 E32.76507
G1 X108.327 Y126.588 E33.16444
G1 X107.748 Y126.588 E33.18952
G1 X107.748 Y135.805 E33.58889
G1 X107.169 Y135.805 E33.61398
G1 X107.169 Y126.588 E34.01334
G1 X106.59 Y126.588 E34.03843
G1 X106.59 Y135.805 E34.4378
G1 X106.011 Y135.805 E34.46288
G1 X106.011 Y126.588 E34.86225
G1 X105.432 Y126.588 E34.88733
G1 X105.432 Y135.805 E35.2867
G1 X104.853 Y135.805 E35.31179
G1 X104.853 Y124.251 E35.81241
G1 X104.275 Y124.251 E35.8375
G1 X104.275 Y135.805 E36.33813
G1 X103.696 Y135.805 E36.36321
G1 X103.696 Y124.251 E36.86384
G1 X103.117 Y124.251 E36.88892
G1 X103.117 Y133.468 E37.28829
G1 X102.538 Y133.468 E37.31338
G1 X102.538 Y124.251 E37.71274
G1 X101.959 Y124.251 E37.73783
G1 X101.959 Y133.468 E38.1372
G1 X101.38 Y133.468 E38.16228
G1 X101.38 Y124.251 E38.56165
G1 X100.801 Y124.251 E38.58673
G1 X100.801 Y133.468 E38.9861
G1 X100.222 Y133.468 E39.01119
G1 X100.222 Y121.914 E39.51181
G1 X99.643 Y121.914 E39.5369
G1 X99.643 Y133.468 E40.03753
G1 X99.064 Y133.468 E40.06261
G1 X99.064 Y121.914 E40.56324
G1 X98.485 Y121.914 E40.58832
G1 X98.485 Y133.468 E41.08895
G1 X97.906 Y133.468 E41.11404
G1 X97.906 Y119.577 E41.71593
G1 X97.327 Y119.577 E41.74101
G1 X97.327 Y133.468 E42.3429
G1 X96.748 Y133.468 E42.36799
G1 X96.748 Y119.577 E42.96987
G1 X96.169 Y119.577 E42.99496
G1 X96.169 Y133.468 E43.59685
G1 X96.128 Y133.468 E43.5986
G1 X96.128 Y131.131 E43.69986
G1 X95.59 Y131.131 E43.72319
G1 X95.59 Y114.903 E44.42634
G1 X95.011 Y114.903 E44.45143
G1 X95.011 Y131.131 E45.15458
G1 X94.432 Y131.131 E45.17966
G1 X94.432 Y114.679 E45.89252
G92 E0
G1 E-1.4 F3600
;WIPE_START
G1 F14400
G1 X94.432 Y117.079 E-1.97
;WIPE_END
G1 E-2 F3600
; acceleration to travel
M204 S1500
G1 X118.2 Y111.048 F18000
; decel to extrusion
M204 S500
G1 X121.065 Y110.321
; end travel
G1 E0 F2400
G1 F1200
G1 X121.065 Y93.869 E0.71286
G1 X120.486 Y93.869 E0.73794
G1 X120.486 Y110.097 E1.44109
G1 X119.907 Y110.097 E1.46618
G1 X119.907 Y93.869 E2.16933
G1 X119.368 Y93.869 E2.19266
G1 X119.368 Y91.532 E2.29393
G1 X119.328 Y91.532 E2.29567
G1 X119.328 Y105.423 E2.89756
G1 X118.749 Y105.423 E2.92265
G1 X118.749 Y91.532 E3.52453
G1 X118.17 Y91.532 E3.54962
G1 X118.17 Y105.423 E4.15151
G1 X117.591 Y105.423 E4.17659
G1 X117.591 Y91.532 E4.77848
G1 X117.012 Y91.532 E4.80357
G1 X117.012 Y103.086 E5.3042
G1 X116.433 Y103.086 E5.32928
G1 X116.433 Y91.532 E5.82991
G1 X115.854 Y91.532 E5.85499
G1 X115.854 Y103.086 E6.35562
G1 X115.275 Y103.086 E6.38071
G1 X115.275 Y91.532 E6.88133
G1 X114.696 Y91.532 E6.90642
G1 X114.696 Y100.749 E7.30579
G1 X114.117 Y100.749 E7.33087
G1 X114.117 Y91.532 E7.73024
G1 X113.538 Y91.532 E7.75532
G1 X113.538 Y100.749 E8.15469
G1 X112.959 Y100.749 E8.17978
G1 X112.959 Y91.532 E8.57914
G1 X112.38 Y91.532 E8.60423
G1 X112.38 Y100.749 E9.0036
G1 X111.801 Y100.749 E9.02868
G1 X111.801 Y89.195 E9.52931
G1 X111.222 Y89.195 E9.55439
G1 X111.222 Y100.749 E10.05502
G1 X110.643 Y100.749 E10.08011
G1 X110.643 Y89.195 E10.58073
G1 X110.064 Y89.195 E10.60582
G1 X110.064 Y98.412 E11.00519
G1 X109.485 Y98.412 E11.03027
G1 X109.485 Y89.195 E11.42964
G1 X108.906 Y89.195 E11.45472
G1 X108.906 Y98.412 E11.85409
G1 X108.327 Y98.412 E11.87918
G1 X108.327 Y89.195 E12.27854
G1 X107.748 Y89.195 E12.30363
G1 X107.748 Y98.412 E12.703
G1 X107.169 Y98.412 E12.72808
G1 X107.169 Y89.195 E13.12745
G1 X106.59 Y89.195 E13.15253
G1 X106.59 Y98.412 E13.5519
G1 X106.011 Y98.412 E13.57699
G1 X106.011 Y89.195 E13.97635
G1 X105.432 Y89.195 E14.00144
G1 X105.432 Y98.412 E14.4008
G1 X105.346 Y98.412 E14.40456
G1 X105.346 Y100.749 E14.50582
G1 X104.853 Y100.749 E14.52715
G1 X104.853 Y89.195 E15.02778
G1 X104.275 Y89.195 E15.05286
G1 X104.275 Y100.749 E15.55349
G1 X103.696 Y100.749 E15.57858
G1 X103.696 Y89.195 E16.0792
G1 X103.14 Y89.195 E16.10329
G1 X103.14 Y91.532 E16.20455
G1 X103.117 Y91.532 E16.20555
G1 X103.117 Y100.749 E16.60492
G1 X102.538 Y100.749 E16.63
G1 X102.538 Y91.532 E17.02937
G1 X101.959 Y91.532 E17.05446
G1 X101.959 Y100.749 E17.45382
G1 X101.38 Y100.749 E17.47891
G1 X101.38 Y91.532 E17.87827
G1 X100.801 Y91.532 E17.90336
G1 X100.801 Y100.749 E18.30273
G1 X100.672 Y100.749 E18.30832
G1 X100.672 Y103.086 E18.40958
G1 X100.222 Y103.086 E18.42907
G1 X100.222 Y91.532 E18.9297
G1 X99.643 Y91.532 E18.95479
G1 X99.643 Y103.086 E19.45541
G1 X99.064 Y103.086 E19.4805
G1 X99.064 Y91.532 E19.98113
G1 X98.485 Y91.532 E20.00621
G1 X98.485 Y103.086 E20.50684
G1 X98.335 Y103.086 E20.51335
G1 X98.335 Y105.423 E20.61461
G1 X97.906 Y105.423 E20.63319
G1 X97.906 Y91.532 E21.23507
G1 X97.327 Y91.532 E21.26016
G1 X97.327 Y105.423 E21.86205
G1 X96.748 Y105.423 E21.88713
G1 X96.748 Y91.532 E22.48902
G1 X96.169 Y91.532 E22.51411
G1 X96.169 Y105.423 E23.116
G1 X95.997 Y105.423 E23.12342
G1 X95.997 Y110.097 E23.32594
G1 X95.59 Y110.097 E23.3436
G1 X95.59 Y93.869 E24.04675
G1 X95.011 Y93.869 E24.07184
G1 X95.011 Y110.097 E24.77499
G1 X94.432 Y110.097 E24.80007
G1 X94.432 Y93.869 E25.50322
G1 X93.853 Y93.869 E25.52831
G1 X93.853 Y131.131 E27.1428
