; generated by SuperSlicer 2.4 on 2024-02-20 at 22:14:37 UTC


;
;

;
;
; TODO: check the size of the extruder and the y-bar clearance. Optimize & test supports.

; external perimeters extrusion width = 0.40mm
; perimeters extrusion width = 0.40mm
; infill extrusion width = 0.40mm
; solid infill extrusion width = 0.40mm
; top infill extrusion width = 0.40mm
; first layer extrusion width = 0.56mm

; object:{"name":"BlankStencil","id":"BlankStencil.STL id:0 copy 0","object_center":[60.000000,60.000000,0.000000],"boundingbox_center":[60.000000,60.000000,0.100000],"boundingbox_size":[99.871651,100.000000,0.200000]}
; plater:{"center":[60.000000,60.000000,0.000000],"boundingbox_center":[60.000000,60.000000,0.100000],"boundingbox_size":[99.871651,100.000000,0.200000]}

;TYPE:Custom
; M190 S0
;M109 S0 ; uncomment to remove set&wait temp gcode added automatically after this start gcode
print_start EXTRUDER=245 BED=90 CHAMBER=50

;G92 E0
;G1 E10 F1500 ; prime the nozzle
M107
G21 ; set units to millimeters
G90 ; use absolute coordinates
M83 ; use relative distances for extrusion
SET_PRESSURE_ADVANCE ADVANCE=0.04
;_TOOLCHANGE 0
M104 S245 ; set temperature
M109 S245 ; set temperature and wait for it to be reached
M190 S90 ; set bed temperature and wait for it to be reached
M107
;LAYER_CHANGE
;Z:0.25
;HEIGHT:0.25
;BEFORE_LAYER_CHANGE
;0.25


G1 Z0.25 F18000
;AFTER_LAYER_CHANGE
;0.25
TIMELAPSE_TAKE_FRAME
G92 E0
G1 E-2 F3000
G1 Z0.65 F18000
M204 S1000
G1 X17.733 Y18.537
G1 Z0.25
G1 E2 F1800
;TYPE:Skirt
;WIDTH:0.52
G1 X16.923 Y19.311 E0.05428
G1 X13.028 Y23.878 E0.29095
G1 X9.615 Y28.815 E0.29095
G1 X6.718 Y34.073 E0.29095
G1 X4.499 Y39.245 E0.2728
G1 X2.684 Y44.966 E0.29095
G1 X1.457 Y50.842 E0.29095
G1 X0.831 Y56.812 E0.29095
G1 X0.812 Y62.814 E0.29095
G1 X1.4 Y68.788 E0.29095
G1 X2.59 Y74.671 E0.29095
G1 X4.369 Y80.404 E0.29095
G1 X6.718 Y85.927 E0.29095
G1 X9.615 Y91.185 E0.29095
G1 X13.028 Y96.122 E0.29095
G1 X16.923 Y100.689 E0.29095
G1 X21.261 Y104.838 E0.29095
G1 X25.996 Y108.527 E0.29095
G1 X31.08 Y111.718 E0.29095
G1 X36.46 Y114.379 E0.29095
G1 X42.44 Y116.593 E0.30909
G1 X48.256 Y118.08 E0.29095
G1 X54.192 Y118.97 E0.29095
G1 X60.187 Y119.255 E0.29095
G1 X66.181 Y118.932 E0.29095
G1 X72.111 Y118.004 E0.29095
G1 X77.917 Y116.481 E0.29095
G1 X83.54 Y114.379 E0.29095
G1 X88.92 Y111.718 E0.29095
G1 X94.004 Y108.527 E0.29095
G1 X98.739 Y104.838 E0.29095
G1 X103.077 Y100.689 E0.29095
G1 X106.972 Y96.122 E0.29095
G1 X110.385 Y91.185 E0.29095
G1 X113.282 Y85.927 E0.29095
G1 X115.501 Y80.755 E0.2728
G1 X117.316 Y75.034 E0.29095
G1 X118.543 Y69.158 E0.29095
G1 X119.169 Y63.188 E0.29095
G1 X119.188 Y57.186 E0.29095
G1 X118.6 Y51.212 E0.29095
G1 X117.41 Y45.329 E0.29095
G1 X115.631 Y39.596 E0.29095
G1 X113.282 Y34.073 E0.29095
G1 X110.385 Y28.815 E0.29095
G1 X106.972 Y23.878 E0.29095
G1 X103.077 Y19.311 E0.29095
G1 X98.739 Y15.162 E0.29095
G1 X94.004 Y11.473 E0.29095
G1 X88.92 Y8.282 E0.29095
G1 X83.54 Y5.621 E0.29095
G1 X77.56 Y3.407 E0.30909
G1 X71.744 Y1.92 E0.29095
G1 X65.808 Y1.03 E0.29095
G1 X59.813 Y0.745 E0.29095
G1 X53.819 Y1.068 E0.29095
G1 X47.889 Y1.996 E0.29095
G1 X42.083 Y3.519 E0.29095
G1 X36.46 Y5.621 E0.29095
G1 X31.08 Y8.282 E0.29095
G1 X25.996 Y11.473 E0.29095
G1 X21.261 Y15.162 E0.29095
G1 X17.776 Y18.496 E0.23376
G1 X18.097 Y18.831 F18000
G1 F1800
G1 X17.277 Y19.615 E0.05497
G1 X13.411 Y24.144 E0.28866
G1 X10.196 Y28.764 E0.2728
G1 X7.291 Y33.963 E0.28866
G1 X4.927 Y39.429 E0.28866
G1 X3.129 Y45.106 E0.28866
G1 X1.914 Y50.936 E0.28866
G1 X1.295 Y56.859 E0.28866
G1 X1.278 Y62.814 E0.28866
G1 X1.864 Y68.74 E0.28866
G1 X3.047 Y74.577 E0.28866
G1 X4.814 Y80.264 E0.28866
G1 X7.147 Y85.743 E0.28866
G1 X10.022 Y90.958 E0.28866
G1 X13.411 Y95.856 E0.28866
G1 X17.277 Y100.385 E0.28866
G1 X21.582 Y104.5 E0.28866
G1 X26.281 Y108.158 E0.28866
G1 X31.326 Y111.323 E0.28866
G1 X36.666 Y113.96 E0.28866
G1 X42.557 Y116.142 E0.30451
G1 X48.326 Y117.619 E0.28866
G1 X54.215 Y118.504 E0.28866
G1 X60.164 Y118.789 E0.28866
G1 X66.111 Y118.471 E0.28866
G1 X71.995 Y117.553 E0.28866
G1 X77.756 Y116.044 E0.28866
G1 X83.334 Y113.96 E0.28866
G1 X88.674 Y111.323 E0.28866
G1 X93.719 Y108.158 E0.28866
G1 X98.418 Y104.5 E0.28866
G1 X102.723 Y100.385 E0.28866
G1 X106.589 Y95.856 E0.28866
G1 X109.804 Y91.236 E0.2728
G1 X112.709 Y86.037 E0.28866
G1 X115.073 Y80.571 E0.28866
G1 X116.871 Y74.894 E0.28866
G1 X118.086 Y69.064 E0.28866
G1 X118.705 Y63.141 E0.28866
G1 X118.722 Y57.186 E0.28866
G1 X118.136 Y51.26 E0.28866
G1 X116.953 Y45.423 E0.28866
G1 X115.186 Y39.736 E0.28866
G1 X112.853 Y34.257 E0.28866
G1 X109.978 Y29.042 E0.28866
G1 X106.589 Y24.144 E0.28866
G1 X102.723 Y19.615 E0.28866
G1 X98.418 Y15.5 E0.28866
G1 X93.719 Y11.842 E0.28866
G1 X88.674 Y8.677 E0.28866
G1 X83.334 Y6.04 E0.28866
G1 X77.443 Y3.858 E0.30451
G1 X71.674 Y2.381 E0.28866
G1 X65.785 Y1.496 E0.28866
G1 X59.836 Y1.211 E0.28866
G1 X53.889 Y1.529 E0.28866
G1 X48.005 Y2.447 E0.28866
G1 X42.244 Y3.956 E0.28866
G1 X36.666 Y6.04 E0.28866
G1 X31.326 Y8.677 E0.28866
G1 X26.281 Y11.842 E0.28866
G1 X21.582 Y15.5 E0.28866
G1 X18.14 Y18.79 E0.23078
G1 E-2 F3000
M204 S1500
G1 Z0.65 F18000
M204 S1000
G1 X20.824 Y21.627
G1 Z0.25
G1 E2 F1800
;WIDTH:0.56
G1 X24.362 Y18.281 E0.2563
G1 X28.765 Y14.889 E0.29251
G1 X33.489 Y11.961 E0.29252
G1 X38.485 Y9.525 E0.29252
G1 X43.702 Y7.607 E0.29252
G1 X49.086 Y6.227 E0.29252
G1 X54.582 Y5.399 E0.29252
G1 X60.134 Y5.131 E0.29252
G1 X65.659 Y5.424 E0.29116
G1 X71.125 Y6.271 E0.29111
G1 X76.478 Y7.664 E0.29111
G1 X81.688 Y9.599 E0.2925
G1 X86.675 Y12.052 E0.29249
G1 X91.367 Y14.981 E0.2911
G1 X95.74 Y18.368 E0.29112
G1 X99.768 Y22.197 E0.29249
G1 X103.373 Y26.393 E0.29113
G1 X106.55 Y30.953 E0.2925
G1 X109.238 Y35.788 E0.29116
G1 X111.426 Y40.869 E0.29112
G1 X113.091 Y46.144 E0.29111
G1 X114.22 Y51.585 E0.29249
G1 X114.792 Y57.088 E0.29113
G1 X114.806 Y62.632 E0.2918
G1 X114.256 Y68.176 E0.29318
G1 X113.154 Y73.612 E0.29194
G1 X111.403 Y79.193 E0.30782
G1 X109.202 Y84.284 E0.29191
G1 X106.493 Y89.137 E0.29252
G1 X103.307 Y93.692 E0.29255
G1 X99.667 Y97.909 E0.29318
G1 X95.638 Y101.719 E0.29182
G1 X91.235 Y105.111 E0.29251
G1 X86.511 Y108.039 E0.29252
G1 X81.515 Y110.475 E0.29252
G1 X76.298 Y112.393 E0.29252
G1 X70.914 Y113.773 E0.29252
G1 X65.418 Y114.601 E0.29252
G1 X59.866 Y114.869 E0.29252
G1 X54.341 Y114.576 E0.29116
G1 X48.875 Y113.729 E0.29111
G1 X43.522 Y112.336 E0.29111
G1 X38.312 Y110.401 E0.2925
G1 X33.325 Y107.948 E0.29249
G1 X28.633 Y105.019 E0.2911
G1 X24.26 Y101.632 E0.29112
G1 X20.232 Y97.803 E0.29249
G1 X16.627 Y93.607 E0.29113
G1 X13.45 Y89.047 E0.2925
G1 X10.762 Y84.212 E0.29116
G1 X8.574 Y79.131 E0.29112
G1 X6.909 Y73.856 E0.29111
G1 X5.78 Y68.415 E0.29249
G1 X5.208 Y62.912 E0.29114
G1 X5.194 Y57.366 E0.29188
G1 X5.786 Y51.547 E0.30782
G1 X6.917 Y46.117 E0.29194
G1 X8.598 Y40.806 E0.29318
G1 X10.798 Y35.716 E0.29183
G1 X13.507 Y30.863 E0.29252
G1 X16.693 Y26.308 E0.29255
G1 X20.333 Y22.091 E0.29318
G1 X20.78 Y21.668 E0.03237
G1 X21.128 Y22.036 F18000
G1 F1800
G1 X24.681 Y18.674 E0.25743
G1 X29.043 Y15.313 E0.28982
G1 X33.723 Y12.41 E0.28982
G1 X38.672 Y9.996 E0.28982
G1 X43.84 Y8.095 E0.28982
G1 X49.175 Y6.726 E0.28982
G1 X54.62 Y5.904 E0.28982
G1 X60.12 Y5.637 E0.28982
G1 X65.619 Y5.929 E0.28981
G1 X71.034 Y6.769 E0.28842
G1 X76.338 Y8.15 E0.28842
G1 X81.499 Y10.069 E0.2898
G1 X86.44 Y12.5 E0.28979
G1 X91.088 Y15.403 E0.28841
G1 X95.42 Y18.76 E0.28844
G1 X99.41 Y22.555 E0.2898
G1 X102.98 Y26.713 E0.28844
G1 X106.127 Y31.232 E0.28981
G1 X108.789 Y36.023 E0.28846
G1 X110.956 Y41.057 E0.28843
G1 X112.604 Y46.284 E0.28842
G1 X113.722 Y51.676 E0.28979
G1 X114.287 Y57.127 E0.28844
G1 X114.299 Y62.62 E0.28911
G1 X113.754 Y68.113 E0.29048
G1 X112.66 Y73.498 E0.28923
G1 X110.932 Y79.004 E0.30368
G1 X108.754 Y84.049 E0.2892
G1 X106.071 Y88.858 E0.28982
G1 X102.915 Y93.371 E0.28985
G1 X99.31 Y97.55 E0.29048
G1 X95.319 Y101.326 E0.28913
G1 X90.957 Y104.687 E0.28982
G1 X86.277 Y107.59 E0.28982
G1 X81.328 Y110.004 E0.28982
G1 X76.16 Y111.905 E0.28982
G1 X70.825 Y113.274 E0.28982
G1 X65.38 Y114.096 E0.28982
G1 X59.88 Y114.363 E0.28982
G1 X54.381 Y114.071 E0.28981
G1 X48.966 Y113.231 E0.28842
G1 X43.662 Y111.85 E0.28842
G1 X38.501 Y109.931 E0.2898
G1 X33.56 Y107.5 E0.28979
G1 X28.912 Y104.597 E0.28841
G1 X24.58 Y101.24 E0.28844
G1 X20.59 Y97.445 E0.2898
G1 X17.02 Y93.287 E0.28844
G1 X13.873 Y88.768 E0.28981
G1 X11.211 Y83.977 E0.28846
G1 X9.044 Y78.943 E0.28843
G1 X7.396 Y73.716 E0.28842
G1 X6.278 Y68.324 E0.28979
G1 X5.713 Y62.873 E0.28844
G1 X5.701 Y57.378 E0.28918
G1 X6.285 Y51.638 E0.30369
G1 X7.403 Y46.257 E0.28923
G1 X9.068 Y40.995 E0.29048
G1 X11.246 Y35.951 E0.28913
G1 X13.929 Y31.142 E0.28982
G1 X17.085 Y26.629 E0.28985
G1 X20.69 Y22.45 E0.29048
G1 X21.084 Y22.077 E0.02854
G1 X21.432 Y22.445 F18000
G1 F1800
G1 X25 Y19.067 E0.25857
G1 X29.321 Y15.736 E0.28712
G1 X33.956 Y12.859 E0.28712
G1 X38.859 Y10.467 E0.28712
G1 X43.979 Y8.582 E0.28712
G1 X49.263 Y7.225 E0.28712
G1 X54.657 Y6.409 E0.28712
G1 X60.106 Y6.144 E0.28712
G1 X65.554 Y6.431 E0.28711
G1 X70.919 Y7.262 E0.28573
G1 X76.173 Y8.63 E0.28573
G1 X81.287 Y10.529 E0.28711
G1 X86.183 Y12.937 E0.2871
G1 X90.788 Y15.812 E0.28572
G1 X95.08 Y19.136 E0.28574
G1 X99.034 Y22.894 E0.28711
G1 X102.572 Y27.013 E0.28574
G1 X105.691 Y31.489 E0.28711
G1 X108.341 Y36.258 E0.28712
G1 X110.485 Y41.246 E0.28574
G1 X112.117 Y46.424 E0.28573
G1 X113.223 Y51.766 E0.2871
G1 X113.782 Y57.166 E0.28575
G1 X113.793 Y62.609 E0.28642
G1 X113.251 Y68.05 E0.28778
G1 X112.166 Y73.385 E0.28651
G1 X110.462 Y78.815 E0.29955
G1 X108.306 Y83.813 E0.28649
G1 X105.649 Y88.578 E0.28712
G1 X102.523 Y93.05 E0.28714
G1 X98.952 Y97.191 E0.28779
G1 X95 Y100.933 E0.28643
G1 X90.679 Y104.264 E0.28712
G1 X86.044 Y107.141 E0.28712
G1 X81.141 Y109.533 E0.28712
G1 X76.021 Y111.418 E0.28712
G1 X70.737 Y112.775 E0.28712
G1 X65.343 Y113.591 E0.28712
G1 X59.894 Y113.856 E0.28712
G1 X54.446 Y113.569 E0.28711
G1 X49.081 Y112.738 E0.28573
G1 X43.827 Y111.37 E0.28573
G1 X38.713 Y109.471 E0.28711
G1 X33.817 Y107.063 E0.2871
G1 X29.212 Y104.188 E0.28572
G1 X24.92 Y100.864 E0.28574
G1 X20.966 Y97.106 E0.28711
G1 X17.428 Y92.987 E0.28574
G1 X14.309 Y88.511 E0.28711
G1 X11.659 Y83.742 E0.28712
G1 X9.515 Y78.754 E0.28574
G1 X7.883 Y73.576 E0.28573
G1 X6.777 Y68.234 E0.2871
G1 X6.218 Y62.834 E0.28575
G1 X6.207 Y57.39 E0.28647
G1 X6.783 Y51.728 E0.29956
G1 X7.89 Y46.397 E0.28651
G1 X9.538 Y41.184 E0.28778
G1 X11.694 Y36.187 E0.28643
G1 X14.351 Y31.422 E0.28712
G1 X17.477 Y26.95 E0.28714
G1 X21.048 Y22.809 E0.28779
G1 X21.389 Y22.486 E0.0247
G1 X21.737 Y22.853 F18000
G1 F1800
G1 X25.32 Y19.46 E0.2597
G1 X29.599 Y16.16 E0.28442
G1 X34.19 Y13.309 E0.28442
G1 X39.046 Y10.937 E0.28442
G1 X44.117 Y9.069 E0.28442
G1 X49.351 Y7.724 E0.28442
G1 X54.695 Y6.915 E0.28442
G1 X60.093 Y6.65 E0.28442
G1 X65.489 Y6.933 E0.28442
G1 X70.804 Y7.756 E0.28305
G1 X76.009 Y9.109 E0.28304
G1 X81.075 Y10.989 E0.28441
G1 X85.925 Y13.373 E0.2844
G1 X90.488 Y16.22 E0.28303
G1 X94.741 Y19.512 E0.28305
G1 X98.659 Y23.234 E0.28441
G1 X102.179 Y27.333 E0.28439
G1 X105.268 Y31.768 E0.28441
G1 X107.892 Y36.493 E0.28442
G1 X110.015 Y41.434 E0.28305
G1 X111.63 Y46.564 E0.28304
G1 X112.725 Y51.856 E0.28441
G1 X113.277 Y57.206 E0.28306
G1 X113.286 Y62.597 E0.28372
G1 X112.749 Y67.987 E0.28508
G1 X111.673 Y73.271 E0.2838
G1 X109.992 Y78.627 E0.29543
G1 X107.857 Y83.578 E0.28378
G1 X105.226 Y88.299 E0.28442
G1 X102.131 Y92.729 E0.28444
G1 X98.595 Y96.833 E0.28509
G1 X94.68 Y100.54 E0.28373
G1 X90.401 Y103.84 E0.28442
G1 X85.81 Y106.691 E0.28442
G1 X80.954 Y109.063 E0.28442
G1 X75.883 Y110.931 E0.28442
G1 X70.649 Y112.276 E0.28442
G1 X65.305 Y113.085 E0.28442
G1 X59.907 Y113.35 E0.28442
G1 X54.511 Y113.067 E0.28442
G1 X49.196 Y112.244 E0.28305
G1 X43.991 Y110.891 E0.28304
G1 X38.925 Y109.011 E0.28441
G1 X34.075 Y106.627 E0.2844
G1 X29.512 Y103.78 E0.28303
G1 X25.259 Y100.488 E0.28305
G1 X21.341 Y96.766 E0.28441
G1 X17.821 Y92.667 E0.28439
G1 X14.732 Y88.232 E0.28441
G1 X12.108 Y83.507 E0.28442
G1 X9.985 Y78.566 E0.28305
G1 X8.37 Y73.436 E0.28304
G1 X7.275 Y68.144 E0.28441
G1 X6.723 Y62.794 E0.28306
G1 X6.714 Y57.403 E0.28376
G1 X7.282 Y51.818 E0.29544
G1 X8.377 Y46.538 E0.2838
G1 X10.008 Y41.372 E0.28508
G1 X12.143 Y36.422 E0.28373
G1 X14.774 Y31.701 E0.28442
G1 X17.869 Y27.271 E0.28444
G1 X21.405 Y23.167 E0.28509
G1 X21.693 Y22.895 E0.02087
G1 X22.042 Y23.262 F18000
G1 F1800
G1 X25.639 Y19.853 E0.26084
G1 X29.877 Y16.583 E0.28172
G1 X34.424 Y13.758 E0.28172
G1 X39.233 Y11.408 E0.28172
G1 X44.256 Y9.556 E0.28172
G1 X49.44 Y8.222 E0.28172
G1 X54.732 Y7.42 E0.28172
G1 X60.079 Y7.156 E0.28172
G1 X65.425 Y7.436 E0.28172
G1 X70.714 Y8.254 E0.2817
G1 X75.869 Y9.596 E0.28035
G1 X80.887 Y11.46 E0.28171
G1 X85.69 Y13.822 E0.28171
G1 X90.209 Y16.643 E0.28034
G1 X94.421 Y19.904 E0.28036
G1 X98.3 Y23.592 E0.28171
G1 X101.787 Y27.653 E0.28169
G1 X104.845 Y32.047 E0.28171
G1 X107.443 Y36.727 E0.28172
G1 X109.545 Y41.622 E0.28036
G1 X111.143 Y46.703 E0.28036
G1 X112.226 Y51.946 E0.28171
G1 X112.772 Y57.245 E0.28036
G1 X112.78 Y62.585 E0.28103
G1 X112.246 Y67.924 E0.28239
G1 X111.179 Y73.157 E0.28109
G1 X109.522 Y78.438 E0.29132
G1 X107.408 Y83.343 E0.28107
G1 X104.804 Y88.019 E0.28172
G1 X101.739 Y92.409 E0.28174
G1 X98.237 Y96.474 E0.28239
G1 X94.361 Y100.147 E0.28104
G1 X90.123 Y103.417 E0.28172
G1 X85.576 Y106.242 E0.28172
G1 X80.767 Y108.592 E0.28172
G1 X75.744 Y110.444 E0.28172
G1 X70.56 Y111.778 E0.28172
G1 X65.268 Y112.58 E0.28172
G1 X59.921 Y112.844 E0.28172
G1 X54.575 Y112.564 E0.28172
G1 X49.286 Y111.746 E0.2817
G1 X44.131 Y110.404 E0.28035
G1 X39.113 Y108.54 E0.28171
G1 X34.31 Y106.178 E0.28171
G1 X29.791 Y103.357 E0.28034
G1 X25.579 Y100.096 E0.28036
G1 X21.7 Y96.408 E0.28171
G1 X18.213 Y92.347 E0.28169
G1 X15.155 Y87.953 E0.28171
G1 X12.557 Y83.273 E0.28172
G1 X10.455 Y78.378 E0.28036
G1 X8.857 Y73.297 E0.28036
G1 X7.774 Y68.054 E0.28171
G1 X7.228 Y62.755 E0.28037
G1 X7.22 Y57.415 E0.28106
G1 X7.78 Y51.908 E0.29133
G1 X8.863 Y46.678 E0.28109
G1 X10.478 Y41.561 E0.28238
G1 X12.592 Y36.657 E0.28104
G1 X15.196 Y31.981 E0.28172
G1 X18.261 Y27.591 E0.28174
G1 X21.763 Y23.526 E0.28239
G1 X21.998 Y23.303 E0.01704
G1 X22.346 Y23.671 F18000
G1 F1800
G1 X25.959 Y20.246 E0.26197
G1 X30.155 Y17.006 E0.27902
G1 X34.658 Y14.207 E0.27902
G1 X39.421 Y11.879 E0.27902
G1 X44.395 Y10.043 E0.27902
G1 X49.529 Y8.721 E0.27902
G1 X54.77 Y7.925 E0.27902
G1 X60.065 Y7.663 E0.27902
G1 X65.36 Y7.938 E0.27902
G1 X70.599 Y8.747 E0.279
G1 X75.705 Y10.075 E0.27765
G1 X80.675 Y11.92 E0.27902
G1 X85.433 Y14.258 E0.27901
G1 X89.909 Y17.051 E0.27765
G1 X94.101 Y20.297 E0.27902
G1 X97.942 Y23.95 E0.27902
G1 X101.379 Y27.953 E0.27766
G1 X104.408 Y32.304 E0.27902
G1 X106.983 Y36.939 E0.27902
G1 X109.075 Y41.81 E0.27901
G1 X110.657 Y46.843 E0.27766
G1 X111.728 Y52.035 E0.27902
G1 X112.267 Y57.284 E0.27767
G1 X112.274 Y62.572 E0.27834
G1 X111.744 Y67.86 E0.27969
G1 X110.686 Y73.043 E0.27837
G1 X109.052 Y78.25 E0.28722
G1 X106.96 Y83.108 E0.27836
G1 X104.381 Y87.74 E0.27902
G1 X101.347 Y92.088 E0.27904
G1 X97.879 Y96.115 E0.27969
G1 X94.041 Y99.754 E0.27834
G1 X89.845 Y102.994 E0.27902
G1 X85.342 Y105.793 E0.27902
G1 X80.579 Y108.121 E0.27902
G1 X75.605 Y109.957 E0.27902
G1 X70.471 Y111.279 E0.27902
G1 X65.23 Y112.075 E0.27902
G1 X59.935 Y112.337 E0.27902
G1 X54.64 Y112.062 E0.27902
G1 X49.401 Y111.253 E0.279
G1 X44.295 Y109.925 E0.27765
G1 X39.325 Y108.08 E0.27902
G1 X34.567 Y105.742 E0.27901
G1 X30.091 Y102.949 E0.27765
G1 X25.899 Y99.703 E0.27902
G1 X22.058 Y96.05 E0.27902
G1 X18.621 Y92.047 E0.27766
G1 X15.592 Y87.696 E0.27902
G1 X13.017 Y83.061 E0.27902
G1 X10.925 Y78.19 E0.27901
G1 X9.343 Y73.157 E0.27766
G1 X8.272 Y67.965 E0.27902
G1 X7.733 Y62.716 E0.27767
G1 X7.726 Y57.427 E0.27836
G1 X8.278 Y51.998 E0.28722
G1 X9.35 Y46.818 E0.27838
G1 X10.948 Y41.75 E0.27969
G1 X13.04 Y36.892 E0.27834
G1 X15.619 Y32.26 E0.27902
G1 X18.653 Y27.912 E0.27904
G1 X22.121 Y23.885 E0.27969
G1 X22.303 Y23.712 E0.01321
G1 X22.651 Y24.079 F18000
G1 F1800
G1 X26.278 Y20.639 E0.26311
G1 X30.433 Y17.429 E0.27632
