; generated by SuperSlicer 2.4 on 2024-02-21 at 01:46:45 UTC


;
;

;
;
; TODO: check the size of the extruder and the y-bar clearance. Optimize & test supports.

; external perimeters extrusion width = 0.40mm
; perimeters extrusion width = 0.40mm
; infill extrusion width = 0.40mm
; solid infill extrusion width = 0.40mm
; top infill extrusion width = 0.40mm
; first layer extrusion width = 0.56mm

; object:{"name":"BoardMounter2","id":"BoardMounter2.STL id:0 copy 0","object_center":[60.000000,60.000000,0.000000],"boundingbox_center":[60.000000,60.000000,3.500000],"boundingbox_size":[42.000000,52.250000,7.000000]}
; plater:{"center":[60.000000,60.000000,0.000000],"boundingbox_center":[60.000000,60.000000,3.500000],"boundingbox_size":[42.000000,52.250000,7.000000]}

;TYPE:Custom
; M190 S0
;M109 S0 ; uncomment to remove set&wait temp gcode added automatically after this start gcode
print_start EXTRUDER=245 BED=90 CHAMBER=50

;G92 E0
;G1 E10 F1500 ; prime the nozzle
M107
G21 ; set units to millimeters
G90 ; use absolute coordinates
M83 ; use relative distances for extrusion
SET_PRESSURE_ADVANCE ADVANCE=0.04
;_TOOLCHANGE 0
M104 S245 ; set temperature
M109 S245 ; set temperature and wait for it to be reached
M190 S90 ; set bed temperature and wait for it to be reached
M107
;LAYER_CHANGE
;Z:0.25
;HEIGHT:0.25
;BEFORE_LAYER_CHANGE
;0.25


G1 Z0.25 F18000
;AFTER_LAYER_CHANGE
;0.25
TIMELAPSE_TAKE_FRAME
G92 E0
G1 E-2 F3000
G1 Z0.65 F18000
M204 S1000
G1 X32.225 Y27.988
G1 Z0.25
G1 E2 F1800
;TYPE:Skirt
;WIDTH:0.52
G1 X31.119 Y29.47 E0.08961
G1 X30.288 Y31.121 E0.08961
G1 X30.067 Y31.727 E0.03126
G1 X29.643 Y33.526 E0.08961
G1 X29.546 Y34.792 E0.06153
G1 X29.558 Y85.474 E2.45661
G1 X29.643 Y86.557 E0.05268
G1 X29.813 Y87.41 E0.04215
G1 X30.341 Y89.033 E0.08271
G1 X30.705 Y89.822 E0.04212
G1 X31.515 Y91.145 E0.07523
G1 X32.054 Y91.828 E0.04216
G1 X33.428 Y93.202 E0.09417
G1 X34.363 Y93.882 E0.05605
G1 X36.302 Y94.87 E0.10549
G1 X37.401 Y95.228 E0.056
G1 X39.671 Y95.543 E0.11109
G1 X80.384 Y95.531 E1.97344
G1 X81.467 Y95.446 E0.05267
G1 X82.32 Y95.276 E0.04215
G1 X83.943 Y94.749 E0.08272
G1 X84.732 Y94.385 E0.04212
G1 X86.056 Y93.574 E0.07523
G1 X86.739 Y93.035 E0.04216
G1 X88.112 Y91.662 E0.09416
G1 X88.792 Y90.726 E0.05605
G1 X89.782 Y88.786 E0.10556
G1 X90.139 Y87.686 E0.05609
G1 X90.454 Y85.416 E0.11108
G1 X90.454 Y34.792 E2.4538
G1 X90.357 Y33.526 E0.06153
G1 X89.933 Y31.727 E0.08961
G1 X89.203 Y30.028 E0.08962
G1 X88.189 Y28.482 E0.08961
G1 X86.922 Y27.136 E0.08961
G1 X85.441 Y26.03 E0.08961
G1 X83.79 Y25.198 E0.0896
G1 X82.019 Y24.666 E0.08962
G1 X80.441 Y24.471 E0.07708
G1 X39.881 Y24.457 E1.96598
G1 X38.616 Y24.554 E0.06153
G1 X36.816 Y24.978 E0.08961
G1 X36.21 Y25.198 E0.03126
G1 X34.559 Y26.03 E0.0896
G1 X33.078 Y27.136 E0.08961
G1 X32.268 Y27.946 E0.05552
G1 X32.598 Y28.276 F18000
G1 F1800
G1 X32.555 Y28.318 E0.00291
G1 X31.502 Y29.737 E0.08568
G1 X30.517 Y31.848 E0.11286
G1 X30.108 Y33.567 E0.08568
G1 X30.013 Y34.792 E0.05956
G1 X30.023 Y85.437 E2.45483
G1 X30.108 Y86.52 E0.05268
G1 X30.257 Y87.266 E0.03683
G1 X30.784 Y88.888 E0.08271
G1 X31.102 Y89.578 E0.03681
G1 X31.913 Y90.901 E0.07523
G1 X32.384 Y91.498 E0.03684
G1 X33.757 Y92.872 E0.09417
G1 X34.575 Y93.466 E0.04899
G1 X36.514 Y94.455 E0.10549
G1 X37.474 Y94.767 E0.04894
G1 X39.671 Y95.077 E0.10753
G1 X80.347 Y95.067 E1.97166
G1 X81.431 Y94.981 E0.05267
G1 X82.176 Y94.833 E0.03684
G1 X83.799 Y94.305 E0.08272
G1 X84.489 Y93.987 E0.03681
G1 X85.812 Y93.176 E0.07523
G1 X86.409 Y92.706 E0.03684
G1 X87.783 Y91.332 E0.09416
G1 X88.377 Y90.515 E0.04899
G1 X89.366 Y88.574 E0.10556
G1 X89.679 Y87.613 E0.04902
G1 X89.987 Y85.416 E0.10753
G1 X89.987 Y34.792 E2.4538
G1 X89.892 Y33.567 E0.05956
G1 X89.483 Y31.848 E0.08568
G1 X88.78 Y30.225 E0.08568
G1 X87.807 Y28.75 E0.08567
G1 X86.592 Y27.466 E0.08568
G1 X85.173 Y26.412 E0.08568
G1 X83.593 Y25.621 E0.08567
G1 X81.899 Y25.116 E0.08568
G1 X80.4 Y24.936 E0.07315
G1 X39.881 Y24.923 E1.96401
G1 X38.656 Y25.018 E0.05956
G1 X36.937 Y25.428 E0.08568
G1 X34.827 Y26.412 E0.11285
G1 X33.408 Y27.466 E0.08568
G1 X32.64 Y28.233 E0.05262
G1 E-2 F3000
M204 S1500
G1 Z0.65 F18000
M204 S1000
G1 X35.512 Y30.963
G1 Z0.25
G1 E2 F1800
;WIDTH:0.56
G1 X36.156 Y30.285 E0.04926
G1 X37.335 Y29.506 E0.07434
G1 X38.008 Y29.217 E0.03857
G1 X38.706 Y29.005 E0.03836
G1 X39.998 Y28.84 E0.06853
G1 X80.007 Y28.84 E2.10563
G1 X81.157 Y28.976 E0.06097
G1 X82.267 Y29.325 E0.06123
G1 X83.297 Y29.877 E0.06148
G1 X84.202 Y30.609 E0.0613
G1 X84.857 Y31.36 E0.05246
G1 X85.244 Y31.953 E0.03725
G1 X85.563 Y32.588 E0.0374
G1 X85.907 Y33.63 E0.05776
G1 X86.061 Y34.74 E0.05894
G1 X86.071 Y85.108 E2.65085
G1 X85.953 Y86.115 E0.05331
G1 X85.772 Y86.861 E0.04045
G1 X85.302 Y87.928 E0.06133
G1 X84.886 Y88.605 E0.04185
G1 X83.915 Y89.652 E0.07516
G1 X82.765 Y90.44 E0.07334
G1 X81.458 Y90.949 E0.07382
G1 X80.015 Y91.16 E0.07677
G1 X39.979 Y91.16 E2.10703
G1 X38.973 Y91.043 E0.05329
G1 X38.227 Y90.861 E0.04042
G1 X37.162 Y90.391 E0.06128
G1 X36.484 Y89.975 E0.04183
G1 X35.437 Y89.004 E0.07517
G1 X34.649 Y87.855 E0.07334
G1 X34.14 Y86.548 E0.07382
G1 X33.929 Y85.104 E0.07678
G1 X33.929 Y34.938 E2.6402
G1 X34.022 Y33.981 E0.05057
G1 X34.27 Y33.021 E0.05222
G1 X34.65 Y32.147 E0.05013
G1 X35.165 Y31.328 E0.05095
G1 X35.47 Y31.007 E0.0233
G1 X35.834 Y31.352 F18000
G1 F1800
G1 X36.461 Y30.691 E0.04794
G1 X37.557 Y29.962 E0.06927
G1 X38.169 Y29.697 E0.03512
G1 X38.833 Y29.496 E0.03648
G1 X40.014 Y29.346 E0.06266
G1 X79.992 Y29.347 E2.10401
G1 X81.03 Y29.467 E0.05498
G1 X82.051 Y29.783 E0.05625
G1 X82.998 Y30.286 E0.05647
G1 X83.836 Y30.959 E0.05656
G1 X84.443 Y31.652 E0.04847
G1 X84.812 Y32.218 E0.03555
G1 X85.102 Y32.798 E0.03415
G1 X85.418 Y33.766 E0.05358
G1 X85.556 Y34.791 E0.05442
G1 X85.564 Y85.094 E2.64739
G1 X85.452 Y86.04 E0.05014
G1 X85.286 Y86.719 E0.0368
G1 X84.846 Y87.706 E0.05687
G1 X84.468 Y88.317 E0.03783
G1 X83.564 Y89.286 E0.06975
G1 X82.505 Y90.005 E0.06736
G1 X81.303 Y90.466 E0.06774
G1 X79.997 Y90.654 E0.06947
G1 X39.994 Y90.654 E2.10529
G1 X39.048 Y90.542 E0.05012
G1 X38.37 Y90.375 E0.03678
G1 X37.383 Y89.936 E0.05683
G1 X36.772 Y89.557 E0.03782
G1 X35.803 Y88.653 E0.06975
G1 X35.084 Y87.594 E0.06736
G1 X34.623 Y86.393 E0.06774
G1 X34.436 Y85.086 E0.06947
G1 X34.436 Y34.95 E2.63862
G1 X34.517 Y34.087 E0.04559
G1 X34.742 Y33.204 E0.04799
G1 X35.106 Y32.367 E0.04803
G1 X35.58 Y31.619 E0.04656
G1 X35.792 Y31.395 E0.01627
G1 X36.156 Y31.742 F18000
G1 F1800
G1 X36.807 Y31.061 E0.0496
G1 X37.778 Y30.418 E0.06129
G1 X38.357 Y30.168 E0.03317
G1 X38.958 Y29.987 E0.03306
G1 X40.029 Y29.853 E0.05683
G1 X79.977 Y29.853 E2.1024
G1 X80.947 Y29.967 E0.05139
G1 X81.876 Y30.259 E0.05126
G1 X82.738 Y30.721 E0.05149
G1 X83.47 Y31.31 E0.04945
G1 X84.029 Y31.945 E0.04449
G1 X84.365 Y32.458 E0.0323
G1 X84.641 Y33.008 E0.03237
G1 X84.929 Y33.9 E0.04933
G1 X85.052 Y34.84 E0.04991
G1 X85.058 Y85.078 E2.644
G1 X84.952 Y85.964 E0.04692
G1 X84.8 Y86.575 E0.03314
G1 X84.391 Y87.483 E0.0524
G1 X84.052 Y88.028 E0.03382
G1 X83.214 Y88.919 E0.06432
G1 X82.247 Y89.569 E0.06134
G1 X81.151 Y89.982 E0.06167
G1 X79.979 Y90.147 E0.06227
G1 X40.009 Y90.147 E2.10356
G1 X39.125 Y90.041 E0.0469
G1 X38.514 Y89.889 E0.03312
G1 X37.606 Y89.481 E0.05236
G1 X37.061 Y89.141 E0.03381
G1 X36.171 Y88.304 E0.06432
G1 X35.521 Y87.336 E0.06135
G1 X35.107 Y86.24 E0.06166
G1 X34.942 Y85.068 E0.06228
G1 X34.942 Y34.962 E2.63705
G1 X35.02 Y34.156 E0.04263
G1 X35.228 Y33.35 E0.04378
G1 X35.562 Y32.588 E0.04379
G1 X35.993 Y31.913 E0.04218
G1 X36.114 Y31.786 E0.00923
G1 X36.477 Y32.132 F18000
G1 F1800
G1 X37.111 Y31.467 E0.04836
G1 X38 Y30.874 E0.05622
G1 X38.544 Y30.639 E0.03117
G1 X39.082 Y30.478 E0.02959
G1 X40.045 Y30.359 E0.05105
G1 X79.963 Y30.359 E2.10082
G1 X80.82 Y30.458 E0.0454
G1 X81.66 Y30.717 E0.04627
G1 X82.441 Y31.132 E0.04654
G1 X83.106 Y31.662 E0.04477
G1 X83.616 Y32.237 E0.04044
G1 X83.934 Y32.723 E0.03055
G1 X84.179 Y33.216 E0.02899
G1 X84.44 Y34.032 E0.04506
G1 X84.548 Y34.887 E0.0454
G1 X84.552 Y85.063 E2.64068
G1 X84.451 Y85.886 E0.04365
G1 X84.314 Y86.429 E0.02945
G1 X83.938 Y87.258 E0.04792
G1 X83.636 Y87.738 E0.02985
G1 X82.906 Y88.516 E0.0561
G1 X82.038 Y89.106 E0.05528
G1 X81.051 Y89.485 E0.05566
G1 X79.961 Y89.641 E0.05794
G1 X40.025 Y89.641 E2.1018
G1 X39.202 Y89.54 E0.04363
G1 X38.66 Y89.403 E0.02943
G1 X37.831 Y89.027 E0.04788
G1 X37.351 Y88.725 E0.02985
G1 X36.574 Y87.996 E0.0561
G1 X35.983 Y87.127 E0.05528
G1 X35.604 Y86.14 E0.05565
G1 X35.448 Y85.05 E0.05794
G1 X35.448 Y34.974 E2.63548
G1 X35.515 Y34.261 E0.03766
G1 X35.7 Y33.533 E0.03954
G1 X35.999 Y32.844 E0.03955
G1 X36.407 Y32.206 E0.03983
G1 X36.436 Y32.175 E0.00222
G1 X36.819 Y32.501 F18000
G1 F1800
G1 X37.457 Y31.838 E0.04843
G1 X38.223 Y31.329 E0.04837
G1 X38.703 Y31.12 E0.02757
G1 X39.207 Y30.97 E0.02766
G1 X40.061 Y30.865 E0.04528
G1 X79.948 Y30.866 E2.09923
G1 X80.738 Y30.958 E0.04186
G1 X81.445 Y31.177 E0.03896
G1 X82.145 Y31.544 E0.04161
G1 X82.743 Y32.016 E0.04008
G1 X83.203 Y32.532 E0.03638
G1 X83.487 Y32.962 E0.02715
G1 X83.717 Y33.424 E0.02714
G1 X83.95 Y34.162 E0.04072
G1 X84.043 Y34.933 E0.0409
G1 X84.045 Y85.047 E2.63745
G1 X83.95 Y85.808 E0.04033
G1 X83.829 Y86.281 E0.02573
G1 X83.485 Y87.031 E0.04342
G1 X83.221 Y87.446 E0.0259
G1 X82.558 Y88.147 E0.05077
G1 X81.78 Y88.67 E0.04932
G1 X80.899 Y89.001 E0.04957
G1 X79.943 Y89.135 E0.05076
G1 X40.04 Y89.135 E2.10005
G1 X39.281 Y89.04 E0.0403
G1 X38.807 Y88.919 E0.02571
G1 X38.058 Y88.574 E0.04339
G1 X37.643 Y88.311 E0.02589
G1 X36.942 Y87.647 E0.05078
G1 X36.42 Y86.869 E0.04932
G1 X36.088 Y85.988 E0.04956
G1 X35.955 Y85.033 E0.05077
G1 X35.955 Y34.986 E2.63392
G1 X36.017 Y34.329 E0.03471
G1 X36.185 Y33.68 E0.03531
G1 X36.455 Y33.066 E0.03529
G1 X36.787 Y32.551 E0.03222
G1 X37.211 Y32.827 F18000
G1 F1800
G1 X37.23 Y32.797 E0.00191
G1 X37.762 Y32.243 E0.0404
G1 X38.446 Y31.784 E0.04334
G1 X38.891 Y31.59 E0.02553
G1 X39.329 Y31.462 E0.02405
G1 X40.076 Y31.372 E0.03958
G1 X79.934 Y31.372 E2.09768
G1 X80.613 Y31.449 E0.03599
G1 X81.233 Y31.637 E0.0341
G1 X81.852 Y31.957 E0.03668
G1 X82.381 Y32.371 E0.03535
G1 X82.792 Y32.828 E0.03232
G1 X83.041 Y33.202 E0.02368
G1 X83.255 Y33.631 E0.02524
G1 X83.46 Y34.29 E0.03628
G1 X83.539 Y34.977 E0.0364
G1 X83.539 Y85.031 E2.63432
G1 X83.45 Y85.728 E0.03695
G1 X83.345 Y86.132 E0.02197
G1 X83.033 Y86.802 E0.0389
G1 X82.808 Y87.153 E0.02195
G1 X82.212 Y87.777 E0.04543
G1 X81.525 Y88.231 E0.04333
G1 X80.75 Y88.517 E0.04349
G1 X79.926 Y88.628 E0.04373
G1 X40.057 Y88.628 E2.0983
G1 X39.361 Y88.539 E0.03691
G1 X38.957 Y88.434 E0.02195
G1 X38.288 Y88.122 E0.03888
G1 X37.937 Y87.897 E0.02194
G1 X37.313 Y87.301 E0.04543
G1 X36.858 Y86.614 E0.04333
G1 X36.573 Y85.839 E0.04348
G1 X36.461 Y85.016 E0.04373
G1 X36.461 Y34.998 E2.63238
G1 X36.519 Y34.398 E0.0317
G1 X36.67 Y33.828 E0.03102
G1 X36.909 Y33.29 E0.03102
G1 X37.178 Y32.878 E0.0259
G1 X37.6 Y33.156 F18000
G1 F1800
G1 X37.64 Y33.095 E0.00381
G1 X38.107 Y32.615 E0.03524
G1 X38.67 Y32.238 E0.03567
G1 X39.049 Y32.071 E0.02178
G1 X39.451 Y31.953 E0.02206
G1 X40.091 Y31.878 E0.03388
G1 X79.919 Y31.878 E2.09612
G1 X80.531 Y31.949 E0.03244
G1 X81.062 Y32.114 E0.02923
G1 X81.561 Y32.372 E0.02956
G1 X82.021 Y32.728 E0.03064
G1 X82.381 Y33.124 E0.02815
G1 X82.61 Y33.469 E0.02181
G1 X82.792 Y33.838 E0.02162
G1 X82.959 Y34.372 E0.02949
G1 X83.032 Y34.991 E0.03281
G1 X83.033 Y85.015 E2.63267
G1 X82.95 Y85.646 E0.03349
G1 X82.862 Y85.979 E0.01816
G1 X82.582 Y86.57 E0.03438
G1 X82.396 Y86.858 E0.01805
G1 X81.906 Y87.372 E0.03741
G1 X81.321 Y87.767 E0.03709
G1 X80.601 Y88.032 E0.04039
G1 X79.91 Y88.122 E0.03669
G1 X40.073 Y88.122 E2.09657
G1 X39.443 Y88.039 E0.03345
G1 X39.11 Y87.951 E0.01814
G1 X38.519 Y87.672 E0.03436
G1 X38.232 Y87.485 E0.01805
G1 X37.717 Y86.995 E0.03741
G1 X37.323 Y86.411 E0.03709
G1 X37.058 Y85.691 E0.04039
G1 X36.967 Y84.999 E0.0367
G1 X36.967 Y35.01 E2.6309
G1 X37.014 Y34.507 E0.02655
G1 X37.154 Y33.978 E0.02881
G1 X37.362 Y33.517 E0.02664
G1 X37.567 Y33.206 E0.0196
G1 X37.988 Y33.487 F18000
G1 F1800
G1 X38.048 Y33.397 E0.00572
G1 X38.449 Y32.989 E0.03011
G1 X38.894 Y32.693 E0.02812
G1 X39.238 Y32.542 E0.01974
G1 X39.571 Y32.446 E0.01825
G1 X40.105 Y32.384 E0.0283
G1 X79.905 Y32.385 E2.09462
G1 X80.407 Y32.441 E0.02658
G1 X80.852 Y32.576 E0.02451
G1 X81.272 Y32.789 E0.02477
G1 X81.663 Y33.087 E0.02589
G1 X81.971 Y33.422 E0.02398
G1 X82.164 Y33.708 E0.01811
G1 X82.329 Y34.043 E0.01966
G1 X82.469 Y34.499 E0.02508
G1 X82.526 Y35.006 E0.02686
G1 X82.526 Y84.998 E2.63103
G1 X82.451 Y85.562 E0.02995
G1 X82.379 Y85.824 E0.0143
G1 X82.133 Y86.335 E0.02985
G1 X81.986 Y86.56 E0.01415
G1 X81.559 Y87.002 E0.03232
G1 X81.118 Y87.302 E0.02811
G1 X80.454 Y87.547 E0.03723
G1 X79.894 Y87.616 E0.02966
G1 X40.09 Y87.616 E2.09486
G1 X39.527 Y87.54 E0.0299
G1 X39.265 Y87.468 E0.01428
G1 X38.754 Y87.223 E0.02984
G1 X38.529 Y87.075 E0.01415
G1 X38.087 Y86.649 E0.03233
G1 X37.787 Y86.207 E0.02811
G1 X37.543 Y85.543 E0.03722
G1 X37.474 Y84.984 E0.02966
G1 X37.474 Y35.021 E2.62949
G1 X37.51 Y34.613 E0.02154
G1 X37.624 Y34.167 E0.02426
G1 X37.815 Y33.745 E0.02438
G1 X37.954 Y33.537 E0.01316
G1 X38.372 Y33.821 F18000
G1 F1800
G1 X38.454 Y33.7 E0.00769
G1 X38.753 Y33.394 E0.02253
G1 X39.122 Y33.146 E0.02336
G1 X39.395 Y33.023 E0.01576
G1 X39.69 Y32.938 E0.01618
G1 X40.119 Y32.891 E0.02271
G1 X79.891 Y32.891 E2.09317
G1 X80.286 Y32.933 E0.02088
G1 X80.647 Y33.039 E0.01981
G1 X80.987 Y33.208 E0.01997
G1 X81.308 Y33.448 E0.02112
G1 X81.563 Y33.722 E0.01966
G1 X81.734 Y33.976 E0.01612
G1 X81.864 Y34.245 E0.01576
G1 X81.977 Y34.622 E0.02068
G1 X82.02 Y35.019 E0.02105
G1 X82.02 Y84.98 E2.6294
G1 X81.951 Y85.475 E0.02629
G1 X81.898 Y85.665 E0.01036
G1 X81.686 Y86.097 E0.02535
G1 X81.578 Y86.259 E0.01024
G1 X81.216 Y86.629 E0.02724
G1 X80.863 Y86.863 E0.02229
G1 X80.311 Y87.06 E0.03084
G1 X79.88 Y87.109 E0.02284
G1 X40.107 Y87.109 E2.09318
G1 X39.614 Y87.041 E0.02623
G1 X39.425 Y86.987 E0.01034
G1 X38.992 Y86.775 E0.02534
G1 X38.83 Y86.667 E0.01024
G1 X38.46 Y86.305 E0.02725
G1 X38.226 Y85.952 E0.02229
G1 X38.029 Y85.4 E0.03084
G1 X37.98 Y84.969 E0.02284
G1 X37.98 Y35.032 E2.62812
G1 X38.012 Y34.68 E0.01861
G1 X38.108 Y34.318 E0.01974
G1 X38.266 Y33.976 E0.0198
G1 X38.338 Y33.87 E0.00672
G1 X38.757 Y34.155 F18000
G1 F1800
G1 X38.859 Y34.005 E0.0096
G1 X39.094 Y33.77 E0.01747
G1 X39.352 Y33.598 E0.01631
G1 X39.553 Y33.505 E0.01168
G1 X39.809 Y33.431 E0.014
G1 X40.132 Y33.397 E0.01712
G1 X79.879 Y33.397 E2.09181
G1 X80.17 Y33.426 E0.01539
G1 X80.447 Y33.505 E0.01516
G1 X80.706 Y33.63 E0.01516
G1 X80.956 Y33.813 E0.01631
G1 X81.154 Y34.022 E0.01515
G1 X81.303 Y34.243 E0.014
G1 X81.398 Y34.443 E0.01168
G1 X81.484 Y34.741 E0.01631
G1 X81.513 Y35.032 E0.01539
G1 X81.514 Y84.962 E2.62779
G1 X81.453 Y85.385 E0.02247
G1 X81.419 Y85.499 E0.00628
G1 X81.241 Y85.855 E0.02093
G1 X81.173 Y85.953 E0.00628
G1 X80.876 Y86.253 E0.02221
G1 X80.615 Y86.421 E0.01635
G1 X80.175 Y86.571 E0.02449
G1 X79.867 Y86.603 E0.01627
G1 X40.126 Y86.603 E2.09155
G1 X39.704 Y86.542 E0.02241
G1 X39.59 Y86.508 E0.00627
G1 X39.234 Y86.33 E0.02092
G1 X39.136 Y86.263 E0.00628
G1 X38.837 Y85.965 E0.02222
G1 X38.668 Y85.704 E0.01635
G1 X38.518 Y85.264 E0.02448
G1 X38.486 Y84.956 E0.01627
G1 X38.486 Y35.043 E2.62689
G1 X38.508 Y34.785 E0.01365
G1 X38.579 Y34.505 E0.01516
G1 X38.697 Y34.243 E0.01516
G1 X38.723 Y34.205 E0.0024
G1 X39.152 Y34.467 F18000
G1 F1800
G1 X39.254 Y34.322 E0.00935
G1 X39.268 Y34.305 E0.00116
G1 X39.394 Y34.179 E0.00935
G1 X39.411 Y34.165 E0.00116
G1 X39.557 Y34.063 E0.00935
G1 X39.576 Y34.052 E0.00116
G1 X39.737 Y33.977 E0.00935
G1 X39.758 Y33.969 E0.00116
G1 X39.929 Y33.923 E0.00935
G1 X39.951 Y33.919 E0.00116
G1 X40.138 Y33.903 E0.00987
G1 X79.862 Y33.903 E2.09065
G1 X80.049 Y33.919 E0.00987
G1 X80.071 Y33.923 E0.00116
G1 X80.242 Y33.969 E0.00935
G1 X80.263 Y33.977 E0.00116
G1 X80.424 Y34.052 E0.00935
G1 X80.443 Y34.063 E0.00116
G1 X80.589 Y34.165 E0.00935
G1 X80.606 Y34.179 E0.00116
G1 X80.732 Y34.305 E0.00935
G1 X80.746 Y34.322 E0.00116
G1 X80.848 Y34.467 E0.00935
G1 X80.859 Y34.486 E0.00116
G1 X80.934 Y34.647 E0.00935
