; generated by SuperSlicer 2.4 on 2024-02-21 at 05:03:07 UTC


;
;

;
;
; TODO: check the size of the extruder and the y-bar clearance. Optimize & test supports.

; external perimeters extrusion width = 0.40mm
; perimeters extrusion width = 0.40mm
; infill extrusion width = 0.40mm
; solid infill extrusion width = 0.40mm
; top infill extrusion width = 0.40mm
; first layer extrusion width = 0.56mm

; external perimeters extrusion width = 0.40mm
; perimeters extrusion width = 0.40mm
; infill extrusion width = 0.40mm
; solid infill extrusion width = 0.40mm
; top infill extrusion width = 0.40mm
; first layer extrusion width = 0.56mm

; object:{"name":"BoardMounter3","id":"BoardMounter3.STL id:0 copy 0","object_center":[82.000000,60.000000,0.000000],"boundingbox_center":[82.000000,60.000000,8.500000],"boundingbox_size":[38.000000,53.250000,17.000000]}
; object:{"name":"BoardMounter2","id":"BoardMounter2.STL id:1 copy 0","object_center":[38.000000,60.000000,0.000000],"boundingbox_center":[38.000000,60.000000,6.000000],"boundingbox_size":[38.000000,53.250000,12.000000]}
; plater:{"center":[60.000000,60.000000,0.000000],"boundingbox_center":[60.000000,60.000000,8.500000],"boundingbox_size":[82.000000,53.250000,17.000000]}

;TYPE:Custom
; M190 S0
;M109 S0 ; uncomment to remove set&wait temp gcode added automatically after this start gcode
print_start EXTRUDER=245 BED=90 CHAMBER=50

;G92 E0
;G1 E10 F1500 ; prime the nozzle
M107
G21 ; set units to millimeters
G90 ; use absolute coordinates
M83 ; use relative distances for extrusion
SET_PRESSURE_ADVANCE ADVANCE=0.04
;_TOOLCHANGE 0
M104 S245 ; set temperature
M109 S245 ; set temperature and wait for it to be reached
M190 S90 ; set bed temperature and wait for it to be reached
M107
;LAYER_CHANGE
;Z:0.25
;HEIGHT:0.25
;BEFORE_LAYER_CHANGE
;0.25


G1 Z0.25 F18000
;AFTER_LAYER_CHANGE
;0.25
TIMELAPSE_TAKE_FRAME
G92 E0
G1 E-2 F3000
G1 Z0.65 F18000
M204 S1000
G1 X11.035 Y24.684
G1 Z0.25
G1 E2 F1800
;TYPE:Skirt
;WIDTH:0.52
G1 X9.932 Y25.989 E0.08282
G1 X9.533 Y27.65 E0.08282
G1 X9.433 Y67.846 E1.94838
G1 X9.533 Y92.355 E1.18798
G1 X10.262 Y94.545 E0.11189
G1 X11.57 Y95.645 E0.08282
G1 X13.232 Y96.039 E0.08282
G1 X106.768 Y96.039 E4.53381
G1 X108.961 Y95.319 E0.11189
G1 X110.066 Y94.016 E0.08282
G1 X110.467 Y92.355 E0.08282
G1 X110.567 Y67.846 E1.18798
G1 X110.467 Y27.65 E1.94838
G1 X109.738 Y25.455 E0.11212
G1 X108.43 Y24.355 E0.08282
G1 X106.768 Y23.961 E0.08282
G1 X13.232 Y23.961 E4.53381
G1 X11.092 Y24.665 E0.10922
G1 X11.439 Y24.989 F18000
G1 F1800
G1 X10.397 Y26.106 E0.07405
G1 X9.999 Y27.651 E0.07735
G1 X9.899 Y67.846 E1.94832
G1 X9.999 Y92.353 E1.18788
G1 X10.516 Y94.094 E0.08801
G1 X11.686 Y95.179 E0.07735
G1 X13.232 Y95.573 E0.07735
G1 X106.768 Y95.573 E4.53381
G1 X108.511 Y95.063 E0.08801
G1 X109.601 Y93.898 E0.07735
G1 X110.001 Y92.353 E0.07735
G1 X110.101 Y67.846 E1.18788
G1 X110.001 Y27.651 E1.94832
G1 X109.484 Y25.906 E0.08822
G1 X108.314 Y24.821 E0.07735
G1 X106.768 Y24.427 E0.07735
G1 X13.232 Y24.427 E4.53381
G1 X11.486 Y24.939 E0.08822
G1 X11.48 Y24.945 E0.0004
G1 E-2 F3000
M204 S1500
G1 Z0.65 F18000
; acceleration to travel
G1 X14.015 Y27.777
; decel to extrusion
M204 S1000
G1 X15.705 Y29.664
; end travel
G1 Z0.25
G1 E2 F1800
;WIDTH:0.56
G1 X16.369 Y29.142 E0.04445
G1 X17.535 Y28.59 E0.0679
G1 X18.775 Y28.343 E0.06653
G1 X57.282 Y28.348 E2.02659
G1 X58.401 Y28.569 E0.05999
G1 X59.404 Y29.007 E0.05761
G1 X60 Y29.426 E0.03836
G1 X60.471 Y29.08 E0.03078
G1 X61.481 Y28.608 E0.05865
G1 X62.775 Y28.343 E0.06952
G1 X101.281 Y28.348 E2.02653
G1 X102.341 Y28.551 E0.05679
G1 X103.344 Y28.974 E0.05732
G1 X104.129 Y29.518 E0.05023
G1 X104.836 Y30.209 E0.05203
G1 X105.395 Y30.983 E0.05023
G1 X105.818 Y31.897 E0.053
G1 X106.085 Y33.204 E0.07025
G1 X106.085 Y61.982 E1.51454
G1 X106.089 Y62.826 E0.04444
G1 X106.175 Y63.837 E0.0534
G1 X106.185 Y67.609 E0.1985
G1 X106.111 Y68.386 E0.04108
G1 X106.086 Y69.06 E0.0355
G1 X106.085 Y86.795 E0.93335
G1 X105.832 Y88.063 E0.06805
G1 X105.549 Y88.731 E0.03818
G1 X105.19 Y89.347 E0.03754
G1 X104.295 Y90.336 E0.07019
G1 X103.631 Y90.858 E0.04445
G1 X102.465 Y91.41 E0.06789
G1 X101.225 Y91.657 E0.06652
G1 X62.78 Y91.657 E2.02336
G1 X61.615 Y91.436 E0.06238
G1 X60.841 Y91.122 E0.04394
G1 X60.175 Y90.725 E0.04083
G1 X60.001 Y90.573 E0.01215
G1 X59.528 Y90.92 E0.03087
G1 X58.519 Y91.392 E0.05865
G1 X57.225 Y91.657 E0.0695
G1 X18.778 Y91.657 E2.02346
G1 X17.51 Y91.404 E0.06805
G1 X16.841 Y91.122 E0.03818
G1 X16.225 Y90.762 E0.03754
G1 X15.236 Y89.867 E0.07019
G1 X14.714 Y89.203 E0.04445
G1 X14.162 Y88.037 E0.06789
G1 X13.915 Y86.798 E0.06651
G1 X13.914 Y69.06 E0.9335
G1 X13.889 Y68.386 E0.03553
G1 X13.815 Y67.607 E0.04114
G1 X13.824 Y63.845 E0.19802
G1 X13.895 Y63.118 E0.03845
G1 X13.915 Y62.423 E0.03656
G1 X13.915 Y33.206 E1.53771
G1 X14.168 Y31.937 E0.06805
G1 X14.45 Y31.269 E0.03818
G1 X14.81 Y30.653 E0.03754
G1 X15.665 Y29.709 E0.06704
G1 X16.039 Y30.05 F18000
G1 F1800
G1 X16.065 Y30.021 E0.00203
G1 X16.659 Y29.559 E0.03962
G1 X17.666 Y29.08 E0.0587
G1 X18.8 Y28.85 E0.06092
G1 X57.258 Y28.855 E2.02396
G1 X58.223 Y29.044 E0.05179
G1 X59.177 Y29.461 E0.05478
G1 X59.826 Y29.924 E0.04199
G1 X60.001 Y30.094 E0.0128
G1 X60.135 Y29.958 E0.00999
G1 X60.71 Y29.528 E0.03782
G1 X61.668 Y29.079 E0.0557
G1 X62.8 Y28.85 E0.0608
G1 X101.257 Y28.855 E2.02391
G1 X102.217 Y29.043 E0.05153
G1 X103.121 Y29.429 E0.05173
G1 X103.821 Y29.92 E0.04499
G1 X104.465 Y30.554 E0.04757
G1 X104.969 Y31.258 E0.04552
G1 X105.345 Y32.081 E0.04764
G1 X105.578 Y33.23 E0.06171
G1 X105.578 Y61.983 E1.51327
G1 X105.583 Y62.85 E0.04559
G1 X105.669 Y63.849 E0.05281
G1 X105.679 Y67.598 E0.19728
G1 X105.605 Y68.352 E0.03989
G1 X105.579 Y69.051 E0.03679
G1 X105.578 Y86.77 E0.93253
G1 X105.355 Y87.89 E0.06014
G1 X105.104 Y88.49 E0.03421
G1 X104.766 Y89.068 E0.03525
G1 X103.935 Y89.979 E0.06486
G1 X103.341 Y90.441 E0.03962
G1 X102.334 Y90.92 E0.0587
G1 X101.2 Y91.15 E0.0609
G1 X62.803 Y91.15 E2.02078
G1 X61.781 Y90.957 E0.05475
G1 X61.084 Y90.677 E0.03954
G1 X60.456 Y90.303 E0.03845
G1 X60.01 Y89.895 E0.03183
G1 X59.865 Y90.042 E0.01085
G1 X59.29 Y90.472 E0.03782
G1 X58.332 Y90.921 E0.05569
G1 X57.2 Y91.15 E0.06078
G1 X18.802 Y91.15 E2.02082
G1 X17.682 Y90.927 E0.06014
G1 X17.082 Y90.676 E0.03421
G1 X16.504 Y90.338 E0.03525
G1 X15.594 Y89.507 E0.06486
G1 X15.131 Y88.913 E0.03962
G1 X14.652 Y87.906 E0.0587
G1 X14.422 Y86.772 E0.0609
G1 X14.421 Y69.051 E0.93266
G1 X14.395 Y68.352 E0.03681
G1 X14.321 Y67.596 E0.03995
G1 X14.331 Y63.858 E0.19672
G1 X14.4 Y63.15 E0.03745
G1 X14.421 Y62.431 E0.03786
G1 X14.422 Y33.23 E1.53679
G1 X14.645 Y32.11 E0.06014
G1 X14.896 Y31.51 E0.03421
G1 X15.234 Y30.932 E0.03525
G1 X15.998 Y30.094 E0.05968
G1 X16.37 Y30.437 F18000
G1 F1800
G1 X16.423 Y30.38 E0.00406
G1 X16.946 Y29.977 E0.03478
G1 X17.853 Y29.551 E0.05274
G1 X18.825 Y29.356 E0.05218
G1 X57.232 Y29.361 E2.02132
G1 X58.096 Y29.535 E0.04636
G1 X58.947 Y29.913 E0.04903
G1 X59.514 Y30.323 E0.03679
G1 X60.012 Y30.817 E0.03691
G1 X60.455 Y30.351 E0.03386
G1 X60.992 Y29.949 E0.0353
G1 X61.853 Y29.551 E0.04993
G1 X62.825 Y29.356 E0.05218
G1 X101.231 Y29.361 E2.02126
G1 X102.091 Y29.534 E0.04617
G1 X102.895 Y29.883 E0.04612
G1 X103.511 Y30.321 E0.03976
G1 X104.093 Y30.898 E0.04315
G1 X104.542 Y31.531 E0.0408
G1 X104.872 Y32.263 E0.04228
G1 X105.072 Y33.255 E0.05327
G1 X105.072 Y61.985 E1.51201
G1 X105.076 Y62.873 E0.04675
G1 X105.163 Y63.861 E0.05221
G1 X105.172 Y67.586 E0.19604
G1 X105.1 Y68.318 E0.03869
G1 X105.073 Y69.041 E0.0381
G1 X105.072 Y86.745 E0.93172
G1 X104.878 Y87.718 E0.05223
G1 X104.643 Y88.278 E0.03197
G1 X104.343 Y88.788 E0.03113
G1 X103.577 Y89.62 E0.05951
G1 X103.054 Y90.023 E0.03478
G1 X102.147 Y90.449 E0.05274
G1 X101.175 Y90.644 E0.05217
G1 X62.827 Y90.644 E2.01819
G1 X61.902 Y90.465 E0.04962
G1 X61.294 Y90.216 E0.03458
G1 X60.74 Y89.882 E0.03402
G1 X59.988 Y89.183 E0.05403
G1 X59.545 Y89.649 E0.03387
G1 X59.008 Y90.051 E0.0353
G1 X58.147 Y90.449 E0.04993
G1 X57.175 Y90.644 E0.05217
G1 X18.827 Y90.644 E2.01819
G1 X17.854 Y90.45 E0.05223
G1 X17.294 Y90.216 E0.03197
G1 X16.784 Y89.915 E0.03113
G1 X15.952 Y89.149 E0.0595
G1 X15.549 Y88.626 E0.03478
G1 X15.123 Y87.719 E0.05274
G1 X14.928 Y86.747 E0.05216
G1 X14.927 Y69.041 E0.93184
G1 X14.9 Y68.318 E0.03812
G1 X14.828 Y67.585 E0.03876
G1 X14.837 Y63.872 E0.1954
G1 X14.906 Y63.183 E0.03645
G1 X14.928 Y62.438 E0.03919
G1 X14.928 Y33.255 E1.53587
G1 X15.122 Y32.282 E0.05223
G1 X15.356 Y31.722 E0.03197
G1 X15.657 Y31.212 E0.03113
G1 X16.33 Y30.481 E0.05229
G1 X16.7 Y30.826 F18000
G1 F1800
G1 X16.779 Y30.741 E0.00609
G1 X17.232 Y30.396 E0.02999
G1 X17.985 Y30.041 E0.04381
G1 X18.851 Y29.862 E0.04654
G1 X57.206 Y29.867 E2.01859
G1 X57.966 Y30.025 E0.04081
G1 X58.715 Y30.364 E0.04326
G1 X59.198 Y30.719 E0.03159
G1 X59.719 Y31.241 E0.03881
G1 X59.996 Y31.632 E0.02522
G1 X60.112 Y31.448 E0.01146
G1 X60.779 Y30.741 E0.05115
G1 X61.232 Y30.396 E0.02999
G1 X61.985 Y30.041 E0.04381
G1 X62.851 Y29.862 E0.04654
G1 X101.206 Y29.867 E2.01859
G1 X101.914 Y30.009 E0.038
G1 X102.668 Y30.337 E0.04326
G1 X103.198 Y30.719 E0.03441
G1 X103.719 Y31.241 E0.03881
G1 X104.113 Y31.801 E0.03604
G1 X104.398 Y32.443 E0.03693
G1 X104.566 Y33.28 E0.04495
G1 X104.566 Y61.986 E1.51076
G1 X104.57 Y62.887 E0.04743
G1 X104.585 Y63.182 E0.01553
G1 X104.656 Y63.875 E0.03669
G1 X104.666 Y67.574 E0.19469
G1 X104.595 Y68.283 E0.03748
G1 X104.567 Y69.032 E0.03943
G1 X104.566 Y86.72 E0.93091
G1 X104.401 Y87.547 E0.0444
G1 X104.198 Y88.037 E0.02788
G1 X103.921 Y88.507 E0.02875
G1 X103.221 Y89.259 E0.05404
G1 X102.768 Y89.605 E0.02998
G1 X102.015 Y89.959 E0.04381
G1 X101.149 Y90.138 E0.04653
G1 X62.852 Y90.138 E2.01552
G1 X62.025 Y89.973 E0.0444
G1 X61.536 Y89.77 E0.02788
G1 X61.065 Y89.493 E0.02875
G1 X60.313 Y88.793 E0.05404
G1 X59.997 Y88.38 E0.0274
G1 X59.888 Y88.552 E0.01073
G1 X59.221 Y89.259 E0.05115
G1 X58.768 Y89.605 E0.02998
G1 X58.015 Y89.959 E0.04381
G1 X57.149 Y90.138 E0.04653
G1 X18.852 Y90.138 E2.01552
G1 X18.025 Y89.973 E0.0444
G1 X17.536 Y89.77 E0.02788
G1 X17.065 Y89.493 E0.02875
G1 X16.313 Y88.793 E0.05404
G1 X15.968 Y88.34 E0.02998
G1 X15.613 Y87.587 E0.04381
G1 X15.434 Y86.721 E0.04653
G1 X15.433 Y69.032 E0.93098
G1 X15.405 Y68.283 E0.03945
G1 X15.334 Y67.573 E0.03755
G1 X15.343 Y63.886 E0.19406
G1 X15.411 Y63.216 E0.03543
G1 X15.434 Y62.446 E0.04055
G1 X15.434 Y33.28 E1.53496
G1 X15.599 Y32.453 E0.0444
G1 X15.802 Y31.963 E0.02788
G1 X16.079 Y31.493 E0.02875
G1 X16.659 Y30.87 E0.0448
G1 X17.027 Y31.216 F18000
G1 F1800
G1 X17.133 Y31.104 E0.00811
G1 X17.515 Y30.816 E0.02518
G1 X18.171 Y30.513 E0.03804
G1 X18.877 Y30.369 E0.03791
G1 X57.18 Y30.374 E2.01588
G1 X57.785 Y30.499 E0.0325
G1 X58.438 Y30.789 E0.03761
G1 X58.854 Y31.091 E0.02706
G1 X59.345 Y31.583 E0.03658
G1 X59.683 Y32.07 E0.03116
G1 X59.922 Y32.62 E0.0316
G1 X60 Y33.008 E0.02082
G1 X60.076 Y32.624 E0.02063
G1 X60.263 Y32.174 E0.02561
G1 X60.5 Y31.776 E0.02441
G1 X61.133 Y31.104 E0.04856
G1 X61.515 Y30.816 E0.02518
G1 X62.171 Y30.513 E0.03804
G1 X62.877 Y30.369 E0.03791
G1 X101.18 Y30.374 E2.01588
G1 X101.785 Y30.499 E0.0325
G1 X102.438 Y30.789 E0.03761
G1 X102.854 Y31.091 E0.02706
G1 X103.345 Y31.583 E0.03658
G1 X103.683 Y32.07 E0.03116
G1 X103.922 Y32.62 E0.0316
G1 X104.059 Y33.305 E0.03676
G1 X104.059 Y61.987 E1.50951
G1 X104.064 Y62.901 E0.0481
G1 X104.08 Y63.221 E0.01685
G1 X104.15 Y63.889 E0.03536
G1 X104.159 Y67.563 E0.19332
G1 X104.089 Y68.248 E0.03625
G1 X104.06 Y69.022 E0.04079
G1 X104.059 Y86.695 E0.9301
G1 X103.924 Y87.377 E0.03657
G1 X103.737 Y87.826 E0.0256
G1 X103.5 Y88.225 E0.02441
G1 X102.867 Y88.896 E0.04856
G1 X102.485 Y89.184 E0.02517
G1 X101.829 Y89.487 E0.03804
G1 X101.124 Y89.631 E0.03791
G1 X62.877 Y89.631 E2.01287
G1 X62.196 Y89.496 E0.03657
G1 X61.746 Y89.309 E0.02561
G1 X61.348 Y89.072 E0.02441
G1 X60.676 Y88.44 E0.04855
G1 X60.388 Y88.057 E0.02517
G1 X60.085 Y87.401 E0.03804
G1 X60.001 Y86.989 E0.02216
G1 X59.924 Y87.377 E0.02081
G1 X59.737 Y87.826 E0.0256
G1 X59.5 Y88.225 E0.02441
G1 X58.867 Y88.896 E0.04856
G1 X58.485 Y89.184 E0.02517
G1 X57.829 Y89.487 E0.03804
G1 X57.124 Y89.631 E0.03791
G1 X18.877 Y89.631 E2.01287
G1 X18.196 Y89.496 E0.03657
G1 X17.746 Y89.309 E0.02561
G1 X17.348 Y89.072 E0.02441
G1 X16.676 Y88.44 E0.04855
G1 X16.388 Y88.057 E0.02517
G1 X16.085 Y87.401 E0.03804
G1 X15.941 Y86.696 E0.03791
G1 X15.94 Y69.022 E0.93013
G1 X15.911 Y68.248 E0.0408
G1 X15.841 Y67.561 E0.03632
G1 X15.85 Y63.9 E0.1927
G1 X15.917 Y63.25 E0.03439
G1 X15.94 Y62.453 E0.04192
G1 X15.941 Y33.305 E1.53404
G1 X16.076 Y32.624 E0.03657
G1 X16.263 Y32.174 E0.02561
G1 X16.5 Y31.776 E0.02441
G1 X16.986 Y31.26 E0.03729
G1 X17.351 Y31.608 F18000
G1 F1800
G1 X17.484 Y31.469 E0.01012
G1 X17.794 Y31.239 E0.02034
G1 X18.354 Y30.986 E0.0323
G1 X18.902 Y30.875 E0.02944
G1 X57.153 Y30.88 E2.01312
G1 X57.651 Y30.988 E0.02683
G1 X58.205 Y31.239 E0.032
G1 X58.509 Y31.463 E0.01988
G1 X58.971 Y31.924 E0.03433
G1 X59.25 Y32.334 E0.02613
G1 X59.446 Y32.794 E0.02631
G1 X59.553 Y33.33 E0.02874
G1 X59.553 Y61.989 E1.50827
G1 X59.557 Y62.915 E0.04878
G1 X59.575 Y63.261 E0.01821
G1 X59.644 Y63.904 E0.03403
G1 X59.653 Y67.55 E0.19191
G1 X59.584 Y68.212 E0.03501
G1 X59.554 Y69.013 E0.04217
G1 X59.553 Y86.67 E0.92929
G1 X59.446 Y87.206 E0.02874
G1 X59.277 Y87.615 E0.02329
G1 X59.081 Y87.939 E0.01995
G1 X58.516 Y88.531 E0.04305
G1 X58.206 Y88.761 E0.02034
G1 X57.646 Y89.014 E0.0323
G1 X57.098 Y89.125 E0.02944
G1 X18.902 Y89.125 E2.01023
G1 X18.366 Y89.018 E0.02874
G1 X17.958 Y88.849 E0.02329
G1 X17.633 Y88.653 E0.01995
G1 X17.041 Y88.088 E0.04305
G1 X16.811 Y87.778 E0.02034
G1 X16.558 Y87.219 E0.0323
G1 X16.447 Y86.67 E0.02944
G1 X16.446 Y69.013 E0.9293
G1 X16.416 Y68.212 E0.04219
G1 X16.347 Y67.549 E0.03508
G1 X16.356 Y63.914 E0.1913
G1 X16.422 Y63.284 E0.03335
G1 X16.447 Y62.461 E0.04333
G1 X16.447 Y33.33 E1.53312
G1 X16.554 Y32.794 E0.02874
G1 X16.723 Y32.385 E0.02329
G1 X16.919 Y32.061 E0.01995
G1 X17.31 Y31.652 E0.02977
G1 X17.672 Y32.003 F18000
G1 F1800
G1 X17.832 Y31.837 E0.01212
G1 X18.07 Y31.665 E0.01546
G1 X18.533 Y31.461 E0.02663
G1 X18.927 Y31.381 E0.02115
G1 X57.126 Y31.386 E2.01037
G1 X57.47 Y31.462 E0.01854
G1 X57.93 Y31.665 E0.02646
G1 X58.166 Y31.835 E0.0153
G1 X58.595 Y32.265 E0.03196
G1 X58.816 Y32.595 E0.02091
G1 X58.969 Y32.965 E0.02109
G1 X59.047 Y33.355 E0.02091
G1 X59.047 Y61.99 E1.50703
G1 X59.051 Y62.93 E0.04946
G1 X59.07 Y63.301 E0.01959
G1 X59.138 Y63.919 E0.03268
G1 X59.147 Y67.538 E0.19048
G1 X59.079 Y68.176 E0.03376
G1 X59.048 Y69.003 E0.04359
G1 X59.046 Y86.645 E0.92848
G1 X58.969 Y87.035 E0.02091
G1 X58.817 Y87.402 E0.02092
G1 X58.664 Y87.65 E0.01532
G1 X58.168 Y88.163 E0.03756
G1 X57.93 Y88.335 E0.01546
G1 X57.467 Y88.539 E0.02663
G1 X57.073 Y88.619 E0.02115
G1 X18.927 Y88.619 E2.0076
G1 X18.537 Y88.541 E0.02091
G1 X18.17 Y88.389 E0.02092
G1 X17.922 Y88.236 E0.01532
G1 X17.409 Y87.74 E0.03755
G1 X17.237 Y87.502 E0.01546
G1 X17.033 Y87.039 E0.02663
G1 X16.954 Y86.645 E0.02115
G1 X16.952 Y69.003 E0.92848
G1 X16.921 Y68.175 E0.0436
G1 X16.853 Y67.536 E0.03383
G1 X16.862 Y63.928 E0.18988
G1 X16.928 Y63.318 E0.03229
G1 X16.953 Y62.468 E0.04476
G1 X16.953 Y33.355 E1.53221
G1 X17.031 Y32.965 E0.02091
G1 X17.183 Y32.598 E0.02092
G1 X17.336 Y32.35 E0.01533
G1 X17.63 Y32.046 E0.02228
G1 X17.989 Y32.399 F18000
G1 F1800
G1 X18.177 Y32.209 E0.01408
G1 X18.34 Y32.094 E0.01048
G1 X18.708 Y31.936 E0.02108
G1 X18.952 Y31.888 E0.01308
G1 X57.098 Y31.893 E2.00759
G1 X57.292 Y31.936 E0.01048
G1 X57.66 Y32.094 E0.02108
G1 X57.823 Y32.209 E0.01048
G1 X58.219 Y32.605 E0.02951
G1 X58.357 Y32.812 E0.01308
G1 X58.492 Y33.136 E0.01847
G1 X58.54 Y33.38 E0.01308
G1 X58.54 Y61.991 E1.50579
G1 X58.545 Y62.944 E0.05013
G1 X58.565 Y63.342 E0.02101
G1 X58.631 Y63.934 E0.03131
G1 X58.64 Y67.525 E0.18901
G1 X58.573 Y68.139 E0.03249
G1 X58.541 Y68.994 E0.04504
G1 X58.54 Y86.62 E0.92767
G1 X58.492 Y86.864 E0.01308
G1 X58.357 Y87.188 E0.01847
G1 X58.251 Y87.356 E0.01048
G1 X57.823 Y87.791 E0.03211
G1 X57.66 Y87.906 E0.01048
G1 X57.292 Y88.064 E0.02108
G1 X57.048 Y88.112 E0.01308
G1 X18.952 Y88.112 E2.00498
