; generated by SuperSlicer 2.4 on 2024-02-21 at 02:02:42 UTC


;
;

;
;
; TODO: check the size of the extruder and the y-bar clearance. Optimize & test supports.

; external perimeters extrusion width = 0.40mm
; perimeters extrusion width = 0.40mm
; infill extrusion width = 0.40mm
; solid infill extrusion width = 0.40mm
; top infill extrusion width = 0.40mm
; first layer extrusion width = 0.56mm

; object:{"name":"BoardMounter3","id":"BoardMounter3.STL id:0 copy 0","object_center":[60.000000,60.000000,0.000000],"boundingbox_center":[60.000000,60.000000,8.500000],"boundingbox_size":[42.000000,52.250000,17.000000]}
; plater:{"center":[60.000000,60.000000,0.000000],"boundingbox_center":[60.000000,60.000000,8.500000],"boundingbox_size":[42.000000,52.250000,17.000000]}

;TYPE:Custom
; M190 S0
;M109 S0 ; uncomment to remove set&wait temp gcode added automatically after this start gcode
print_start EXTRUDER=245 BED=90 CHAMBER=50

;G92 E0
;G1 E10 F1500 ; prime the nozzle
M107
G21 ; set units to millimeters
G90 ; use absolute coordinates
M83 ; use relative distances for extrusion
SET_PRESSURE_ADVANCE ADVANCE=0.04
;_TOOLCHANGE 0
M104 S245 ; set temperature
M109 S245 ; set temperature and wait for it to be reached
M190 S90 ; set bed temperature and wait for it to be reached
M107
;LAYER_CHANGE
;Z:0.25
;HEIGHT:0.25
;BEFORE_LAYER_CHANGE
;0.25


G1 Z0.25 F18000
;AFTER_LAYER_CHANGE
;0.25
TIMELAPSE_TAKE_FRAME
G92 E0
G1 E-2 F3000
G1 Z0.65 F18000
M204 S1000
G1 X32.225 Y27.988
G1 Z0.25
G1 E2 F1800
;TYPE:Skirt
;WIDTH:0.52
G1 X31.119 Y29.47 E0.08961
G1 X30.288 Y31.121 E0.08961
G1 X30.067 Y31.727 E0.03126
G1 X29.643 Y33.526 E0.08961
G1 X29.546 Y34.792 E0.06153
G1 X29.547 Y85.417 E2.45385
G1 X29.823 Y87.451 E0.09949
G1 X30.059 Y88.287 E0.04211
G1 X30.827 Y90.021 E0.09193
G1 X31.515 Y91.145 E0.06391
G1 X32.054 Y91.828 E0.04216
G1 X33.428 Y93.202 E0.09418
G1 X34.363 Y93.882 E0.05606
G1 X36.303 Y94.871 E0.10554
G1 X37.403 Y95.229 E0.05604
G1 X39.672 Y95.543 E0.11107
G1 X80.325 Y95.543 E1.97047
G1 X82.356 Y95.268 E0.09938
G1 X83.193 Y95.032 E0.04213
G1 X84.931 Y94.263 E0.0921
G1 X86.055 Y93.574 E0.06393
G1 X86.738 Y93.036 E0.04212
G1 X88.111 Y91.664 E0.09412
G1 X88.791 Y90.728 E0.05606
G1 X89.782 Y88.786 E0.10567
G1 X90.14 Y87.684 E0.05616
G1 X90.454 Y85.415 E0.11104
G1 X90.454 Y34.792 E2.45377
G1 X90.357 Y33.526 E0.06153
G1 X89.933 Y31.727 E0.08961
G1 X89.203 Y30.028 E0.08962
G1 X88.189 Y28.482 E0.08961
G1 X86.922 Y27.136 E0.08961
G1 X85.441 Y26.03 E0.08961
G1 X83.79 Y25.198 E0.0896
G1 X82.019 Y24.666 E0.08962
G1 X80.441 Y24.471 E0.07708
G1 X39.881 Y24.457 E1.96598
G1 X38.616 Y24.554 E0.06153
G1 X36.816 Y24.978 E0.08961
G1 X36.21 Y25.198 E0.03126
G1 X34.559 Y26.03 E0.0896
G1 X33.078 Y27.136 E0.08961
G1 X32.268 Y27.946 E0.05552
G1 X32.598 Y28.276 F18000
G1 F1800
G1 X32.555 Y28.318 E0.00291
G1 X31.502 Y29.737 E0.08568
G1 X30.517 Y31.848 E0.11286
G1 X30.108 Y33.567 E0.08568
G1 X30.013 Y34.792 E0.05956
G1 X30.013 Y85.417 E2.45385
G1 X30.284 Y87.378 E0.09594
G1 X30.49 Y88.108 E0.0368
G1 X31.224 Y89.777 E0.08839
G1 X31.913 Y90.901 E0.06391
G1 X32.384 Y91.498 E0.03685
G1 X33.758 Y92.872 E0.09418
G1 X34.575 Y93.466 E0.049
G1 X36.515 Y94.455 E0.10554
G1 X37.476 Y94.768 E0.04898
G1 X39.672 Y95.077 E0.10751
G1 X80.325 Y95.077 E1.97047
G1 X82.284 Y94.807 E0.09584
G1 X83.015 Y94.601 E0.03682
G1 X84.687 Y93.866 E0.08855
G1 X85.812 Y93.177 E0.06393
G1 X86.408 Y92.706 E0.03681
G1 X87.781 Y91.334 E0.09412
G1 X88.376 Y90.516 E0.049
G1 X89.366 Y88.574 E0.10567
G1 X89.679 Y87.611 E0.04908
G1 X89.987 Y85.415 E0.10749
G1 X89.987 Y34.792 E2.45377
G1 X89.892 Y33.567 E0.05956
G1 X89.483 Y31.848 E0.08568
G1 X88.78 Y30.225 E0.08568
G1 X87.807 Y28.75 E0.08567
G1 X86.592 Y27.466 E0.08568
G1 X85.173 Y26.412 E0.08568
G1 X83.593 Y25.621 E0.08567
G1 X81.899 Y25.116 E0.08568
G1 X80.4 Y24.936 E0.07315
G1 X39.881 Y24.923 E1.96401
G1 X38.656 Y25.018 E0.05956
G1 X36.937 Y25.428 E0.08568
G1 X34.827 Y26.412 E0.11285
G1 X33.408 Y27.466 E0.08568
G1 X32.64 Y28.233 E0.05262
G1 E-2 F3000
M204 S1500
G1 Z0.65 F18000
M204 S1000
G1 X35.512 Y30.963
G1 Z0.25
G1 E2 F1800
;WIDTH:0.56
G1 X36.156 Y30.285 E0.04926
G1 X37.335 Y29.506 E0.07434
G1 X38.008 Y29.217 E0.03857
G1 X38.706 Y29.005 E0.03836
G1 X39.998 Y28.84 E0.06853
G1 X80.007 Y28.84 E2.10563
G1 X81.157 Y28.976 E0.06097
G1 X82.267 Y29.325 E0.06123
G1 X83.297 Y29.877 E0.06148
G1 X84.202 Y30.609 E0.0613
G1 X84.857 Y31.36 E0.05246
G1 X85.244 Y31.953 E0.03725
G1 X85.563 Y32.588 E0.0374
G1 X85.907 Y33.63 E0.05776
G1 X86.061 Y34.74 E0.05894
G1 X86.071 Y85.108 E2.65084
G1 X85.954 Y86.113 E0.05326
G1 X85.772 Y86.861 E0.04048
G1 X85.301 Y87.929 E0.06142
G1 X84.886 Y88.604 E0.04176
G1 X83.914 Y89.653 E0.07525
G1 X82.749 Y90.448 E0.07425
G1 X81.422 Y90.959 E0.07482
G1 X80.034 Y91.16 E0.07382
G1 X39.98 Y91.16 E2.10797
G1 X38.974 Y91.043 E0.05329
G1 X38.228 Y90.861 E0.04043
G1 X37.162 Y90.391 E0.06131
G1 X36.486 Y89.976 E0.04175
G1 X35.436 Y89.004 E0.07529
G1 X34.642 Y87.839 E0.07423
G1 X34.131 Y86.513 E0.07476
G1 X33.929 Y85.125 E0.07385
G1 X33.929 Y34.938 E2.64128
G1 X34.022 Y33.981 E0.05057
G1 X34.27 Y33.021 E0.05222
G1 X34.65 Y32.147 E0.05013
G1 X35.165 Y31.328 E0.05095
G1 X35.47 Y31.007 E0.0233
G1 X35.834 Y31.352 F18000
G1 F1800
G1 X36.461 Y30.691 E0.04793
G1 X37.557 Y29.962 E0.06927
G1 X38.169 Y29.697 E0.03512
G1 X38.833 Y29.496 E0.03648
G1 X40.014 Y29.346 E0.06266
G1 X79.992 Y29.347 E2.10401
G1 X81.03 Y29.467 E0.05498
G1 X82.051 Y29.783 E0.05625
G1 X82.998 Y30.286 E0.05647
G1 X83.836 Y30.959 E0.05656
G1 X84.443 Y31.652 E0.04847
G1 X84.812 Y32.218 E0.03555
G1 X85.102 Y32.798 E0.03415
G1 X85.418 Y33.766 E0.05358
G1 X85.556 Y34.791 E0.05442
G1 X85.564 Y85.093 E2.64738
G1 X85.453 Y86.038 E0.05009
G1 X85.286 Y86.718 E0.03684
G1 X84.846 Y87.707 E0.05696
G1 X84.468 Y88.317 E0.03775
G1 X83.563 Y89.287 E0.06983
G1 X82.489 Y90.012 E0.0682
G1 X81.268 Y90.476 E0.06874
G1 X80.016 Y90.654 E0.06659
G1 X39.995 Y90.654 E2.10624
G1 X39.049 Y90.542 E0.05012
G1 X38.371 Y90.375 E0.03679
G1 X37.384 Y89.936 E0.05685
G1 X36.774 Y89.558 E0.03774
G1 X35.803 Y88.653 E0.06986
G1 X35.078 Y87.58 E0.06818
G1 X34.614 Y86.36 E0.06868
G1 X34.436 Y85.107 E0.06661
G1 X34.436 Y34.95 E2.63971
G1 X34.517 Y34.087 E0.04559
G1 X34.742 Y33.204 E0.04799
G1 X35.106 Y32.367 E0.04803
G1 X35.58 Y31.619 E0.04656
G1 X35.792 Y31.395 E0.01627
G1 X36.156 Y31.742 F18000
G1 F1800
G1 X36.807 Y31.061 E0.0496
G1 X37.778 Y30.418 E0.06129
G1 X38.357 Y30.168 E0.03317
G1 X38.958 Y29.987 E0.03306
G1 X40.029 Y29.853 E0.05683
G1 X79.977 Y29.853 E2.1024
G1 X80.947 Y29.967 E0.05139
G1 X81.876 Y30.259 E0.05126
G1 X82.738 Y30.721 E0.05149
G1 X83.47 Y31.31 E0.04945
G1 X84.029 Y31.945 E0.04449
G1 X84.365 Y32.458 E0.0323
G1 X84.641 Y33.008 E0.03237
G1 X84.929 Y33.9 E0.04933
G1 X85.052 Y34.84 E0.04991
G1 X85.058 Y85.078 E2.64399
G1 X84.952 Y85.962 E0.04687
G1 X84.8 Y86.574 E0.03317
G1 X84.391 Y87.484 E0.05248
G1 X84.051 Y88.028 E0.03377
G1 X83.254 Y88.885 E0.06157
G1 X82.28 Y89.55 E0.0621
G1 X81.168 Y89.979 E0.06272
G1 X79.998 Y90.147 E0.06223
G1 X40.01 Y90.147 E2.10449
G1 X39.125 Y90.041 E0.0469
G1 X38.515 Y89.889 E0.03312
G1 X37.607 Y89.481 E0.05239
G1 X37.062 Y89.142 E0.03377
G1 X36.205 Y88.344 E0.06161
G1 X35.539 Y87.37 E0.06209
G1 X35.111 Y86.259 E0.06266
G1 X34.942 Y85.089 E0.06225
G1 X34.942 Y34.962 E2.63811
G1 X35.02 Y34.156 E0.04263
G1 X35.228 Y33.35 E0.04378
G1 X35.562 Y32.588 E0.04379
G1 X35.993 Y31.913 E0.04218
G1 X36.114 Y31.786 E0.00923
G1 X36.477 Y32.132 F18000
G1 F1800
G1 X37.111 Y31.467 E0.04836
G1 X38 Y30.874 E0.05622
G1 X38.544 Y30.639 E0.03117
G1 X39.082 Y30.478 E0.02959
G1 X40.045 Y30.359 E0.05105
G1 X79.963 Y30.359 E2.10082
G1 X80.82 Y30.458 E0.0454
G1 X81.66 Y30.717 E0.04627
G1 X82.441 Y31.132 E0.04654
G1 X83.106 Y31.662 E0.04477
G1 X83.616 Y32.237 E0.04044
G1 X83.934 Y32.723 E0.03055
G1 X84.179 Y33.216 E0.02899
G1 X84.44 Y34.032 E0.04506
G1 X84.548 Y34.887 E0.0454
G1 X84.552 Y85.063 E2.64068
G1 X84.451 Y85.885 E0.04361
G1 X84.314 Y86.429 E0.02948
G1 X83.937 Y87.259 E0.048
G1 X83.636 Y87.738 E0.02981
G1 X82.905 Y88.518 E0.05625
G1 X82.021 Y89.114 E0.0561
G1 X81.015 Y89.495 E0.05662
G1 X79.98 Y89.641 E0.05502
G1 X40.026 Y89.641 E2.10275
G1 X39.203 Y89.54 E0.04364
G1 X38.66 Y89.404 E0.02943
G1 X37.832 Y89.027 E0.0479
G1 X37.352 Y88.726 E0.02981
G1 X36.572 Y87.994 E0.05628
G1 X35.976 Y87.111 E0.05609
G1 X35.595 Y86.106 E0.05657
G1 X35.448 Y85.071 E0.05503
G1 X35.448 Y34.974 E2.63656
G1 X35.515 Y34.261 E0.03766
G1 X35.7 Y33.533 E0.03954
G1 X35.999 Y32.844 E0.03955
G1 X36.407 Y32.206 E0.03983
G1 X36.436 Y32.175 E0.00222
G1 X36.819 Y32.501 F18000
G1 F1800
G1 X37.457 Y31.838 E0.04843
G1 X38.223 Y31.329 E0.04837
G1 X38.703 Y31.12 E0.02757
G1 X39.207 Y30.97 E0.02766
G1 X40.061 Y30.865 E0.04528
G1 X79.948 Y30.866 E2.09923
G1 X80.738 Y30.958 E0.04186
G1 X81.445 Y31.177 E0.03896
G1 X82.145 Y31.544 E0.04161
G1 X82.743 Y32.016 E0.04008
G1 X83.203 Y32.532 E0.03638
G1 X83.487 Y32.962 E0.02715
G1 X83.717 Y33.424 E0.02714
G1 X83.95 Y34.162 E0.04072
G1 X84.043 Y34.933 E0.0409
G1 X84.045 Y85.047 E2.63745
G1 X83.951 Y85.807 E0.04029
G1 X83.83 Y86.281 E0.02575
G1 X83.484 Y87.032 E0.04349
G1 X83.221 Y87.447 E0.02585
G1 X82.556 Y88.149 E0.0509
G1 X81.765 Y88.677 E0.05006
G1 X80.865 Y89.011 E0.05053
G1 X79.963 Y89.135 E0.04793
G1 X40.041 Y89.135 E2.10101
G1 X39.281 Y89.04 E0.04031
G1 X38.808 Y88.919 E0.02571
G1 X38.059 Y88.574 E0.04341
G1 X37.644 Y88.311 E0.02585
G1 X36.941 Y87.646 E0.05094
G1 X36.413 Y86.855 E0.05005
G1 X36.079 Y85.956 E0.05048
G1 X35.955 Y85.053 E0.04793
G1 X35.955 Y34.986 E2.63501
G1 X36.017 Y34.329 E0.03471
G1 X36.185 Y33.68 E0.03531
G1 X36.455 Y33.066 E0.03529
G1 X36.787 Y32.551 E0.03222
G1 X37.211 Y32.827 F18000
G1 F1800
G1 X37.23 Y32.797 E0.00191
G1 X37.762 Y32.243 E0.0404
G1 X38.446 Y31.784 E0.04334
G1 X38.891 Y31.59 E0.02553
G1 X39.329 Y31.462 E0.02405
G1 X40.076 Y31.372 E0.03958
G1 X79.934 Y31.372 E2.09768
G1 X80.613 Y31.449 E0.03599
G1 X81.233 Y31.637 E0.0341
G1 X81.852 Y31.957 E0.03668
G1 X82.381 Y32.371 E0.03535
G1 X82.792 Y32.828 E0.03232
G1 X83.041 Y33.202 E0.02368
G1 X83.255 Y33.631 E0.02524
G1 X83.46 Y34.29 E0.03628
G1 X83.539 Y34.977 E0.0364
G1 X83.539 Y85.031 E2.63431
G1 X83.45 Y85.727 E0.03691
G1 X83.345 Y86.131 E0.02199
G1 X83.032 Y86.802 E0.03897
G1 X82.807 Y87.154 E0.02195
G1 X82.249 Y87.745 E0.04281
G1 X81.558 Y88.214 E0.04395
G1 X80.767 Y88.513 E0.04453
G1 X79.945 Y88.628 E0.04366
G1 X40.057 Y88.628 E2.09924
G1 X39.361 Y88.539 E0.03693
G1 X38.958 Y88.434 E0.02195
G1 X38.288 Y88.122 E0.03889
G1 X37.937 Y87.897 E0.02195
G1 X37.344 Y87.339 E0.04284
G1 X36.876 Y86.648 E0.04394
G1 X36.576 Y85.857 E0.04449
G1 X36.461 Y85.036 E0.04366
G1 X36.461 Y34.998 E2.63344
G1 X36.519 Y34.398 E0.0317
G1 X36.67 Y33.828 E0.03102
G1 X36.909 Y33.29 E0.03102
G1 X37.178 Y32.878 E0.0259
G1 X37.6 Y33.156 F18000
G1 F1800
G1 X37.64 Y33.095 E0.00381
G1 X38.107 Y32.615 E0.03524
G1 X38.67 Y32.238 E0.03567
G1 X39.049 Y32.071 E0.02178
G1 X39.451 Y31.953 E0.02206
G1 X40.091 Y31.878 E0.03388
G1 X79.919 Y31.878 E2.09612
G1 X80.531 Y31.949 E0.03244
G1 X81.062 Y32.114 E0.02923
G1 X81.561 Y32.372 E0.02956
G1 X82.021 Y32.728 E0.03064
G1 X82.381 Y33.124 E0.02815
G1 X82.61 Y33.469 E0.02181
G1 X82.792 Y33.838 E0.02162
G1 X82.959 Y34.372 E0.02949
G1 X83.032 Y34.991 E0.03281
G1 X83.033 Y85.015 E2.63267
G1 X82.95 Y85.645 E0.03346
G1 X82.862 Y85.979 E0.01818
G1 X82.582 Y86.571 E0.03444
G1 X82.395 Y86.858 E0.01805
G1 X81.902 Y87.376 E0.03761
G1 X81.301 Y87.776 E0.03802
G1 X80.667 Y88.016 E0.03566
G1 X79.927 Y88.122 E0.03936
G1 X40.074 Y88.122 E2.09742
G1 X39.443 Y88.04 E0.03347
G1 X39.11 Y87.951 E0.01815
G1 X38.52 Y87.672 E0.03437
G1 X38.232 Y87.485 E0.01805
G1 X37.714 Y86.992 E0.03764
G1 X37.313 Y86.391 E0.03802
G1 X37.074 Y85.758 E0.03562
G1 X36.967 Y85.018 E0.03936
G1 X36.967 Y35.01 E2.63187
G1 X37.014 Y34.507 E0.02655
G1 X37.154 Y33.978 E0.02881
G1 X37.362 Y33.517 E0.02664
G1 X37.567 Y33.206 E0.0196
G1 X37.988 Y33.487 F18000
G1 F1800
G1 X38.048 Y33.397 E0.00572
G1 X38.449 Y32.989 E0.03011
G1 X38.894 Y32.693 E0.02812
G1 X39.238 Y32.542 E0.01974
G1 X39.571 Y32.446 E0.01825
G1 X40.105 Y32.384 E0.0283
G1 X79.905 Y32.385 E2.09462
G1 X80.407 Y32.441 E0.02658
G1 X80.852 Y32.576 E0.02451
G1 X81.272 Y32.789 E0.02477
G1 X81.663 Y33.087 E0.02589
G1 X81.971 Y33.422 E0.02398
G1 X82.164 Y33.708 E0.01811
G1 X82.329 Y34.043 E0.01966
G1 X82.469 Y34.499 E0.02508
G1 X82.526 Y35.006 E0.02686
G1 X82.526 Y84.998 E2.63103
G1 X82.451 Y85.561 E0.02992
G1 X82.379 Y85.824 E0.01431
G1 X82.133 Y86.336 E0.02991
G1 X81.985 Y86.561 E0.01416
G1 X81.558 Y87.004 E0.0324
G1 X81.048 Y87.337 E0.03204
G1 X80.518 Y87.531 E0.02971
G1 X79.91 Y87.616 E0.03234
G1 X40.091 Y87.616 E2.09561
G1 X39.527 Y87.54 E0.02992
G1 X39.265 Y87.469 E0.01429
G1 X38.754 Y87.223 E0.02985
G1 X38.529 Y87.075 E0.01415
G1 X38.086 Y86.647 E0.03243
G1 X37.753 Y86.138 E0.03203
G1 X37.558 Y85.609 E0.02967
G1 X37.474 Y85 E0.03233
G1 X37.474 Y35.021 E2.63036
G1 X37.51 Y34.613 E0.02154
G1 X37.624 Y34.167 E0.02425
G1 X37.815 Y33.745 E0.02438
G1 X37.954 Y33.537 E0.01316
G1 X38.372 Y33.821 F18000
G1 F1800
G1 X38.454 Y33.7 E0.00769
G1 X38.753 Y33.394 E0.02253
G1 X39.122 Y33.146 E0.02336
G1 X39.395 Y33.023 E0.01576
G1 X39.69 Y32.938 E0.01618
G1 X40.119 Y32.891 E0.02271
G1 X79.891 Y32.891 E2.09317
G1 X80.286 Y32.933 E0.02088
G1 X80.647 Y33.039 E0.01981
G1 X80.987 Y33.208 E0.01997
G1 X81.308 Y33.448 E0.02112
G1 X81.563 Y33.722 E0.01966
G1 X81.734 Y33.976 E0.01612
G1 X81.864 Y34.245 E0.01576
G1 X81.977 Y34.622 E0.02068
G1 X82.02 Y35.019 E0.02105
G1 X82.02 Y84.98 E2.6294
G1 X81.952 Y85.475 E0.02626
G1 X81.898 Y85.664 E0.01037
G1 X81.686 Y86.098 E0.02541
G1 X81.577 Y86.259 E0.01024
G1 X81.215 Y86.63 E0.02727
G1 X80.843 Y86.873 E0.0234
G1 X80.419 Y87.034 E0.02387
G1 X79.892 Y87.109 E0.02803
G1 X40.108 Y87.109 E2.09375
G1 X39.614 Y87.041 E0.02626
G1 X39.425 Y86.987 E0.01035
G1 X38.992 Y86.775 E0.02535
G1 X38.831 Y86.667 E0.01024
G1 X38.46 Y86.305 E0.0273
G1 X38.217 Y85.932 E0.0234
G1 X38.056 Y85.509 E0.02383
G1 X37.98 Y84.982 E0.02801
G1 X37.98 Y35.032 E2.62881
G1 X38.012 Y34.68 E0.01861
G1 X38.108 Y34.318 E0.01974
G1 X38.266 Y33.976 E0.0198
G1 X38.338 Y33.87 E0.00672
G1 X38.757 Y34.155 F18000
G1 F1800
G1 X38.859 Y34.005 E0.0096
G1 X39.094 Y33.77 E0.01747
G1 X39.352 Y33.598 E0.01631
G1 X39.553 Y33.505 E0.01168
G1 X39.809 Y33.431 E0.014
G1 X40.132 Y33.397 E0.01712
G1 X79.879 Y33.397 E2.09181
G1 X80.17 Y33.426 E0.01539
G1 X80.447 Y33.505 E0.01516
G1 X80.706 Y33.63 E0.01516
G1 X80.956 Y33.813 E0.01631
G1 X81.154 Y34.022 E0.01515
G1 X81.303 Y34.243 E0.014
G1 X81.398 Y34.443 E0.01168
G1 X81.484 Y34.741 E0.01631
G1 X81.513 Y35.032 E0.01539
G1 X81.514 Y84.962 E2.62779
G1 X81.453 Y85.384 E0.02244
G1 X81.419 Y85.499 E0.00629
G1 X81.241 Y85.855 E0.02098
G1 X81.173 Y85.954 E0.00628
G1 X80.876 Y86.253 E0.02219
G1 X80.593 Y86.432 E0.01761
G1 X80.317 Y86.537 E0.01555
G1 X79.873 Y86.603 E0.02364
G1 X40.126 Y86.603 E2.09182
G1 X39.704 Y86.542 E0.02244
G1 X39.59 Y86.508 E0.00627
G1 X39.234 Y86.33 E0.02093
G1 X39.136 Y86.263 E0.00628
G1 X38.837 Y85.965 E0.02222
G1 X38.658 Y85.683 E0.0176
G1 X38.552 Y85.407 E0.01551
G1 X38.487 Y84.964 E0.02362
G1 X38.486 Y35.043 E2.62727
G1 X38.508 Y34.785 E0.01365
G1 X38.579 Y34.505 E0.01516
G1 X38.697 Y34.243 E0.01516
G1 X38.723 Y34.205 E0.0024
G1 X39.152 Y34.467 F18000
G1 F1800
G1 X39.254 Y34.322 E0.00935
G1 X39.268 Y34.305 E0.00116
G1 X39.394 Y34.179 E0.00935
G1 X39.411 Y34.165 E0.00116
G1 X39.557 Y34.063 E0.00935
G1 X39.576 Y34.052 E0.00116
G1 X39.737 Y33.977 E0.00935
G1 X39.758 Y33.969 E0.00116
G1 X39.929 Y33.923 E0.00935
G1 X39.951 Y33.919 E0.00116
G1 X40.138 Y33.903 E0.00987
G1 X79.862 Y33.903 E2.09065
G1 X80.049 Y33.919 E0.00987
G1 X80.071 Y33.923 E0.00116
G1 X80.242 Y33.969 E0.00935
G1 X80.263 Y33.977 E0.00116
G1 X80.424 Y34.052 E0.00935
G1 X80.443 Y34.063 E0.00116
G1 X80.589 Y34.165 E0.00935
G1 X80.606 Y34.179 E0.00116
G1 X80.732 Y34.305 E0.00935
G1 X80.746 Y34.322 E0.00116
G1 X80.848 Y34.467 E0.00935
G1 X80.859 Y34.486 E0.00116
G1 X80.934 Y34.647 E0.00935
G1 X80.942 Y34.668 E0.00116
G1 X80.987 Y34.84 E0.00935
G1 X80.991 Y34.862 E0.00116
