; LightBurn 1.5.01
; GRBL device profile, absolute coords
; Bounds: X72.9 Y113.28 to X90.74 Y121.01
G00 G17 G40 G21 G54
G90
M4
; Cut @ 100 mm/sec, 100% power
M8
G0 X73.482Y115.32
; Layer C00 Pass 1 of 3
G1 X73.716S1000F6000
G1 X73.723Y115.327
G1 Y115.664
G1 X73.974
G1 Y115.327
G1 X73.982Y115.32
G1 X74.216
G1 X74.223Y115.327
G1 Y115.664
G1 X74.474
G1 Y115.327
G1 X74.482Y115.32
G1 X74.716
G1 X74.723Y115.327
G1 Y115.664
G1 X74.974
G1 Y115.327
G1 X74.982Y115.32
G1 X75.216
G1 X75.223Y115.327
G1 Y115.664
G1 X75.474
G1 Y115.327
G1 X75.482Y115.32
G1 X75.716
G1 X75.723Y115.327
G1 Y115.664
G1 X75.974
G1 Y115.327
G1 X75.982Y115.32
G1 X76.216
G1 X76.223Y115.327
G1 Y115.664
G1 X76.474
G1 Y115.327
G1 X76.482Y115.32
G1 X76.716
G1 X76.723Y115.327
G1 Y115.664
G1 X76.974
G1 Y115.327
G1 X76.982Y115.32
G1 X77.216
G1 X77.223Y115.327
G1 Y115.664
G1 X77.474
G1 Y115.327
G1 X77.482Y115.32
G1 X77.716
G1 X77.723Y115.327
G1 Y116.011
G1 X77.716Y116.018
G1 X77.602
G1 X77.599
G1 X73.719
G1 X73.716
G1 X73.482
G1 X73.475Y116.011
G1 Y115.327
G1 X73.482Y115.32
; Layer C00 Pass 2 of 3
G1 X73.716
G1 X73.723Y115.327
G1 Y115.664
G1 X73.974
G1 Y115.327
G1 X73.982Y115.32
G1 X74.216
G1 X74.223Y115.327
G1 Y115.664
G1 X74.474
G1 Y115.327
G1 X74.482Y115.32
G1 X74.716
G1 X74.723Y115.327
G1 Y115.664
G1 X74.974
G1 Y115.327
G1 X74.982Y115.32
G1 X75.216
G1 X75.223Y115.327
G1 Y115.664
G1 X75.474
G1 Y115.327
G1 X75.482Y115.32
G1 X75.716
G1 X75.723Y115.327
G1 Y115.664
G1 X75.974
G1 Y115.327
G1 X75.982Y115.32
G1 X76.216
G1 X76.223Y115.327
G1 Y115.664
G1 X76.474
G1 Y115.327
G1 X76.482Y115.32
G1 X76.716
G1 X76.723Y115.327
G1 Y115.664
G1 X76.974
G1 Y115.327
G1 X76.982Y115.32
G1 X77.216
G1 X77.223Y115.327
G1 Y115.664
G1 X77.474
G1 Y115.327
G1 X77.482Y115.32
G1 X77.716
G1 X77.723Y115.327
G1 Y116.011
G1 X77.716Y116.018
G1 X77.602
G1 X77.599
G1 X73.719
G1 X73.716
G1 X73.482
G1 X73.475Y116.011
G1 Y115.327
G1 X73.482Y115.32
; Layer C00 Pass 3 of 3
G1 X73.716
G1 X73.723Y115.327
G1 Y115.664
G1 X73.974
G1 Y115.327
G1 X73.982Y115.32
G1 X74.216
G1 X74.223Y115.327
G1 Y115.664
G1 X74.474
G1 Y115.327
G1 X74.482Y115.32
G1 X74.716
G1 X74.723Y115.327
G1 Y115.664
G1 X74.974
G1 Y115.327
G1 X74.982Y115.32
G1 X75.216
G1 X75.223Y115.327
G1 Y115.664
G1 X75.474
G1 Y115.327
G1 X75.482Y115.32
G1 X75.716
G1 X75.723Y115.327
G1 Y115.664
G1 X75.974
G1 Y115.327
G1 X75.982Y115.32
G1 X76.216
G1 X76.223Y115.327
G1 Y115.664
G1 X76.474
G1 Y115.327
G1 X76.482Y115.32
G1 X76.716
G1 X76.723Y115.327
G1 Y115.664
G1 X76.974
G1 Y115.327
G1 X76.982Y115.32
G1 X77.216
G1 X77.223Y115.327
G1 Y115.664
G1 X77.474
G1 Y115.327
G1 X77.482Y115.32
G1 X77.716
G1 X77.723Y115.327
G1 Y116.011
G1 X77.716Y116.018
G1 X77.602
G1 X77.599
G1 X73.719
G1 X73.716
G1 X73.482
G1 X73.475Y116.011
G1 Y115.327
G1 X73.482Y115.32
G0 X73.267Y115.69
; Layer C00 Pass 1 of 3
G1 X73.273Y115.696
G1 Y116.112
G1 X73.267Y116.118
G1 X72.906
G1 X72.899Y116.112
G1 Y115.696
G1 X72.906Y115.69
G1 X73.267
; Layer C00 Pass 2 of 3
G1 X73.273Y115.696
G1 Y116.112
G1 X73.267Y116.118
G1 X72.906
G1 X72.899Y116.112
G1 Y115.696
G1 X72.906Y115.69
G1 X73.267
; Layer C00 Pass 3 of 3
G1 X73.273Y115.696
G1 Y116.112
G1 X73.267Y116.118
G1 X72.906
G1 X72.899Y116.112
G1 Y115.696
G1 X72.906Y115.69
G1 X73.267
G0 X73.558Y116.499
; Layer C00 Pass 1 of 3
G1 X73.555
G1 Y116.504
G1 Y117.914
G1 Y117.918
G1 X73.558
G1 X74.679
G1 X74.683
G1 Y117.914
G1 Y116.504
G1 Y116.501
G1 X74.679
G1 X73.558
; Layer C00 Pass 2 of 3
G1 X73.555
G1 Y116.504
G1 Y117.914
G1 Y117.918
G1 X73.558
G1 X74.679
G1 X74.683
G1 Y117.914
G1 Y116.504
G1 Y116.501
G1 X74.679
G1 X73.558
; Layer C00 Pass 3 of 3
G1 X73.555
G1 Y116.504
G1 Y117.914
G1 Y117.918
G1 X73.558
G1 X74.679
G1 X74.683
G1 Y117.914
G1 Y116.504
G1 Y116.501
G1 X74.679
G1 X73.558
G0 X74.87Y116.504
; Layer C00 Pass 1 of 3
G1 Y117.914
G1 Y117.917
G1 X74.875
G1 X75.999
G1 X76.003
G1 Y117.914
G1 Y116.504
G1 Y116.501
G1 X75.999
G1 X74.875
G1 X74.871
G1 Y116.504
; Layer C00 Pass 2 of 3
G1 Y117.914
G1 Y117.917
G1 X74.875
G1 X75.999
G1 X76.003
G1 Y117.914
G1 Y116.504
G1 Y116.501
G1 X75.999
G1 X74.875
G1 X74.871
G1 Y116.504
; Layer C00 Pass 3 of 3
G1 Y117.914
G1 Y117.917
G1 X74.875
G1 X75.999
G1 X76.003
G1 Y117.914
G1 Y116.504
G1 Y116.501
G1 X75.999
G1 X74.875
G1 X74.871
G1 Y116.504
G0 X76.194Y116.504
; Layer C00 Pass 1 of 3
G1 Y117.914
G1 Y117.917
G1 X76.199
G1 X77.319
G1 X77.323
G1 Y117.914
G1 Y116.504
G1 Y116.501
G1 X77.319
G1 X76.199
G1 X76.196
G1 Y116.504
; Layer C00 Pass 2 of 3
G1 Y117.914
G1 Y117.917
G1 X76.199
G1 X77.319
G1 X77.323
G1 Y117.914
G1 Y116.504
G1 Y116.501
G1 X77.319
G1 X76.199
G1 X76.196
G1 Y116.504
; Layer C00 Pass 3 of 3
G1 Y117.914
G1 Y117.917
G1 X76.199
G1 X77.319
G1 X77.323
G1 Y117.914
G1 Y116.504
G1 Y116.501
G1 X77.319
G1 X76.199
G1 X76.196
G1 Y116.504
G0 X77.518Y116.504
; Layer C00 Pass 1 of 3
G1 Y117.914
G1 Y117.917
G1 X77.523
G1 X78.639
G1 X78.643
G1 Y117.914
G1 Y116.504
G1 Y116.501
G1 X78.639
G1 X77.523
G1 X77.519
G1 Y116.504
; Layer C00 Pass 2 of 3
G1 Y117.914
G1 Y117.917
G1 X77.523
G1 X78.639
G1 X78.643
G1 Y117.914
G1 Y116.504
G1 Y116.501
G1 X78.639
G1 X77.523
G1 X77.519
G1 Y116.504
; Layer C00 Pass 3 of 3
G1 Y117.914
G1 Y117.917
G1 X77.523
G1 X78.639
G1 X78.643
G1 Y117.914
G1 Y116.504
G1 Y116.501
G1 X78.639
G1 X77.523
G1 X77.519
G1 Y116.504
G0 X77.982Y116.018
; Layer C00 Pass 1 of 3
G1 X78.216
G1 X78.223Y116.011
G1 Y115.327
G1 X78.216Y115.32
G1 X77.987
G1 X77.978Y115.323
G1 X77.974Y115.332
G1 Y116.011
G1 X77.982Y116.018
; Layer C00 Pass 2 of 3
G1 X78.216
G1 X78.223Y116.011
G1 Y115.327
G1 X78.216Y115.32
G1 X77.987
G1 X77.978Y115.323
G1 X77.974Y115.332
G1 Y116.011
G1 X77.982Y116.018
; Layer C00 Pass 3 of 3
G1 X78.216
G1 X78.223Y116.011
G1 Y115.327
G1 X78.216Y115.32
G1 X77.987
G1 X77.978Y115.323
G1 X77.974Y115.332
G1 Y116.011
G1 X77.982Y116.018
G0 X78.475Y116.011
; Layer C00 Pass 1 of 3
G1 X78.482Y116.018
G1 X78.716
G1 X78.723Y116.011
G1 Y115.327
G1 X78.716Y115.32
G1 X78.487
G1 X78.478Y115.323
G1 X78.474Y115.332
G1 Y116.011
; Layer C00 Pass 2 of 3
G1 X78.482Y116.018
G1 X78.716
G1 X78.723Y116.011
G1 Y115.327
G1 X78.716Y115.32
G1 X78.487
G1 X78.478Y115.323
G1 X78.474Y115.332
G1 Y116.011
; Layer C00 Pass 3 of 3
G1 X78.482Y116.018
G1 X78.716
G1 X78.723Y116.011
G1 Y115.327
G1 X78.716Y115.32
G1 X78.487
G1 X78.478Y115.323
G1 X78.474Y115.332
G1 Y116.011
G0 X78.925Y116.112
; Layer C00 Pass 1 of 3
G1 X78.932Y116.118
G1 X79.293
G1 X79.299Y116.112
G1 Y115.696
G1 X79.293Y115.69
G1 X78.932
G1 X78.925Y115.696
G1 Y116.112
; Layer C00 Pass 2 of 3
G1 X78.932Y116.118
G1 X79.293
G1 X79.299Y116.112
G1 Y115.696
G1 X79.293Y115.69
G1 X78.932
G1 X78.925Y115.696
G1 Y116.112
; Layer C00 Pass 3 of 3
G1 X78.932Y116.118
G1 X79.293
G1 X79.299Y116.112
G1 Y115.696
G1 X79.293Y115.69
G1 X78.932
G1 X78.925Y115.696
G1 Y116.112
G0 X79.925Y115.983
; Layer C00 Pass 1 of 3
G1 X79.907Y115.897
G1 Y115.447
G1 X79.925Y115.361
G1 X79.973Y115.288
G1 X80.046Y115.239
G1 X80.132Y115.222
G1 X80.632
G1 X80.719Y115.239
G1 X80.791Y115.288
G1 X80.84Y115.361
G1 X80.857Y115.447
G1 Y115.897
G1 X80.84Y115.983
G1 X80.791Y116.056
G1 X80.719Y116.105
G1 X80.632Y116.122
G1 X80.132
G1 X80.046Y116.105
G1 X79.973Y116.056
G1 X79.925Y115.983
; Layer C00 Pass 2 of 3
G1 X79.907Y115.897
G1 Y115.447
G1 X79.925Y115.361
G1 X79.973Y115.288
G1 X80.046Y115.239
G1 X80.132Y115.222
G1 X80.632
G1 X80.719Y115.239
G1 X80.791Y115.288
G1 X80.84Y115.361
G1 X80.857Y115.447
G1 Y115.897
G1 X80.84Y115.983
G1 X80.791Y116.056
G1 X80.719Y116.105
G1 X80.632Y116.122
G1 X80.132
G1 X80.046Y116.105
G1 X79.973Y116.056
G1 X79.925Y115.983
; Layer C00 Pass 3 of 3
G1 X79.907Y115.897
G1 Y115.447
G1 X79.925Y115.361
G1 X79.973Y115.288
G1 X80.046Y115.239
G1 X80.132Y115.222
G1 X80.632
G1 X80.719Y115.239
G1 X80.791Y115.288
G1 X80.84Y115.361
G1 X80.857Y115.447
G1 Y115.897
G1 X80.84Y115.983
G1 X80.791Y116.056
G1 X80.719Y116.105
G1 X80.632Y116.122
G1 X80.132
G1 X80.046Y116.105
G1 X79.973Y116.056
G1 X79.925Y115.983
G0 X80.132Y116.772
; Layer C00 Pass 1 of 3
G1 X80.046Y116.789
G1 X79.973Y116.838
G1 X79.925Y116.911
G1 X79.907Y116.997
G1 Y117.447
G1 X79.925Y117.533
G1 X79.973Y117.606
G1 X80.046Y117.655
G1 X80.132Y117.672
G1 X80.632
G1 X80.719Y117.655
G1 X80.791Y117.606
G1 X80.84Y117.533
G1 X80.857Y117.447
G1 Y116.997
G1 X80.84Y116.911
G1 X80.791Y116.838
G1 X80.719Y116.789
G1 X80.632Y116.772
G1 X80.132
; Layer C00 Pass 2 of 3
G1 X80.046Y116.789
G1 X79.973Y116.838
G1 X79.925Y116.911
G1 X79.907Y116.997
G1 Y117.447
G1 X79.925Y117.533
G1 X79.973Y117.606
G1 X80.046Y117.655
G1 X80.132Y117.672
G1 X80.632
G1 X80.719Y117.655
G1 X80.791Y117.606
G1 X80.84Y117.533
G1 X80.857Y117.447
G1 Y116.997
G1 X80.84Y116.911
G1 X80.791Y116.838
G1 X80.719Y116.789
G1 X80.632Y116.772
G1 X80.132
; Layer C00 Pass 3 of 3
G1 X80.046Y116.789
G1 X79.973Y116.838
G1 X79.925Y116.911
G1 X79.907Y116.997
G1 Y117.447
G1 X79.925Y117.533
G1 X79.973Y117.606
G1 X80.046Y117.655
G1 X80.132Y117.672
G1 X80.632
G1 X80.719Y117.655
G1 X80.791Y117.606
G1 X80.84Y117.533
G1 X80.857Y117.447
G1 Y116.997
G1 X80.84Y116.911
G1 X80.791Y116.838
G1 X80.719Y116.789
G1 X80.632Y116.772
G1 X80.132
G0 X78.643Y118.121
; Layer C00 Pass 1 of 3
G1 Y118.124
G1 Y119.537
G1 Y119.54
G1 X78.639
G1 X77.521
G1 X77.518
G1 Y119.537
G1 Y118.124
G1 Y118.121
G1 X77.521
G1 X78.639
G1 X78.643
; Layer C00 Pass 2 of 3
G1 Y118.124
G1 Y119.537
G1 Y119.54
G1 X78.639
G1 X77.521
G1 X77.518
G1 Y119.537
G1 Y118.124
G1 Y118.121
G1 X77.521
G1 X78.639
G1 X78.643
; Layer C00 Pass 3 of 3
G1 Y118.124
G1 Y119.537
G1 Y119.54
G1 X78.639
G1 X77.521
G1 X77.518
G1 Y119.537
G1 Y118.124
G1 Y118.121
G1 X77.521
G1 X78.639
G1 X78.643
G0 X77.324Y118.124
; Layer C00 Pass 1 of 3
G1 Y118.121
G1 X77.319
G1 X76.199
G1 X76.196
G1 Y118.124
G1 Y119.536
G1 Y119.539
G1 X76.199
G1 X77.319
G1 X77.323
G1 Y119.536
G1 Y118.124
; Layer C00 Pass 2 of 3
G1 Y118.121
G1 X77.319
G1 X76.199
G1 X76.196
G1 Y118.124
G1 Y119.536
G1 Y119.539
G1 X76.199
G1 X77.319
G1 X77.323
G1 Y119.536
G1 Y118.124
; Layer C00 Pass 3 of 3
G1 Y118.121
G1 X77.319
G1 X76.199
G1 X76.196
G1 Y118.124
G1 Y119.536
G1 Y119.539
G1 X76.199
G1 X77.319
G1 X77.323
G1 Y119.536
G1 Y118.124
G0 X76.004Y118.124
; Layer C00 Pass 1 of 3
G1 Y119.537
G1 Y119.541
G1 X75.999
G1 X74.877
G1 X74.873
G1 Y119.537
G1 Y118.124
G1 Y118.121
G1 X74.877
G1 X75.999
G1 X76.003
G1 Y118.124
; Layer C00 Pass 2 of 3
G1 Y119.537
G1 Y119.541
G1 X75.999
G1 X74.877
G1 X74.873
G1 Y119.537
G1 Y118.124
G1 Y118.121
G1 X74.877
G1 X75.999
G1 X76.003
G1 Y118.124
; Layer C00 Pass 3 of 3
G1 Y119.537
G1 Y119.541
G1 X75.999
G1 X74.877
G1 X74.873
G1 Y119.537
G1 Y118.124
G1 Y118.121
G1 X74.877
G1 X75.999
G1 X76.003
G1 Y118.124
G0 X74.684Y118.124
; Layer C00 Pass 1 of 3
G1 Y119.538
G1 Y119.541
G1 X74.679
G1 X73.553
G1 X73.55
G1 Y119.538
G1 Y118.124
G1 Y118.121
G1 X73.553
G1 X74.679
G1 X74.683
G1 Y118.124
; Layer C00 Pass 2 of 3
G1 Y119.538
G1 Y119.541
G1 X74.679
G1 X73.553
G1 X73.55
G1 Y119.538
G1 Y118.124
G1 Y118.121
G1 X73.553
G1 X74.679
G1 X74.683
G1 Y118.124
; Layer C00 Pass 3 of 3
G1 Y119.538
G1 Y119.541
G1 X74.679
G1 X73.553
G1 X73.55
G1 Y119.538
G1 Y118.124
G1 Y118.121
G1 X73.553
G1 X74.679
G1 X74.683
G1 Y118.124
G0 X73.718Y120.014
; Layer C00 Pass 1 of 3
G1 X73.715
G1 Y120.019
G1 X73.482
G1 X73.475Y120.027
G1 Y120.711
G1 X73.482Y120.718
G1 X73.716
G1 X73.723Y120.711
G1 Y120.374
G1 X73.974
G1 Y120.711
G1 X73.982Y120.718
G1 X74.216
G1 X74.223Y120.711
G1 Y120.374
G1 X74.474
G1 Y120.711
G1 X74.482Y120.718
G1 X74.716
G1 X74.723Y120.711
G1 Y120.374
G1 X74.974
G1 Y120.711
G1 X74.982Y120.718
G1 X75.216
G1 X75.223Y120.711
G1 Y120.374
G1 X75.474
G1 Y120.711
G1 X75.482Y120.718
G1 X75.716
G1 X75.723Y120.711
G1 Y120.374
G1 X75.974
G1 Y120.711
G1 X75.982Y120.718
G1 X76.216
G1 X76.223Y120.711
G1 Y120.374
G1 X76.474
G1 Y120.711
G1 X76.482Y120.718
G1 X76.716
G1 X76.723Y120.711
G1 Y120.374
G1 X76.974
G1 Y120.711
G1 X76.982Y120.718
G1 X77.216
G1 X77.223Y120.711
G1 Y120.374
G1 X77.474
G1 Y120.711
G1 X77.482Y120.718
G1 X77.716
G1 X77.723Y120.711
G1 Y120.027
G1 X77.716Y120.02
G1 X77.604
G1 Y120.016
G1 X77.599
G1 X73.718
; Layer C00 Pass 2 of 3
G1 X73.715
G1 Y120.019
G1 X73.482
G1 X73.475Y120.027
G1 Y120.711
G1 X73.482Y120.718
G1 X73.716
G1 X73.723Y120.711
G1 Y120.374
G1 X73.974
G1 Y120.711
G1 X73.982Y120.718
G1 X74.216
G1 X74.223Y120.711
G1 Y120.374
G1 X74.474
G1 Y120.711
G1 X74.482Y120.718
G1 X74.716
G1 X74.723Y120.711
G1 Y120.374
G1 X74.974
G1 Y120.711
G1 X74.982Y120.718
G1 X75.216
G1 X75.223Y120.711
G1 Y120.374
G1 X75.474
G1 Y120.711
G1 X75.482Y120.718
G1 X75.716
G1 X75.723Y120.711
G1 Y120.374
G1 X75.974
G1 Y120.711
G1 X75.982Y120.718
G1 X76.216
G1 X76.223Y120.711
G1 Y120.374
G1 X76.474
G1 Y120.711
G1 X76.482Y120.718
G1 X76.716
G1 X76.723Y120.711
G1 Y120.374
G1 X76.974
G1 Y120.711
G1 X76.982Y120.718
G1 X77.216
G1 X77.223Y120.711
G1 Y120.374
G1 X77.474
G1 Y120.711
G1 X77.482Y120.718
G1 X77.716
G1 X77.723Y120.711
G1 Y120.027
G1 X77.716Y120.02
G1 X77.604
G1 Y120.016
G1 X77.599
G1 X73.718
; Layer C00 Pass 3 of 3
G1 X73.715
G1 Y120.019
G1 X73.482
G1 X73.475Y120.027
G1 Y120.711
G1 X73.482Y120.718
G1 X73.716
G1 X73.723Y120.711
G1 Y120.374
G1 X73.974
G1 Y120.711
G1 X73.982Y120.718
G1 X74.216
G1 X74.223Y120.711
G1 Y120.374
G1 X74.474
G1 Y120.711
G1 X74.482Y120.718
G1 X74.716
G1 X74.723Y120.711
G1 Y120.374
G1 X74.974
G1 Y120.711
G1 X74.982Y120.718
G1 X75.216
G1 X75.223Y120.711
G1 Y120.374
G1 X75.474
G1 Y120.711
G1 X75.482Y120.718
G1 X75.716
G1 X75.723Y120.711
G1 Y120.374
G1 X75.974
G1 Y120.711
G1 X75.982Y120.718
G1 X76.216
G1 X76.223Y120.711
G1 Y120.374
G1 X76.474
G1 Y120.711
G1 X76.482Y120.718
G1 X76.716
G1 X76.723Y120.711
G1 Y120.374
G1 X76.974
G1 Y120.711
G1 X76.982Y120.718
G1 X77.216
G1 X77.223Y120.711
G1 Y120.374
G1 X77.474
G1 Y120.711
G1 X77.482Y120.718
G1 X77.716
G1 X77.723Y120.711
G1 Y120.027
G1 X77.716Y120.02
G1 X77.604
G1 Y120.016
G1 X77.599
G1 X73.718
G0 X73.714Y120.017
; Layer C00 Pass 1 of 3
; Layer C00 Pass 2 of 3
; Layer C00 Pass 3 of 3
G0 X73.273Y119.926
; Layer C00 Pass 1 of 3
G1 X73.267Y119.92
G1 X72.906
G1 X72.899Y119.926
G1 Y120.342
G1 X72.906Y120.348
G1 X73.262
G1 X73.27
G1 X73.274Y120.338
G1 Y119.926
; Layer C00 Pass 2 of 3
G1 X73.267Y119.92
G1 X72.906
G1 X72.899Y119.926
G1 Y120.342
G1 X72.906Y120.348
G1 X73.262
G1 X73.27
G1 X73.274Y120.338
G1 Y119.926
; Layer C00 Pass 3 of 3
G1 X73.267Y119.92
G1 X72.906
G1 X72.899Y119.926
G1 Y120.342
G1 X72.906Y120.348
G1 X73.262
G1 X73.27
G1 X73.274Y120.338
G1 Y119.926
G0 X77.974Y120.032
; Layer C00 Pass 1 of 3
G1 Y120.711
G1 X77.982Y120.718
G1 X78.216
G1 X78.223Y120.711
G1 Y120.027
G1 X78.216Y120.02
G1 X77.987
G1 X77.978Y120.023
G1 X77.974Y120.032
; Layer C00 Pass 2 of 3
G1 Y120.711
G1 X77.982Y120.718
G1 X78.216
G1 X78.223Y120.711
G1 Y120.027
G1 X78.216Y120.02
G1 X77.987
G1 X77.978Y120.023
G1 X77.974Y120.032
; Layer C00 Pass 3 of 3
G1 Y120.711
G1 X77.982Y120.718
G1 X78.216
G1 X78.223Y120.711
G1 Y120.027
G1 X78.216Y120.02
G1 X77.987
G1 X77.978Y120.023
G1 X77.974Y120.032
G0 X78.474Y120.032
; Layer C00 Pass 1 of 3
G1 Y120.711
G1 X78.482Y120.718
G1 X78.716
G1 X78.723Y120.711
G1 Y120.027
G1 X78.716Y120.02
G1 X78.487
G1 X78.478Y120.023
G1 X78.474Y120.032
; Layer C00 Pass 2 of 3
G1 Y120.711
G1 X78.482Y120.718
G1 X78.716
G1 X78.723Y120.711
G1 Y120.027
G1 X78.716Y120.02
G1 X78.487
G1 X78.478Y120.023
G1 X78.474Y120.032
; Layer C00 Pass 3 of 3
G1 Y120.711
G1 X78.482Y120.718
G1 X78.716
G1 X78.723Y120.711
G1 Y120.027
G1 X78.716Y120.02
G1 X78.487
G1 X78.478Y120.023
G1 X78.474Y120.032
G0 X78.925Y119.926
; Layer C00 Pass 1 of 3
G1 X78.932Y119.92
G1 X79.293
G1 X79.299Y119.926
G1 Y120.342
G1 X79.293Y120.348
G1 X78.936
G1 X78.928
G1 X78.925Y120.338
G1 Y119.926
; Layer C00 Pass 2 of 3
G1 X78.932Y119.92
G1 X79.293
G1 X79.299Y119.926
G1 Y120.342
G1 X79.293Y120.348
G1 X78.936
G1 X78.928
G1 X78.925Y120.338
G1 Y119.926
; Layer C00 Pass 3 of 3
G1 X78.932Y119.92
G1 X79.293
G1 X79.299Y119.926
G1 Y120.342
G1 X79.293Y120.348
G1 X78.936
G1 X78.928
G1 X78.925Y120.338
G1 Y119.926
G0 X83.016Y120.018
; Layer C00 Pass 1 of 3
G1 Y119.768
G1 X83.02Y119.763
G1 X83.87
G1 X83.874Y119.768
G1 Y120.015
G1 Y120.021
G1 X83.867
G1 X83.02
G1 X83.016Y120.018
; Layer C00 Pass 2 of 3
G1 Y119.768
G1 X83.02Y119.763
G1 X83.87
G1 X83.874Y119.768
G1 Y120.015
G1 Y120.021
G1 X83.867
G1 X83.02
G1 X83.016Y120.018
; Layer C00 Pass 3 of 3
G1 Y119.768
G1 X83.02Y119.763
G1 X83.87
G1 X83.874Y119.768
G1 Y120.015
G1 Y120.021
G1 X83.867
G1 X83.02
G1 X83.016Y120.018
G0 X83.02Y119.522
; Layer C00 Pass 1 of 3
G1 X83.016Y119.518
G1 Y119.268
G1 X83.02Y119.263
G1 X83.87
G1 X83.874Y119.268
G1 Y119.515
G1 Y119.521
G1 X83.867
G1 X83.02
; Layer C00 Pass 2 of 3
G1 X83.016Y119.518
G1 Y119.268
G1 X83.02Y119.263
G1 X83.87
G1 X83.874Y119.268
G1 Y119.515
G1 Y119.521
G1 X83.867
G1 X83.02
; Layer C00 Pass 3 of 3
G1 X83.016Y119.518
G1 Y119.268
G1 X83.02Y119.263
G1 X83.87
G1 X83.874Y119.268
G1 Y119.515
G1 Y119.521
G1 X83.867
G1 X83.02
G0 X83.02Y119.022
; Layer C00 Pass 1 of 3
G1 X83.016Y119.018
G1 Y118.768
G1 X83.02Y118.763
G1 X83.87
G1 X83.874Y118.768
G1 Y119.015
G1 Y119.021
G1 X83.867
G1 X83.02
; Layer C00 Pass 2 of 3
G1 X83.016Y119.018
G1 Y118.768
G1 X83.02Y118.763
G1 X83.87
G1 X83.874Y118.768
G1 Y119.015
G1 Y119.021
G1 X83.867
G1 X83.02
; Layer C00 Pass 3 of 3
G1 X83.016Y119.018
G1 Y118.768
G1 X83.02Y118.763
G1 X83.87
G1 X83.874Y118.768
G1 Y119.015
G1 Y119.021
G1 X83.867
G1 X83.02
G0 X83.02Y118.522
; Layer C00 Pass 1 of 3
G1 X83.016Y118.518
G1 Y118.268
G1 X83.02Y118.263
G1 X83.87
G1 X83.874Y118.268
G1 Y118.515
G1 Y118.521
G1 X83.867
G1 X83.02
; Layer C00 Pass 2 of 3
G1 X83.016Y118.518
G1 Y118.268
G1 X83.02Y118.263
G1 X83.87
G1 X83.874Y118.268
G1 Y118.515
G1 Y118.521
G1 X83.867
G1 X83.02
; Layer C00 Pass 3 of 3
G1 X83.016Y118.518
G1 Y118.268
G1 X83.02Y118.263
G1 X83.87
G1 X83.874Y118.268
G1 Y118.515
G1 Y118.521
G1 X83.867
G1 X83.02
G0 X83.02Y118.022
; Layer C00 Pass 1 of 3
G1 X83.016Y118.018
G1 Y117.768
G1 X83.02Y117.763
G1 X83.87
G1 X83.874Y117.768
G1 Y118.015
G1 Y118.021
G1 X83.867
G1 X83.02
; Layer C00 Pass 2 of 3
G1 X83.016Y118.018
G1 Y117.768
G1 X83.02Y117.763
G1 X83.87
G1 X83.874Y117.768
G1 Y118.015
G1 Y118.021
G1 X83.867
G1 X83.02
; Layer C00 Pass 3 of 3
G1 X83.016Y118.018
G1 Y117.768
G1 X83.02Y117.763
G1 X83.87
G1 X83.874Y117.768
G1 Y118.015
G1 Y118.021
G1 X83.867
G1 X83.02
G0 X83.02Y117.522
; Layer C00 Pass 1 of 3
G1 X83.016Y117.518
G1 Y117.268
G1 X83.02Y117.263
G1 X83.87
G1 X83.874Y117.268
G1 Y117.515
G1 Y117.521
G1 X83.867
G1 X83.02
; Layer C00 Pass 2 of 3
G1 X83.016Y117.518
G1 Y117.268
G1 X83.02Y117.263
G1 X83.87
G1 X83.874Y117.268
G1 Y117.515
G1 Y117.521
G1 X83.867
G1 X83.02
; Layer C00 Pass 3 of 3
G1 X83.016Y117.518
G1 Y117.268
G1 X83.02Y117.263
G1 X83.87
G1 X83.874Y117.268
G1 Y117.515
G1 Y117.521
G1 X83.867
G1 X83.02
G0 X83.02Y117.022
; Layer C00 Pass 1 of 3
G1 X83.016Y117.018
G1 Y116.768
G1 X83.02Y116.763
G1 X83.87
G1 X83.874Y116.768
G1 Y117.015
G1 Y117.021
G1 X83.867
G1 X83.02
; Layer C00 Pass 2 of 3
G1 X83.016Y117.018
G1 Y116.768
G1 X83.02Y116.763
G1 X83.87
G1 X83.874Y116.768
G1 Y117.015
G1 Y117.021
G1 X83.867
G1 X83.02
; Layer C00 Pass 3 of 3
G1 X83.016Y117.018
G1 Y116.768
G1 X83.02Y116.763
G1 X83.87
G1 X83.874Y116.768
G1 Y117.015
G1 Y117.021
G1 X83.867
G1 X83.02
G0 X83.02Y116.522
; Layer C00 Pass 1 of 3
G1 X83.016Y116.518
G1 Y116.268
G1 X83.02Y116.263
G1 X83.87
G1 X83.874Y116.268
G1 Y116.515
G1 Y116.521
G1 X83.867
G1 X83.02
; Layer C00 Pass 2 of 3
G1 X83.016Y116.518
G1 Y116.268
G1 X83.02Y116.263
G1 X83.87
G1 X83.874Y116.268
G1 Y116.515
G1 Y116.521
G1 X83.867
G1 X83.02
; Layer C00 Pass 3 of 3
G1 X83.016Y116.518
G1 Y116.268
G1 X83.02Y116.263
G1 X83.87
G1 X83.874Y116.268
G1 Y116.515
G1 Y116.521
G1 X83.867
G1 X83.02
G0 X83.02Y116.022
; Layer C00 Pass 1 of 3
G1 X83.016Y116.018
G1 Y115.768
G1 X83.02Y115.763
G1 X83.87
G1 X83.874Y115.768
G1 Y116.015
G1 Y116.021
G1 X83.867
G1 X83.02
; Layer C00 Pass 2 of 3
G1 X83.016Y116.018
G1 Y115.768
G1 X83.02Y115.763
G1 X83.87
G1 X83.874Y115.768
G1 Y116.015
G1 Y116.021
G1 X83.867
G1 X83.02
; Layer C00 Pass 3 of 3
G1 X83.016Y116.018
G1 Y115.768
G1 X83.02Y115.763
G1 X83.87
G1 X83.874Y115.768
G1 Y116.015
G1 Y116.021
G1 X83.867
G1 X83.02
G0 X83.02Y115.522
; Layer C00 Pass 1 of 3
G1 X83.016Y115.518
G1 Y115.268
G1 X83.02Y115.263
G1 X83.87
G1 X83.874Y115.268
G1 Y115.515
G1 Y115.521
G1 X83.867
G1 X83.02
; Layer C00 Pass 2 of 3
G1 X83.016Y115.518
G1 Y115.268
G1 X83.02Y115.263
G1 X83.87
G1 X83.874Y115.268
G1 Y115.515
G1 Y115.521
G1 X83.867
G1 X83.02
; Layer C00 Pass 3 of 3
G1 X83.016Y115.518
G1 Y115.268
G1 X83.02Y115.263
G1 X83.87
G1 X83.874Y115.268
G1 Y115.515
G1 Y115.521
G1 X83.867
G1 X83.02
G0 X83.02Y115.022
; Layer C00 Pass 1 of 3
G1 X83.016Y115.018
G1 Y114.768
G1 X83.02Y114.763
G1 X83.87
G1 X83.874Y114.768
G1 Y115.015
G1 Y115.021
G1 X83.867
G1 X83.02
; Layer C00 Pass 2 of 3
G1 X83.016Y115.018
G1 Y114.768
G1 X83.02Y114.763
G1 X83.87
G1 X83.874Y114.768
G1 Y115.015
G1 Y115.021
G1 X83.867
G1 X83.02
; Layer C00 Pass 3 of 3
G1 X83.016Y115.018
G1 Y114.768
G1 X83.02Y114.763
G1 X83.87
G1 X83.874Y114.768
G1 Y115.015
G1 Y115.021
G1 X83.867
G1 X83.02
G0 X83.02Y114.522
; Layer C00 Pass 1 of 3
G1 X83.016Y114.518
G1 Y114.268
G1 X83.02Y114.263
G1 X83.87
G1 X83.874Y114.268
G1 Y114.515
G1 Y114.521
G1 X83.867
G1 X83.02
; Layer C00 Pass 2 of 3
G1 X83.016Y114.518
G1 Y114.268
G1 X83.02Y114.263
G1 X83.87
G1 X83.874Y114.268
G1 Y114.515
G1 Y114.521
G1 X83.867
G1 X83.02
; Layer C00 Pass 3 of 3
G1 X83.016Y114.518
G1 Y114.268
G1 X83.02Y114.263
G1 X83.87
G1 X83.874Y114.268
G1 Y114.515
G1 Y114.521
G1 X83.867
G1 X83.02
G0 X84.001Y114.133
; Layer C00 Pass 1 of 3
G1 X84.005Y114.137
G1 X84.252
G1 X84.258
G1 Y114.13
G1 Y113.283
G1 X84.255Y113.278
G1 X84.005
G1 X84.001Y113.283
G1 Y114.133
; Layer C00 Pass 2 of 3
G1 X84.005Y114.137
G1 X84.252
G1 X84.258
G1 Y114.13
G1 Y113.283
G1 X84.255Y113.278
G1 X84.005
G1 X84.001Y113.283
G1 Y114.133
; Layer C00 Pass 3 of 3
G1 X84.005Y114.137
G1 X84.252
G1 X84.258
G1 Y114.13
G1 Y113.283
G1 X84.255Y113.278
G1 X84.005
G1 X84.001Y113.283
G1 Y114.133
G0 X84.501Y114.133
; Layer C00 Pass 1 of 3
G1 X84.505Y114.137
G1 X84.752
G1 X84.758
G1 Y114.13
G1 Y113.283
G1 X84.755Y113.278
G1 X84.505
G1 X84.501Y113.283
G1 Y114.133
; Layer C00 Pass 2 of 3
G1 X84.505Y114.137
G1 X84.752
G1 X84.758
G1 Y114.13
G1 Y113.283
G1 X84.755Y113.278
G1 X84.505
G1 X84.501Y113.283
G1 Y114.133
; Layer C00 Pass 3 of 3
G1 X84.505Y114.137
G1 X84.752
G1 X84.758
G1 Y114.13
G1 Y113.283
G1 X84.755Y113.278
G1 X84.505
G1 X84.501Y113.283
G1 Y114.133
G0 X85.001Y114.133
; Layer C00 Pass 1 of 3
G1 X85.005Y114.137
G1 X85.252
G1 X85.258
G1 Y114.13
G1 Y113.283
G1 X85.255Y113.278
G1 X85.005
G1 X85.001Y113.283
G1 Y114.133
; Layer C00 Pass 2 of 3
G1 X85.005Y114.137
G1 X85.252
G1 X85.258
G1 Y114.13
G1 Y113.283
G1 X85.255Y113.278
G1 X85.005
G1 X85.001Y113.283
G1 Y114.133
; Layer C00 Pass 3 of 3
G1 X85.005Y114.137
G1 X85.252
G1 X85.258
G1 Y114.13
G1 Y113.283
G1 X85.255Y113.278
G1 X85.005
G1 X85.001Y113.283
G1 Y114.133
G0 X85.501Y114.133
; Layer C00 Pass 1 of 3
G1 X85.505Y114.137
G1 X85.752
G1 X85.758
G1 Y114.13
G1 Y113.283
G1 X85.755Y113.278
G1 X85.505
G1 X85.501Y113.283
G1 Y114.133
; Layer C00 Pass 2 of 3
G1 X85.505Y114.137
G1 X85.752
G1 X85.758
G1 Y114.13
G1 Y113.283
G1 X85.755Y113.278
G1 X85.505
G1 X85.501Y113.283
G1 Y114.133
; Layer C00 Pass 3 of 3
G1 X85.505Y114.137
G1 X85.752
G1 X85.758
G1 Y114.13
G1 Y113.283
G1 X85.755Y113.278
G1 X85.505
G1 X85.501Y113.283
G1 Y114.133
G0 X86.001Y114.133
; Layer C00 Pass 1 of 3
G1 X86.005Y114.137
G1 X86.252
G1 X86.258
G1 Y114.13
G1 Y113.283
G1 X86.255Y113.278
G1 X86.005
G1 X86.001Y113.283
G1 Y114.133
; Layer C00 Pass 2 of 3
G1 X86.005Y114.137
G1 X86.252
G1 X86.258
G1 Y114.13
G1 Y113.283
G1 X86.255Y113.278
G1 X86.005
G1 X86.001Y113.283
G1 Y114.133
; Layer C00 Pass 3 of 3
G1 X86.005Y114.137
G1 X86.252
G1 X86.258
G1 Y114.13
G1 Y113.283
G1 X86.255Y113.278
G1 X86.005
G1 X86.001Y113.283
G1 Y114.133
G0 X86.501Y114.133
; Layer C00 Pass 1 of 3
G1 X86.505Y114.137
G1 X86.752
G1 X86.758
G1 Y114.13
G1 Y113.283
G1 X86.755Y113.278
G1 X86.505
G1 X86.501Y113.283
G1 Y114.133
; Layer C00 Pass 2 of 3
G1 X86.505Y114.137
G1 X86.752
G1 X86.758
G1 Y114.13
G1 Y113.283
G1 X86.755Y113.278
G1 X86.505
G1 X86.501Y113.283
G1 Y114.133
; Layer C00 Pass 3 of 3
G1 X86.505Y114.137
G1 X86.752
G1 X86.758
G1 Y114.13
G1 Y113.283
G1 X86.755Y113.278
G1 X86.505
G1 X86.501Y113.283
G1 Y114.133
G0 X87.001Y114.133
; Layer C00 Pass 1 of 3
G1 X87.005Y114.137
G1 X87.252
G1 X87.258
G1 Y114.13
G1 Y113.283
G1 X87.255Y113.278
G1 X87.005
G1 X87.001Y113.283
G1 Y114.133
; Layer C00 Pass 2 of 3
G1 X87.005Y114.137
G1 X87.252
G1 X87.258
G1 Y114.13
G1 Y113.283
G1 X87.255Y113.278
G1 X87.005
G1 X87.001Y113.283
G1 Y114.133
; Layer C00 Pass 3 of 3
G1 X87.005Y114.137
G1 X87.252
G1 X87.258
G1 Y114.13
G1 Y113.283
G1 X87.255Y113.278
G1 X87.005
G1 X87.001Y113.283
G1 Y114.133
G0 X87.501Y114.133
; Layer C00 Pass 1 of 3
G1 X87.505Y114.137
G1 X87.752
G1 X87.758
G1 Y114.13
G1 Y113.283
G1 X87.755Y113.278
G1 X87.505
G1 X87.501Y113.283
G1 Y114.133
; Layer C00 Pass 2 of 3
G1 X87.505Y114.137
G1 X87.752
G1 X87.758
G1 Y114.13
G1 Y113.283
G1 X87.755Y113.278
G1 X87.505
G1 X87.501Y113.283
G1 Y114.133
; Layer C00 Pass 3 of 3
G1 X87.505Y114.137
G1 X87.752
G1 X87.758
G1 Y114.13
G1 Y113.283
G1 X87.755Y113.278
G1 X87.505
G1 X87.501Y113.283
G1 Y114.133
G0 X88.001Y114.133
; Layer C00 Pass 1 of 3
G1 X88.005Y114.137
G1 X88.252
G1 X88.258
G1 Y114.13
G1 Y113.283
G1 X88.255Y113.278
G1 X88.005
G1 X88.001Y113.283
G1 Y114.133
; Layer C00 Pass 2 of 3
G1 X88.005Y114.137
G1 X88.252
G1 X88.258
G1 Y114.13
G1 Y113.283
G1 X88.255Y113.278
G1 X88.005
G1 X88.001Y113.283
G1 Y114.133
; Layer C00 Pass 3 of 3
G1 X88.005Y114.137
G1 X88.252
G1 X88.258
G1 Y114.13
G1 Y113.283
G1 X88.255Y113.278
G1 X88.005
G1 X88.001Y113.283
G1 Y114.133
G0 X88.501Y114.133
; Layer C00 Pass 1 of 3
G1 X88.505Y114.137
G1 X88.752
G1 X88.758
G1 Y114.13
G1 Y113.283
G1 X88.755Y113.278
G1 X88.505
G1 X88.501Y113.283
G1 Y114.133
; Layer C00 Pass 2 of 3
G1 X88.505Y114.137
G1 X88.752
G1 X88.758
G1 Y114.13
G1 Y113.283
G1 X88.755Y113.278
G1 X88.505
G1 X88.501Y113.283
G1 Y114.133
; Layer C00 Pass 3 of 3
G1 X88.505Y114.137
G1 X88.752
G1 X88.758
G1 Y114.13
G1 Y113.283
G1 X88.755Y113.278
G1 X88.505
G1 X88.501Y113.283
G1 Y114.133
G0 X89.001Y114.133
; Layer C00 Pass 1 of 3
G1 X89.005Y114.137
G1 X89.252
G1 X89.258
G1 Y114.13
G1 Y113.283
G1 X89.255Y113.278
G1 X89.005
G1 X89.001Y113.283
G1 Y114.133
; Layer C00 Pass 2 of 3
G1 X89.005Y114.137
G1 X89.252
G1 X89.258
G1 Y114.13
G1 Y113.283
G1 X89.255Y113.278
G1 X89.005
G1 X89.001Y113.283
G1 Y114.133
; Layer C00 Pass 3 of 3
G1 X89.005Y114.137
G1 X89.252
G1 X89.258
G1 Y114.13
G1 Y113.283
G1 X89.255Y113.278
G1 X89.005
G1 X89.001Y113.283
G1 Y114.133
G0 X89.501Y114.133
; Layer C00 Pass 1 of 3
G1 X89.505Y114.137
G1 X89.752
G1 X89.758
G1 Y114.13
G1 Y113.283
G1 X89.755Y113.278
G1 X89.505
G1 X89.501Y113.283
G1 Y114.133
; Layer C00 Pass 2 of 3
G1 X89.505Y114.137
G1 X89.752
G1 X89.758
G1 Y114.13
G1 Y113.283
G1 X89.755Y113.278
G1 X89.505
G1 X89.501Y113.283
G1 Y114.133
; Layer C00 Pass 3 of 3
G1 X89.505Y114.137
G1 X89.752
G1 X89.758
G1 Y114.13
G1 Y113.283
G1 X89.755Y113.278
G1 X89.505
G1 X89.501Y113.283
G1 Y114.133
G0 X89.886Y114.268
; Layer C00 Pass 1 of 3
G1 X89.89Y114.263
G1 X90.74
G1 X90.744Y114.268
G1 Y114.518
G1 X90.74Y114.522
G1 X89.89
G1 X89.886Y114.518
G1 Y114.268
; Layer C00 Pass 2 of 3
G1 X89.89Y114.263
G1 X90.74
G1 X90.744Y114.268
G1 Y114.518
G1 X90.74Y114.522
G1 X89.89
G1 X89.886Y114.518
G1 Y114.268
; Layer C00 Pass 3 of 3
G1 X89.89Y114.263
G1 X90.74
G1 X90.744Y114.268
G1 Y114.518
G1 X90.74Y114.522
G1 X89.89
G1 X89.886Y114.518
G1 Y114.268
G0 X89.89Y114.763
; Layer C00 Pass 1 of 3
G1 X90.74
G1 X90.744Y114.768
G1 Y115.018
G1 X90.74Y115.022
G1 X89.89
G1 X89.886Y115.018
G1 Y114.768
G1 X89.89Y114.763
; Layer C00 Pass 2 of 3
G1 X90.74
G1 X90.744Y114.768
G1 Y115.018
G1 X90.74Y115.022
G1 X89.89
G1 X89.886Y115.018
G1 Y114.768
G1 X89.89Y114.763
; Layer C00 Pass 3 of 3
G1 X90.74
G1 X90.744Y114.768
G1 Y115.018
G1 X90.74Y115.022
G1 X89.89
G1 X89.886Y115.018
G1 Y114.768
G1 X89.89Y114.763
G0 X89.89Y115.263
; Layer C00 Pass 1 of 3
G1 X90.74
G1 X90.744Y115.268
G1 Y115.518
G1 X90.74Y115.522
G1 X89.89
G1 X89.886Y115.518
G1 Y115.268
G1 X89.89Y115.263
; Layer C00 Pass 2 of 3
G1 X90.74
G1 X90.744Y115.268
G1 Y115.518
G1 X90.74Y115.522
G1 X89.89
G1 X89.886Y115.518
G1 Y115.268
G1 X89.89Y115.263
; Layer C00 Pass 3 of 3
G1 X90.74
G1 X90.744Y115.268
G1 Y115.518
G1 X90.74Y115.522
G1 X89.89
G1 X89.886Y115.518
G1 Y115.268
G1 X89.89Y115.263
G0 X89.89Y115.763
; Layer C00 Pass 1 of 3
G1 X90.74
G1 X90.744Y115.768
G1 Y116.018
G1 X90.74Y116.022
G1 X89.89
G1 X89.886Y116.018
G1 Y115.768
G1 X89.89Y115.763
; Layer C00 Pass 2 of 3
G1 X90.74
G1 X90.744Y115.768
G1 Y116.018
G1 X90.74Y116.022
G1 X89.89
G1 X89.886Y116.018
G1 Y115.768
G1 X89.89Y115.763
; Layer C00 Pass 3 of 3
G1 X90.74
G1 X90.744Y115.768
G1 Y116.018
G1 X90.74Y116.022
G1 X89.89
G1 X89.886Y116.018
G1 Y115.768
G1 X89.89Y115.763
G0 X89.89Y116.263
; Layer C00 Pass 1 of 3
G1 X90.74
G1 X90.744Y116.268
G1 Y116.518
G1 X90.74Y116.522
G1 X89.89
G1 X89.886Y116.518
G1 Y116.268
G1 X89.89Y116.263
; Layer C00 Pass 2 of 3
G1 X90.74
G1 X90.744Y116.268
G1 Y116.518
G1 X90.74Y116.522
G1 X89.89
G1 X89.886Y116.518
G1 Y116.268
G1 X89.89Y116.263
; Layer C00 Pass 3 of 3
G1 X90.74
G1 X90.744Y116.268
G1 Y116.518
G1 X90.74Y116.522
G1 X89.89
G1 X89.886Y116.518
G1 Y116.268
G1 X89.89Y116.263
G0 X89.89Y116.763
; Layer C00 Pass 1 of 3
G1 X90.74
G1 X90.744Y116.768
G1 Y117.018
G1 X90.74Y117.022
G1 X89.89
G1 X89.886Y117.018
G1 Y116.768
G1 X89.89Y116.763
; Layer C00 Pass 2 of 3
G1 X90.74
G1 X90.744Y116.768
G1 Y117.018
G1 X90.74Y117.022
G1 X89.89
G1 X89.886Y117.018
G1 Y116.768
G1 X89.89Y116.763
; Layer C00 Pass 3 of 3
G1 X90.74
G1 X90.744Y116.768
G1 Y117.018
G1 X90.74Y117.022
G1 X89.89
G1 X89.886Y117.018
G1 Y116.768
G1 X89.89Y116.763
G0 X89.89Y117.263
; Layer C00 Pass 1 of 3
G1 X89.886Y117.268
G1 Y117.515
G1 Y117.521
G1 X89.893
G1 X90.74
G1 X90.744Y117.518
G1 Y117.268
G1 X90.74Y117.263
G1 X89.89
; Layer C00 Pass 2 of 3
G1 X89.886Y117.268
G1 Y117.515
G1 Y117.521
G1 X89.893
G1 X90.74
G1 X90.744Y117.518
G1 Y117.268
G1 X90.74Y117.263
G1 X89.89
; Layer C00 Pass 3 of 3
G1 X89.886Y117.268
G1 Y117.515
G1 Y117.521
G1 X89.893
G1 X90.74
G1 X90.744Y117.518
G1 Y117.268
G1 X90.74Y117.263
G1 X89.89
G0 X89.89Y117.763
; Layer C00 Pass 1 of 3
G1 X89.886Y117.768
G1 Y118.015
G1 Y118.021
G1 X89.893
G1 X90.74
G1 X90.744Y118.018
G1 Y117.768
G1 X90.74Y117.763
G1 X89.89
; Layer C00 Pass 2 of 3
G1 X89.886Y117.768
G1 Y118.015
G1 Y118.021
G1 X89.893
G1 X90.74
G1 X90.744Y118.018
G1 Y117.768
G1 X90.74Y117.763
G1 X89.89
; Layer C00 Pass 3 of 3
G1 X89.886Y117.768
G1 Y118.015
G1 Y118.021
G1 X89.893
G1 X90.74
G1 X90.744Y118.018
G1 Y117.768
G1 X90.74Y117.763
G1 X89.89
G0 X89.89Y118.263
; Layer C00 Pass 1 of 3
G1 X89.886Y118.268
G1 Y118.515
G1 Y118.521
G1 X89.893
G1 X90.74
G1 X90.744Y118.518
G1 Y118.268
G1 X90.74Y118.263
G1 X89.89
; Layer C00 Pass 2 of 3
G1 X89.886Y118.268
G1 Y118.515
G1 Y118.521
G1 X89.893
G1 X90.74
G1 X90.744Y118.518
G1 Y118.268
G1 X90.74Y118.263
G1 X89.89
; Layer C00 Pass 3 of 3
G1 X89.886Y118.268
G1 Y118.515
G1 Y118.521
G1 X89.893
G1 X90.74
G1 X90.744Y118.518
G1 Y118.268
G1 X90.74Y118.263
G1 X89.89
G0 X89.89Y118.763
; Layer C00 Pass 1 of 3
G1 X89.886Y118.768
G1 Y119.015
G1 Y119.021
G1 X89.893
G1 X90.74
G1 X90.744Y119.018
G1 Y118.768
G1 X90.74Y118.763
G1 X89.89
; Layer C00 Pass 2 of 3
G1 X89.886Y118.768
G1 Y119.015
G1 Y119.021
G1 X89.893
G1 X90.74
G1 X90.744Y119.018
G1 Y118.768
G1 X90.74Y118.763
G1 X89.89
; Layer C00 Pass 3 of 3
G1 X89.886Y118.768
G1 Y119.015
G1 Y119.021
G1 X89.893
G1 X90.74
G1 X90.744Y119.018
G1 Y118.768
G1 X90.74Y118.763
G1 X89.89
G0 X89.89Y119.263
; Layer C00 Pass 1 of 3
G1 X89.886Y119.268
G1 Y119.515
G1 Y119.521
G1 X89.893
G1 X90.74
G1 X90.744Y119.518
G1 Y119.268
G1 X90.74Y119.263
G1 X89.89
; Layer C00 Pass 2 of 3
G1 X89.886Y119.268
G1 Y119.515
G1 Y119.521
G1 X89.893
G1 X90.74
G1 X90.744Y119.518
G1 Y119.268
G1 X90.74Y119.263
G1 X89.89
; Layer C00 Pass 3 of 3
G1 X89.886Y119.268
G1 Y119.515
G1 Y119.521
G1 X89.893
G1 X90.74
G1 X90.744Y119.518
G1 Y119.268
G1 X90.74Y119.263
G1 X89.89
G0 X89.89Y119.763
; Layer C00 Pass 1 of 3
G1 X89.886Y119.768
G1 Y120.015
G1 Y120.021
G1 X89.893
G1 X90.74
G1 X90.744Y120.018
G1 Y119.768
G1 X90.74Y119.763
G1 X89.89
; Layer C00 Pass 2 of 3
G1 X89.886Y119.768
G1 Y120.015
G1 Y120.021
G1 X89.893
G1 X90.74
G1 X90.744Y120.018
G1 Y119.768
G1 X90.74Y119.763
G1 X89.89
; Layer C00 Pass 3 of 3
G1 X89.886Y119.768
G1 Y120.015
G1 Y120.021
G1 X89.893
G1 X90.74
G1 X90.744Y120.018
G1 Y119.768
G1 X90.74Y119.763
G1 X89.89
G0 X89.755Y120.148
; Layer C00 Pass 1 of 3
G1 X89.759Y120.153
G1 Y121
G1 Y121.006
G1 X89.752
G1 X89.505
G1 X89.501Y121.003
G1 Y120.153
G1 X89.505Y120.148
G1 X89.755
; Layer C00 Pass 2 of 3
G1 X89.759Y120.153
G1 Y121
G1 Y121.006
G1 X89.752
G1 X89.505
G1 X89.501Y121.003
G1 Y120.153
G1 X89.505Y120.148
G1 X89.755
; Layer C00 Pass 3 of 3
G1 X89.759Y120.153
G1 Y121
G1 Y121.006
G1 X89.752
G1 X89.505
G1 X89.501Y121.003
G1 Y120.153
G1 X89.505Y120.148
G1 X89.755
G0 X89.259Y120.153
; Layer C00 Pass 1 of 3
G1 Y121
G1 Y121.006
G1 X89.252
G1 X89.005
G1 X89.001Y121.003
G1 Y120.153
G1 X89.005Y120.148
G1 X89.255
G1 X89.259Y120.153
; Layer C00 Pass 2 of 3
G1 Y121
G1 Y121.006
G1 X89.252
G1 X89.005
G1 X89.001Y121.003
G1 Y120.153
G1 X89.005Y120.148
G1 X89.255
G1 X89.259Y120.153
; Layer C00 Pass 3 of 3
G1 Y121
G1 Y121.006
G1 X89.252
G1 X89.005
G1 X89.001Y121.003
G1 Y120.153
G1 X89.005Y120.148
G1 X89.255
G1 X89.259Y120.153
G0 X88.759Y120.153
; Layer C00 Pass 1 of 3
G1 Y121
G1 Y121.006
G1 X88.752
G1 X88.505
G1 X88.501Y121.003
G1 Y120.153
G1 X88.505Y120.148
G1 X88.755
G1 X88.759Y120.153
; Layer C00 Pass 2 of 3
G1 Y121
G1 Y121.006
G1 X88.752
G1 X88.505
G1 X88.501Y121.003
G1 Y120.153
G1 X88.505Y120.148
G1 X88.755
G1 X88.759Y120.153
; Layer C00 Pass 3 of 3
G1 Y121
G1 Y121.006
G1 X88.752
G1 X88.505
G1 X88.501Y121.003
G1 Y120.153
G1 X88.505Y120.148
G1 X88.755
G1 X88.759Y120.153
G0 X88.259Y120.153
; Layer C00 Pass 1 of 3
G1 Y121
G1 Y121.006
G1 X88.252
G1 X88.005
G1 X88.001Y121.003
G1 Y120.153
G1 X88.005Y120.148
G1 X88.255
G1 X88.259Y120.153
; Layer C00 Pass 2 of 3
G1 Y121
G1 Y121.006
G1 X88.252
G1 X88.005
G1 X88.001Y121.003
G1 Y120.153
G1 X88.005Y120.148
G1 X88.255
G1 X88.259Y120.153
; Layer C00 Pass 3 of 3
G1 Y121
G1 Y121.006
G1 X88.252
G1 X88.005
G1 X88.001Y121.003
G1 Y120.153
G1 X88.005Y120.148
G1 X88.255
G1 X88.259Y120.153
G0 X87.759Y120.153
; Layer C00 Pass 1 of 3
G1 Y121
G1 Y121.006
G1 X87.752
G1 X87.505
G1 X87.501Y121.003
G1 Y120.153
G1 X87.505Y120.148
G1 X87.755
G1 X87.759Y120.153
; Layer C00 Pass 2 of 3
G1 Y121
G1 Y121.006
G1 X87.752
G1 X87.505
G1 X87.501Y121.003
G1 Y120.153
G1 X87.505Y120.148
G1 X87.755
G1 X87.759Y120.153
; Layer C00 Pass 3 of 3
G1 Y121
G1 Y121.006
G1 X87.752
G1 X87.505
G1 X87.501Y121.003
G1 Y120.153
G1 X87.505Y120.148
G1 X87.755
G1 X87.759Y120.153
G0 X87.259Y120.153
; Layer C00 Pass 1 of 3
G1 Y121
G1 Y121.006
G1 X87.252
G1 X87.005
G1 X87.001Y121.003
G1 Y120.153
G1 X87.005Y120.148
G1 X87.255
G1 X87.259Y120.153
; Layer C00 Pass 2 of 3
G1 Y121
G1 Y121.006
G1 X87.252
G1 X87.005
G1 X87.001Y121.003
G1 Y120.153
G1 X87.005Y120.148
G1 X87.255
G1 X87.259Y120.153
; Layer C00 Pass 3 of 3
G1 Y121
G1 Y121.006
G1 X87.252
G1 X87.005
G1 X87.001Y121.003
G1 Y120.153
G1 X87.005Y120.148
G1 X87.255
G1 X87.259Y120.153
G0 X86.759Y120.153
; Layer C00 Pass 1 of 3
G1 Y121
G1 Y121.006
G1 X86.752
G1 X86.505
G1 X86.501Y121.003
G1 Y120.153
G1 X86.505Y120.148
G1 X86.755
G1 X86.759Y120.153
; Layer C00 Pass 2 of 3
G1 Y121
G1 Y121.006
G1 X86.752
G1 X86.505
G1 X86.501Y121.003
G1 Y120.153
G1 X86.505Y120.148
G1 X86.755
G1 X86.759Y120.153
; Layer C00 Pass 3 of 3
G1 Y121
G1 Y121.006
G1 X86.752
G1 X86.505
G1 X86.501Y121.003
G1 Y120.153
G1 X86.505Y120.148
G1 X86.755
G1 X86.759Y120.153
G0 X86.259Y120.153
; Layer C00 Pass 1 of 3
G1 Y121
G1 Y121.006
G1 X86.252
G1 X86.005
G1 X86.001Y121.003
G1 Y120.153
G1 X86.005Y120.148
G1 X86.255
G1 X86.259Y120.153
; Layer C00 Pass 2 of 3
G1 Y121
G1 Y121.006
G1 X86.252
G1 X86.005
G1 X86.001Y121.003
G1 Y120.153
G1 X86.005Y120.148
G1 X86.255
G1 X86.259Y120.153
; Layer C00 Pass 3 of 3
G1 Y121
G1 Y121.006
G1 X86.252
G1 X86.005
G1 X86.001Y121.003
G1 Y120.153
G1 X86.005Y120.148
G1 X86.255
G1 X86.259Y120.153
G0 X85.759Y120.153
; Layer C00 Pass 1 of 3
G1 Y121
G1 Y121.006
G1 X85.752
G1 X85.505
G1 X85.501Y121.003
G1 Y120.153
G1 X85.505Y120.148
G1 X85.755
G1 X85.759Y120.153
; Layer C00 Pass 2 of 3
G1 Y121
G1 Y121.006
G1 X85.752
G1 X85.505
G1 X85.501Y121.003
G1 Y120.153
G1 X85.505Y120.148
G1 X85.755
G1 X85.759Y120.153
; Layer C00 Pass 3 of 3
G1 Y121
G1 Y121.006
G1 X85.752
G1 X85.505
G1 X85.501Y121.003
G1 Y120.153
G1 X85.505Y120.148
G1 X85.755
G1 X85.759Y120.153
G0 X85.259Y120.153
; Layer C00 Pass 1 of 3
G1 Y121
G1 Y121.006
G1 X85.252
G1 X85.005
G1 X85.001Y121.003
G1 Y120.153
G1 X85.005Y120.148
G1 X85.255
G1 X85.259Y120.153
; Layer C00 Pass 2 of 3
G1 Y121
G1 Y121.006
G1 X85.252
G1 X85.005
G1 X85.001Y121.003
G1 Y120.153
G1 X85.005Y120.148
G1 X85.255
G1 X85.259Y120.153
; Layer C00 Pass 3 of 3
G1 Y121
G1 Y121.006
G1 X85.252
G1 X85.005
G1 X85.001Y121.003
G1 Y120.153
G1 X85.005Y120.148
G1 X85.255
G1 X85.259Y120.153
G0 X84.759Y120.153
; Layer C00 Pass 1 of 3
G1 Y121
G1 Y121.006
G1 X84.752
G1 X84.505
G1 X84.501Y121.003
G1 Y120.153
G1 X84.505Y120.148
G1 X84.755
G1 X84.759Y120.153
; Layer C00 Pass 2 of 3
G1 Y121
G1 Y121.006
G1 X84.752
G1 X84.505
G1 X84.501Y121.003
G1 Y120.153
G1 X84.505Y120.148
G1 X84.755
G1 X84.759Y120.153
; Layer C00 Pass 3 of 3
G1 Y121
G1 Y121.006
G1 X84.752
G1 X84.505
G1 X84.501Y121.003
G1 Y120.153
G1 X84.505Y120.148
G1 X84.755
G1 X84.759Y120.153
G0 X84.259Y120.153
; Layer C00 Pass 1 of 3
G1 Y121
G1 Y121.006
G1 X84.252
G1 X84.005
G1 X84.001Y121.003
G1 Y120.153
G1 X84.005Y120.148
G1 X84.255
G1 X84.259Y120.153
; Layer C00 Pass 2 of 3
G1 Y121
G1 Y121.006
G1 X84.252
G1 X84.005
G1 X84.001Y121.003
G1 Y120.153
G1 X84.005Y120.148
G1 X84.255
G1 X84.259Y120.153
; Layer C00 Pass 3 of 3
G1 Y121
G1 Y121.006
G1 X84.252
G1 X84.005
G1 X84.001Y121.003
G1 Y120.153
G1 X84.005Y120.148
G1 X84.255
G1 X84.259Y120.153
G0 X84.78Y119.248
; Layer C00 Pass 1 of 3
G1 X84.776
G1 Y119.243
G1 Y117.623
G1 Y117.619
G1 X84.78
G1 X86.4
G1 X86.404
G1 Y117.623
G1 Y119.243
G1 Y119.246
G1 X86.4
G1 X84.78
; Layer C00 Pass 2 of 3
G1 X84.776
G1 Y119.243
G1 Y117.623
G1 Y117.619
G1 X84.78
G1 X86.4
G1 X86.404
G1 Y117.623
G1 Y119.243
G1 Y119.246
G1 X86.4
G1 X84.78
; Layer C00 Pass 3 of 3
G1 X84.776
G1 Y119.243
G1 Y117.623
G1 Y117.619
G1 X84.78
G1 X86.4
G1 X86.404
G1 Y117.623
G1 Y119.243
G1 Y119.246
G1 X86.4
G1 X84.78
G0 X87.355Y119.243
; Layer C00 Pass 1 of 3
G1 Y119.246
G1 X87.36
G1 X88.98
G1 X88.984
G1 Y119.243
G1 Y117.623
G1 Y117.619
G1 X88.98
G1 X87.36
G1 X87.356
G1 Y117.623
G1 Y119.243
; Layer C00 Pass 2 of 3
G1 Y119.246
G1 X87.36
G1 X88.98
G1 X88.984
G1 Y119.243
G1 Y117.623
G1 Y117.619
G1 X88.98
G1 X87.36
G1 X87.356
G1 Y117.623
G1 Y119.243
; Layer C00 Pass 3 of 3
G1 Y119.246
G1 X87.36
G1 X88.98
G1 X88.984
G1 Y119.243
G1 Y117.623
G1 Y117.619
G1 X88.98
G1 X87.36
G1 X87.356
G1 Y117.623
G1 Y119.243
G0 X87.36Y116.668
; Layer C00 Pass 1 of 3
G1 X87.356
G1 Y116.663
G1 Y115.043
G1 Y115.039
G1 X87.36
G1 X88.98
G1 X88.984
G1 Y115.043
G1 Y116.663
G1 Y116.666
G1 X88.98
G1 X87.36
; Layer C00 Pass 2 of 3
G1 X87.356
G1 Y116.663
G1 Y115.043
G1 Y115.039
G1 X87.36
G1 X88.98
G1 X88.984
G1 Y115.043
G1 Y116.663
G1 Y116.666
G1 X88.98
G1 X87.36
; Layer C00 Pass 3 of 3
G1 X87.356
G1 Y116.663
G1 Y115.043
G1 Y115.039
G1 X87.36
G1 X88.98
G1 X88.984
G1 Y115.043
G1 Y116.663
G1 Y116.666
G1 X88.98
G1 X87.36
G0 X86.405Y116.663
; Layer C00 Pass 1 of 3
G1 Y116.666
G1 X86.4
G1 X84.78
G1 X84.776
G1 Y116.663
G1 Y115.043
G1 Y115.039
G1 X84.78
G1 X86.4
G1 X86.404
G1 Y115.043
G1 Y116.663
; Layer C00 Pass 2 of 3
G1 Y116.666
G1 X86.4
G1 X84.78
G1 X84.776
G1 Y116.663
G1 Y115.043
G1 Y115.039
G1 X84.78
G1 X86.4
G1 X86.404
G1 Y115.043
G1 Y116.663
; Layer C00 Pass 3 of 3
G1 Y116.666
G1 X86.4
G1 X84.78
G1 X84.776
G1 Y116.663
G1 Y115.043
G1 Y115.039
G1 X84.78
G1 X86.4
G1 X86.404
G1 Y115.043
G1 Y116.663
M9
G1 S0
M5
G90
; return to user-defined finish pos
G0 X0Y0
M2
