; generated by SuperSlicer 2.4 on 2024-02-23 at 01:25:14 UTC


;
;

;
;
; TODO: check the size of the extruder and the y-bar clearance. Optimize & test supports.

; external perimeters extrusion width = 0.40mm
; perimeters extrusion width = 0.40mm
; infill extrusion width = 0.40mm
; solid infill extrusion width = 0.40mm
; top infill extrusion width = 0.40mm
; first layer extrusion width = 0.48mm

; object:{"name":"StencilHolder","id":"StencilHolder.STL id:0 copy 0","object_center":[60.000000,60.000000,0.000000],"boundingbox_center":[60.000000,60.000000,2.000000],"boundingbox_size":[109.999992,108.952805,4.000000]}
; plater:{"center":[60.000000,60.000000,0.000000],"boundingbox_center":[60.000000,60.000000,2.000000],"boundingbox_size":[109.999992,108.952805,4.000000]}

;TYPE:Custom
; M190 S0
;M109 S0 ; uncomment to remove set&wait temp gcode added automatically after this start gcode
print_start EXTRUDER=245 BED=90 CHAMBER=50

;G92 E0
;G1 E10 F1500 ; prime the nozzle
M107
G21 ; set units to millimeters
G90 ; use absolute coordinates
M83 ; use relative distances for extrusion
SET_PRESSURE_ADVANCE ADVANCE=0.04
;_TOOLCHANGE 0
M104 S245 ; set temperature
M109 S245 ; set temperature and wait for it to be reached
M190 S90 ; set bed temperature and wait for it to be reached
M107
;LAYER_CHANGE
;Z:0.25
;HEIGHT:0.25
;BEFORE_LAYER_CHANGE
;0.25


G1 Z0.25 F18000
;AFTER_LAYER_CHANGE
;0.25
TIMELAPSE_TAKE_FRAME
G92 E0
G1 E-2 F3000
G1 Z0.65 F18000
M204 S1000
G1 X3.727 Y3.838
G1 Z0.25
G1 E2 F1800
;TYPE:Skirt
;WIDTH:0.48
G1 X4.119 Y3.56 E0.0213
G1 X4.635 Y3.338 E0.02493
G1 X5.183 Y3.231 E0.02472
G1 X114.865 Y3.235 E4.86043
G1 X115.374 Y3.341 E0.02305
G1 X115.924 Y3.585 E0.02666
G1 X116.274 Y3.839 E0.01919
G1 X116.688 Y4.253 E0.02593
G1 X116.972 Y4.663 E0.02209
G1 X117.174 Y5.127 E0.02241
G1 X117.289 Y5.703 E0.02606
G1 X117.289 Y114.297 E4.81219
G1 X117.174 Y114.873 E0.02606
G1 X116.972 Y115.337 E0.02241
G1 X116.688 Y115.747 E0.02209
G1 X116.273 Y116.162 E0.026
G1 X115.881 Y116.44 E0.0213
G1 X115.365 Y116.662 E0.02493
G1 X114.817 Y116.769 E0.02472
G1 X5.183 Y116.769 E4.85829
G1 X4.607 Y116.654 E0.02606
G1 X4.143 Y116.452 E0.02241
G1 X3.733 Y116.168 E0.02209
G1 X3.318 Y115.753 E0.026
G1 X3.04 Y115.361 E0.0213
G1 X2.818 Y114.845 E0.02493
G1 X2.711 Y114.297 E0.02472
G1 X2.711 Y5.703 E4.81221
G1 X2.826 Y5.127 E0.02606
G1 X3.028 Y4.663 E0.02241
G1 X3.312 Y4.253 E0.02209
G1 X3.685 Y3.881 E0.02334
G1 X3.986 Y4.182 F18000
G1 F1800
G1 X4.016 Y4.152 E0.00188
G1 X4.311 Y3.941 E0.01607
G1 X4.743 Y3.751 E0.0209
G1 X5.204 Y3.657 E0.02087
G1 X114.842 Y3.661 E4.85847
G1 X115.262 Y3.753 E0.01903
G1 X115.728 Y3.964 E0.02269
G1 X115.984 Y4.152 E0.01409
G1 X116.372 Y4.541 E0.02434
G1 X116.608 Y4.886 E0.01853
G1 X116.773 Y5.273 E0.01866
G1 X116.863 Y5.724 E0.02038
G1 X116.863 Y114.276 E4.81033
G1 X116.773 Y114.727 E0.02038
G1 X116.608 Y115.114 E0.01865
G1 X116.372 Y115.459 E0.01853
G1 X115.984 Y115.848 E0.02434
G1 X115.689 Y116.059 E0.01607
G1 X115.257 Y116.249 E0.0209
G1 X114.796 Y116.343 E0.02087
G1 X5.204 Y116.343 E4.85642
G1 X4.753 Y116.253 E0.02038
G1 X4.366 Y116.088 E0.01866
G1 X4.021 Y115.852 E0.01853
G1 X3.632 Y115.464 E0.02434
G1 X3.421 Y115.169 E0.01607
G1 X3.231 Y114.737 E0.0209
G1 X3.137 Y114.276 E0.02087
G1 X3.137 Y5.724 E4.81034
G1 X3.227 Y5.273 E0.02038
G1 X3.392 Y4.886 E0.01865
G1 X3.628 Y4.541 E0.01853
G1 X3.944 Y4.225 E0.0198
G1 X4.245 Y4.526 F18000
G1 F1800
G1 X4.306 Y4.466 E0.00379
G1 X4.504 Y4.322 E0.01085
G1 X4.894 Y4.15 E0.01888
G1 X5.225 Y4.084 E0.015
G1 X114.819 Y4.088 E4.85652
G1 X115.109 Y4.151 E0.01315
G1 X115.496 Y4.322 E0.01876
G1 X115.694 Y4.466 E0.01085
G1 X116.056 Y4.827 E0.02266
G1 X116.242 Y5.105 E0.01482
G1 X116.371 Y5.417 E0.01495
G1 X116.436 Y5.745 E0.01482
G1 X116.436 Y114.255 E4.80847
G1 X116.371 Y114.583 E0.01482
G1 X116.242 Y114.895 E0.01495
G1 X116.056 Y115.173 E0.01482
G1 X115.694 Y115.534 E0.02266
G1 X115.496 Y115.678 E0.01085
G1 X115.106 Y115.85 E0.01888
G1 X114.775 Y115.916 E0.015
G1 X5.225 Y115.916 E4.85456
G1 X4.897 Y115.851 E0.01482
G1 X4.586 Y115.722 E0.01495
G1 X4.307 Y115.536 E0.01482
G1 X3.946 Y115.174 E0.02266
G1 X3.802 Y114.976 E0.01085
G1 X3.63 Y114.586 E0.01888
G1 X3.564 Y114.255 E0.015
G1 X3.564 Y5.745 E4.80847
G1 X3.629 Y5.417 E0.01482
G1 X3.758 Y5.105 E0.01495
G1 X3.944 Y4.827 E0.01482
G1 X4.203 Y4.569 E0.01621
G1 X4.504 Y4.87 F18000
G1 F1800
G1 X4.594 Y4.78 E0.00563
G1 X4.731 Y4.684 E0.00743
G1 X5.041 Y4.551 E0.01494
G1 X5.246 Y4.51 E0.00927
G1 X114.795 Y4.514 E4.85455
G1 X114.959 Y4.551 E0.00743
G1 X115.269 Y4.684 E0.01494
G1 X115.406 Y4.78 E0.00743
G1 X115.74 Y5.114 E0.02092
G1 X115.856 Y5.288 E0.00927
G1 X115.969 Y5.561 E0.01309
G1 X116.01 Y5.766 E0.00927
G1 X116.01 Y114.234 E4.80662
G1 X115.969 Y114.439 E0.00927
G1 X115.856 Y114.712 E0.01309
G1 X115.74 Y114.886 E0.00927
G1 X115.406 Y115.22 E0.02092
G1 X115.269 Y115.316 E0.00743
G1 X114.959 Y115.449 E0.01494
G1 X114.754 Y115.49 E0.00927
G1 X5.246 Y115.49 E4.8527
G1 X5.041 Y115.449 E0.00927
G1 X4.768 Y115.336 E0.01309
G1 X4.594 Y115.22 E0.00927
G1 X4.26 Y114.886 E0.02092
G1 X4.164 Y114.749 E0.00743
G1 X4.031 Y114.439 E0.01494
G1 X3.99 Y114.234 E0.00927
G1 X3.99 Y5.766 E4.80662
G1 X4.031 Y5.561 E0.00927
G1 X4.144 Y5.288 E0.01309
G1 X4.26 Y5.114 E0.00927
G1 X4.462 Y4.913 E0.01263
G1 X4.763 Y5.214 F18000
G1 F1800
G1 X4.881 Y5.096 E0.00737
G1 X4.951 Y5.05 E0.00372
G1 X5.185 Y4.953 E0.01124
G1 X5.267 Y4.936 E0.00372
G1 X114.733 Y4.936 E4.85084
G1 X114.815 Y4.953 E0.00372
G1 X115.049 Y5.05 E0.01124
G1 X115.119 Y5.096 E0.00372
G1 X115.423 Y5.401 E0.01906
G1 X115.47 Y5.471 E0.00372
G1 X115.567 Y5.705 E0.01124
G1 X115.584 Y5.787 E0.00372
G1 X115.584 Y114.213 E4.80476
G1 X115.567 Y114.295 E0.00372
G1 X115.47 Y114.529 E0.01124
G1 X115.423 Y114.599 E0.00372
G1 X115.119 Y114.904 E0.01906
G1 X115.049 Y114.95 E0.00372
G1 X114.815 Y115.047 E0.01124
G1 X114.733 Y115.064 E0.00372
G1 X5.267 Y115.064 E4.85084
G1 X5.185 Y115.047 E0.00372
G1 X4.951 Y114.95 E0.01124
G1 X4.881 Y114.904 E0.00372
G1 X4.577 Y114.599 E0.01906
G1 X4.53 Y114.529 E0.00372
G1 X4.433 Y114.295 E0.01124
G1 X4.416 Y114.213 E0.00372
G1 X4.416 Y5.787 E4.80476
G1 X4.433 Y5.705 E0.00372
G1 X4.53 Y5.471 E0.01124
G1 X4.577 Y5.401 E0.00372
G1 X4.721 Y5.256 E0.00904
G1 X5.022 Y5.558 F18000
G1 F1800
G1 X5.153 Y5.428 E0.00816
G1 X5.309 Y5.363 E0.00752
G1 X114.691 Y5.363 E4.84712
G1 X114.847 Y5.428 E0.00752
G1 X115.092 Y5.672 E0.01534
G1 X115.157 Y5.829 E0.00752
G1 X115.157 Y114.171 E4.80104
G1 X115.092 Y114.328 E0.00752
G1 X114.847 Y114.572 E0.01534
G1 X114.691 Y114.637 E0.00752
G1 X5.309 Y114.637 E4.84712
G1 X5.153 Y114.572 E0.00752
G1 X4.908 Y114.328 E0.01534
G1 X4.843 Y114.171 E0.00752
G1 X4.843 Y5.829 E4.80104
G1 X4.908 Y5.672 E0.00752
G1 X4.98 Y5.6 E0.00452
G1 X5.281 Y5.902 F18000
G1 F1800
G1 X5.394 Y5.789 E0.00706
G1 X114.606 Y5.789 E4.83961
G1 X114.731 Y5.914 E0.00783
G1 X114.731 Y114.086 E4.79352
G1 X114.606 Y114.211 E0.00783
G1 X5.394 Y114.211 E4.83961
G1 X5.269 Y114.086 E0.00783
G1 X5.269 Y5.957 E4.79163
; printing object StencilHolder.STL id:0 copy 0
G1 X5.722 Y6.242 F18000
;TYPE:External perimeter
G1 F1800
G1 X114.278 Y6.242 E5.29156
G1 X114.278 Y113.758 E5.24087
G1 X5.722 Y113.758 E5.29156
G1 X5.722 Y6.302 E5.23794
;WIPE_START
M204 S1500
G1 X6.069 Y6.442 F18000
;WIPE_END
M204 S1000
G1 X6.149 Y6.669
;TYPE:Internal perimeter
G1 F1800
G1 X113.851 Y6.669 E5.25
G1 X113.851 Y113.331 E5.1993
G1 X6.149 Y113.331 E5.25
G1 X6.149 Y6.729 E5.19638
G1 X6.575 Y7.095 F18000
G1 F1800
G1 X113.425 Y7.095 E5.20843
G1 X113.425 Y112.905 E5.15774
G1 X6.575 Y112.905 E5.20843
G1 X6.575 Y7.155 E5.15481
G1 X7.001 Y7.521 F18000
G1 F1800
G1 X112.999 Y7.521 E5.16687
G1 X112.999 Y112.479 E5.11617
G1 X7.001 Y112.479 E5.16687
G1 X7.001 Y7.581 E5.11325
G1 E-2 F3000
M204 S1500
G1 Z0.65 F18000
; acceleration to travel
G1 X26.249 Y16.053
; decel to extrusion
M204 S1000
G1 X39.081 Y21.701
; end travel
G1 Z0.25
G1 E2 F1800
;TYPE:External perimeter
G1 X37.642 Y22.518 E0.08068
G1 X36.339 Y23.327 E0.07476
G1 X35.065 Y24.18 E0.07473
G1 X33.823 Y25.078 E0.07472
G1 X32.612 Y26.019 E0.07473
G1 X31.436 Y27.002 E0.07473
G1 X30.295 Y28.025 E0.07472
G1 X29.19 Y29.088 E0.07473
G1 X28.123 Y30.189 E0.07472
G1 X27.096 Y31.327 E0.07473
G1 X26.109 Y32.5 E0.07473
G1 X25.165 Y33.708 E0.07473
G1 X24.263 Y34.947 E0.07473
G1 X23.405 Y36.218 E0.07473
G1 X22.592 Y37.518 E0.07473
G1 X21.826 Y38.845 E0.07473
G1 X21.106 Y40.199 E0.07472
G1 X20.435 Y41.577 E0.07473
G1 X19.812 Y42.978 E0.07473
G1 X19.239 Y44.4 E0.07472
G1 X18.717 Y45.841 E0.07473
G1 X18.245 Y47.299 E0.07472
G1 X17.825 Y48.774 E0.07473
G1 X17.456 Y50.262 E0.07472
G1 X17.141 Y51.762 E0.07473
G1 X16.878 Y53.272 E0.07472
G1 X16.668 Y54.791 E0.07473
G1 X16.512 Y56.316 E0.07473
G1 X16.409 Y57.845 E0.07472
G1 X16.36 Y59.378 E0.07476
G1 X16.372 Y61.033 E0.08068
G1 X16.468 Y61.213 E0.0099
G1 X17.293 Y62.167 E0.06152
G1 X18.852 Y64.054 E0.1193
G1 X20.369 Y65.974 E0.1193
G1 X21.843 Y67.928 E0.1193
G1 X23.273 Y69.915 E0.1193
G1 X24.658 Y71.933 E0.1193
G1 X25.998 Y73.981 E0.1193
G1 X27.292 Y76.058 E0.1193
G1 X28.539 Y78.164 E0.1193
G1 X29.739 Y80.297 E0.1193
G1 X30.891 Y82.456 E0.1193
G1 X31.995 Y84.641 E0.11931
G1 X33.05 Y86.849 E0.1193
G1 X34.055 Y89.081 E0.11931
G1 X35.011 Y91.334 E0.1193
G1 X35.916 Y93.608 E0.1193
G1 X36.77 Y95.902 E0.11934
G1 X37.218 Y97.175 E0.06575
G1 X37.364 Y97.316 E0.00989
G1 X38.719 Y98.104 E0.07645
G1 X40.071 Y98.828 E0.07473
G1 X41.447 Y99.504 E0.07472
G1 X42.845 Y100.131 E0.07473
G1 X44.265 Y100.709 E0.07472
G1 X45.705 Y101.236 E0.07473
G1 X47.162 Y101.713 E0.07473
G1 X48.635 Y102.138 E0.07473
G1 X50.121 Y102.511 E0.07472
G1 X51.621 Y102.832 E0.07473
G1 X53.13 Y103.1 E0.07473
G1 X54.648 Y103.315 E0.07473
G1 X56.172 Y103.476 E0.07473
G1 X57.701 Y103.583 E0.07472
G1 X59.234 Y103.637 E0.07473
G1 X60.766 Y103.637 E0.07473
G1 X62.299 Y103.583 E0.07473
G1 X63.828 Y103.476 E0.07473
G1 X65.352 Y103.315 E0.07473
G1 X66.87 Y103.1 E0.07473
G1 X68.379 Y102.832 E0.07472
G1 X69.879 Y102.511 E0.07473
G1 X71.365 Y102.138 E0.07472
G1 X72.838 Y101.713 E0.07473
G1 X74.295 Y101.236 E0.07473
G1 X75.735 Y100.709 E0.07473
G1 X77.155 Y100.131 E0.07472
G1 X78.553 Y99.504 E0.07473
G1 X79.929 Y98.828 E0.07472
G1 X81.281 Y98.104 E0.07473
G1 X82.636 Y97.316 E0.07645
G1 X82.782 Y97.174 E0.00989
G1 X83.23 Y95.902 E0.06574
G1 X84.084 Y93.608 E0.11934
G1 X84.989 Y91.334 E0.1193
G1 X85.945 Y89.081 E0.1193
G1 X86.95 Y86.849 E0.1193
G1 X88.005 Y84.641 E0.11931
G1 X89.109 Y82.456 E0.1193
G1 X90.261 Y80.297 E0.1193
G1 X91.461 Y78.164 E0.1193
G1 X92.708 Y76.058 E0.1193
G1 X94.002 Y73.981 E0.1193
G1 X95.342 Y71.933 E0.1193
G1 X96.727 Y69.915 E0.1193
G1 X98.157 Y67.928 E0.11931
G1 X99.631 Y65.974 E0.1193
G1 X101.148 Y64.054 E0.1193
G1 X102.707 Y62.167 E0.11934
G1 X103.585 Y61.143 E0.06574
G1 X103.634 Y60.946 E0.00989
G1 X103.64 Y59.377 E0.07645
G1 X103.591 Y57.845 E0.07473
G1 X103.488 Y56.316 E0.07472
G1 X103.332 Y54.791 E0.07473
G1 X103.122 Y53.272 E0.07473
G1 X102.859 Y51.762 E0.07472
G1 X102.544 Y50.262 E0.07473
G1 X102.175 Y48.774 E0.07473
G1 X101.755 Y47.299 E0.07473
G1 X101.283 Y45.841 E0.07473
G1 X100.761 Y44.4 E0.07473
G1 X100.188 Y42.978 E0.07472
G1 X99.565 Y41.577 E0.07473
G1 X98.894 Y40.199 E0.07472
G1 X98.174 Y38.845 E0.07472
G1 X97.408 Y37.518 E0.07473
G1 X96.595 Y36.218 E0.07473
G1 X95.737 Y34.947 E0.07472
G1 X94.835 Y33.708 E0.07473
G1 X93.891 Y32.5 E0.07472
G1 X92.904 Y31.327 E0.07473
G1 X91.877 Y30.189 E0.07473
G1 X90.81 Y29.088 E0.07473
G1 X89.705 Y28.025 E0.07472
G1 X88.564 Y27.002 E0.07473
G1 X87.388 Y26.019 E0.07473
G1 X86.177 Y25.078 E0.07473
G1 X84.935 Y24.18 E0.07472
G1 X83.661 Y23.327 E0.07473
G1 X82.359 Y22.518 E0.07473
G1 X80.984 Y21.73 E0.07725
G1 X80.764 Y21.69 E0.01088
G1 X80.294 Y21.778 E0.02331
G1 X77.063 Y22.338 E0.15988
G1 X74.641 Y22.692 E0.11927
G1 X72.212 Y22.991 E0.11931
G1 X69.777 Y23.236 E0.1193
G1 X67.337 Y23.426 E0.1193
G1 X64.893 Y23.563 E0.1193
G1 X62.447 Y23.645 E0.1193
G1 X60 Y23.672 E0.1193
G1 X57.553 Y23.645 E0.1193
G1 X55.107 Y23.563 E0.1193
G1 X52.663 Y23.426 E0.1193
G1 X50.223 Y23.236 E0.1193
G1 X47.788 Y22.991 E0.1193
G1 X45.359 Y22.692 E0.11931
G1 X42.937 Y22.338 E0.1193
G1 X40.523 Y21.931 E0.1193
G1 X39.284 Y21.694 E0.06152
G1 X39.141 Y21.699 E0.00697
;WIPE_START
M204 S1500
G1 X38.773 Y21.446 F18000
;WIPE_END
M204 S1000
G1 X38.961 Y21.278
;TYPE:Internal perimeter
G1 F1800
G1 X37.424 Y22.151 E0.08618
G1 X36.107 Y22.968 E0.07553
G1 X34.822 Y23.83 E0.07546
G1 X33.567 Y24.737 E0.07545
G1 X32.345 Y25.687 E0.07546
G1 X31.157 Y26.679 E0.07546
G1 X30.004 Y27.713 E0.07545
G1 X28.889 Y28.786 E0.07546
G1 X27.812 Y29.898 E0.07546
G1 X26.775 Y31.047 E0.07546
G1 X25.778 Y32.232 E0.07546
G1 X24.824 Y33.451 E0.07546
G1 X23.914 Y34.702 E0.07545
G1 X23.047 Y35.985 E0.07546
G1 X22.227 Y37.298 E0.07545
G1 X21.453 Y38.639 E0.07546
G1 X20.726 Y40.005 E0.07545
G1 X20.048 Y41.397 E0.07546
G1 X19.42 Y42.812 E0.07546
G1 X18.841 Y44.247 E0.07546
G1 X18.313 Y45.703 E0.07546
G1 X17.837 Y47.175 E0.07546
G1 X17.412 Y48.664 E0.07546
G1 X17.041 Y50.167 E0.07546
G1 X16.722 Y51.681 E0.07546
G1 X16.456 Y53.206 E0.07545
G1 X16.245 Y54.74 E0.07546
G1 X16.087 Y56.28 E0.07546
G1 X15.983 Y57.824 E0.07546
G1 X15.934 Y59.373 E0.07553
G1 X15.947 Y61.141 E0.08619
G1 X16.114 Y61.455 E0.01734
G1 X16.968 Y62.442 E0.06363
G1 X18.521 Y64.322 E0.11884
G1 X20.032 Y66.235 E0.11884
G1 X21.5 Y68.181 E0.11884
G1 X22.924 Y70.16 E0.11884
G1 X24.304 Y72.17 E0.11884
G1 X25.638 Y74.21 E0.11884
G1 X26.927 Y76.28 E0.11883
G1 X28.17 Y78.377 E0.11884
G1 X29.365 Y80.502 E0.11884
G1 X30.513 Y82.653 E0.11884
G1 X31.612 Y84.829 E0.11884
G1 X32.663 Y87.029 E0.11883
G1 X33.665 Y89.252 E0.11884
G1 X34.616 Y91.496 E0.11884
G1 X35.518 Y93.761 E0.11884
G1 X36.369 Y96.047 E0.11892
G1 X36.849 Y97.411 E0.07046
G1 X37.105 Y97.658 E0.01732
G1 X38.511 Y98.476 E0.07934
G1 X39.876 Y99.207 E0.07546
G1 X41.265 Y99.89 E0.07546
G1 X42.678 Y100.523 E0.07546
G1 X44.112 Y101.107 E0.07545
G1 X45.565 Y101.639 E0.07546
G1 X47.036 Y102.121 E0.07546
G1 X48.524 Y102.55 E0.07546
G1 X50.025 Y102.927 E0.07546
G1 X51.539 Y103.251 E0.07546
G1 X53.063 Y103.521 E0.07546
G1 X54.595 Y103.738 E0.07546
G1 X56.135 Y103.901 E0.07546
G1 X57.679 Y104.009 E0.07545
G1 X59.226 Y104.064 E0.07546
G1 X60.774 Y104.064 E0.07546
G1 X62.321 Y104.009 E0.07545
G1 X63.865 Y103.901 E0.07546
G1 X65.405 Y103.738 E0.07546
G1 X66.937 Y103.521 E0.07546
G1 X68.461 Y103.251 E0.07545
G1 X69.975 Y102.927 E0.07546
G1 X71.476 Y102.55 E0.07546
G1 X72.964 Y102.121 E0.07546
G1 X74.435 Y101.639 E0.07546
G1 X75.888 Y101.107 E0.07546
G1 X77.322 Y100.523 E0.07545
G1 X78.735 Y99.89 E0.07546
G1 X80.124 Y99.207 E0.07546
G1 X81.489 Y98.476 E0.07546
G1 X82.896 Y97.658 E0.07934
G1 X83.151 Y97.411 E0.01732
G1 X83.631 Y96.047 E0.07046
G1 X84.482 Y93.761 E0.11892
G1 X85.384 Y91.496 E0.11884
G1 X86.335 Y89.252 E0.11883
G1 X87.337 Y87.029 E0.11884
G1 X88.388 Y84.829 E0.11884
G1 X89.487 Y82.653 E0.11884
G1 X90.635 Y80.502 E0.11884
G1 X91.83 Y78.377 E0.11884
G1 X93.073 Y76.28 E0.11884
G1 X94.362 Y74.21 E0.11884
G1 X95.696 Y72.17 E0.11884
G1 X97.076 Y70.16 E0.11884
G1 X98.5 Y68.181 E0.11884
G1 X99.968 Y66.235 E0.11884
G1 X101.479 Y64.322 E0.11884
G1 X103.033 Y62.441 E0.11892
G1 X103.974 Y61.344 E0.07046
G1 X104.061 Y60.999 E0.01732
G1 X104.066 Y59.371 E0.07934
G1 X104.017 Y57.824 E0.07545
G1 X103.913 Y56.28 E0.07545
G1 X103.755 Y54.74 E0.07546
G1 X103.544 Y53.206 E0.07546
G1 X103.278 Y51.681 E0.07545
G1 X102.959 Y50.167 E0.07545
G1 X102.587 Y48.664 E0.07546
G1 X102.163 Y47.175 E0.07546
G1 X101.687 Y45.703 E0.07546
G1 X101.159 Y44.247 E0.07546
G1 X100.58 Y42.812 E0.07545
G1 X99.952 Y41.397 E0.07546
G1 X99.274 Y40.005 E0.07546
G1 X98.547 Y38.639 E0.07546
G1 X97.773 Y37.298 E0.07546
G1 X96.953 Y35.985 E0.07546
G1 X96.086 Y34.702 E0.07545
G1 X95.176 Y33.451 E0.07546
G1 X94.222 Y32.232 E0.07546
G1 X93.225 Y31.047 E0.07546
G1 X92.188 Y29.898 E0.07545
G1 X91.111 Y28.786 E0.07546
G1 X89.996 Y27.713 E0.07545
G1 X88.843 Y26.679 E0.07546
G1 X87.655 Y25.687 E0.07545
G1 X86.433 Y24.737 E0.07546
G1 X85.178 Y23.83 E0.07545
G1 X83.893 Y22.968 E0.07545
G1 X82.577 Y22.152 E0.07546
G1 X81.133 Y21.324 E0.08116
