; generated by SuperSlicer 2.4 on 2024-02-23 at 05:03:21 UTC


;
;

;
;
; TODO: check the size of the extruder and the y-bar clearance. Optimize & test supports.

; external perimeters extrusion width = 0.40mm
; perimeters extrusion width = 0.40mm
; infill extrusion width = 0.40mm
; solid infill extrusion width = 0.40mm
; top infill extrusion width = 0.40mm
; first layer extrusion width = 0.48mm

; object:{"name":"StencilHolder2","id":"StencilHolder2.STL id:0 copy 0","object_center":[60.000000,60.000000,0.000000],"boundingbox_center":[60.000000,60.000000,0.500000],"boundingbox_size":[104.999992,105.000008,1.000000]}
; plater:{"center":[60.000000,60.000000,0.000000],"boundingbox_center":[60.000000,60.000000,0.500000],"boundingbox_size":[104.999992,105.000008,1.000000]}

;TYPE:Custom
; M190 S0
;M109 S0 ; uncomment to remove set&wait temp gcode added automatically after this start gcode
print_start EXTRUDER=245 BED=90 CHAMBER=50

;G92 E0
;G1 E10 F1500 ; prime the nozzle
M107
G21 ; set units to millimeters
G90 ; use absolute coordinates
M83 ; use relative distances for extrusion
SET_PRESSURE_ADVANCE ADVANCE=0.04
;_TOOLCHANGE 0
M104 S245 ; set temperature
M109 S245 ; set temperature and wait for it to be reached
M190 S90 ; set bed temperature and wait for it to be reached
M107
;LAYER_CHANGE
;Z:0.25
;HEIGHT:0.25
;BEFORE_LAYER_CHANGE
;0.25


G1 Z0.25 F18000
;AFTER_LAYER_CHANGE
;0.25
TIMELAPSE_TAKE_FRAME
G92 E0
G1 E-2 F3000
G1 Z0.65 F18000
M204 S1000
G1 X6.005 Y6.005
G1 Z0.25
G1 E2 F1800
;TYPE:Skirt
;WIDTH:0.48
G1 X6.21 Y5.801 E0.0128
G1 X6.601 Y5.523 E0.0213
G1 X7.118 Y5.3 E0.02493
G1 X7.666 Y5.194 E0.02472
G1 X112.382 Y5.198 E4.6404
G1 X112.891 Y5.303 E0.02305
G1 X113.441 Y5.547 E0.02666
G1 X113.791 Y5.802 E0.01919
G1 X114.205 Y6.216 E0.02593
G1 X114.489 Y6.626 E0.02209
G1 X114.691 Y7.089 E0.02241
G1 X114.806 Y7.666 E0.02606
G1 X114.806 Y112.334 E4.63824
G1 X114.691 Y112.911 E0.02606
G1 X114.489 Y113.374 E0.02241
G1 X114.205 Y113.784 E0.02209
G1 X113.79 Y114.199 E0.026
G1 X113.399 Y114.477 E0.0213
G1 X112.882 Y114.7 E0.02493
G1 X112.334 Y114.806 E0.02472
G1 X7.666 Y114.806 E4.63826
G1 X7.089 Y114.691 E0.02606
G1 X6.626 Y114.489 E0.02241
G1 X6.216 Y114.205 E0.02209
G1 X5.801 Y113.79 E0.026
G1 X5.523 Y113.399 E0.0213
G1 X5.3 Y112.882 E0.02493
G1 X5.194 Y112.334 E0.02472
G1 X5.194 Y7.666 E4.63826
G1 X5.309 Y7.089 E0.02606
G1 X5.511 Y6.626 E0.02241
G1 X5.795 Y6.216 E0.02209
G1 X5.963 Y6.048 E0.01054
G1 X6.264 Y6.349 F18000
G1 F1800
G1 X6.499 Y6.115 E0.01468
G1 X6.794 Y5.904 E0.01607
G1 X7.225 Y5.713 E0.0209
G1 X7.687 Y5.62 E0.02087
G1 X112.359 Y5.624 E4.63845
G1 X112.779 Y5.715 E0.01902
G1 X113.245 Y5.926 E0.02269
G1 X113.501 Y6.115 E0.01409
G1 X113.89 Y6.503 E0.02434
G1 X114.125 Y6.849 E0.01853
G1 X114.29 Y7.236 E0.01866
G1 X114.38 Y7.687 E0.02038
G1 X114.38 Y112.313 E4.63638
G1 X114.29 Y112.764 E0.02038
G1 X114.125 Y113.151 E0.01865
G1 X113.89 Y113.497 E0.01853
G1 X113.501 Y113.885 E0.02434
G1 X113.206 Y114.096 E0.01607
G1 X112.775 Y114.287 E0.0209
G1 X112.313 Y114.38 E0.02087
G1 X7.687 Y114.38 E4.63639
G1 X7.236 Y114.29 E0.02038
G1 X6.849 Y114.125 E0.01866
G1 X6.503 Y113.89 E0.01853
G1 X6.115 Y113.501 E0.02434
G1 X5.904 Y113.206 E0.01607
G1 X5.713 Y112.775 E0.0209
G1 X5.62 Y112.313 E0.02087
G1 X5.62 Y7.687 E4.63639
G1 X5.71 Y7.236 E0.02038
G1 X5.875 Y6.849 E0.01865
G1 X6.11 Y6.503 E0.01853
G1 X6.222 Y6.392 E0.007
G1 X6.523 Y6.693 F18000
G1 F1800
G1 X6.788 Y6.428 E0.01659
G1 X6.986 Y6.285 E0.01085
G1 X7.376 Y6.113 E0.01888
G1 X7.708 Y6.046 E0.015
G1 X112.336 Y6.05 E4.63649
G1 X112.626 Y6.114 E0.01315
G1 X113.014 Y6.285 E0.01876
G1 X113.212 Y6.428 E0.01085
G1 X113.573 Y6.79 E0.02266
G1 X113.759 Y7.068 E0.01482
G1 X113.888 Y7.38 E0.01495
G1 X113.954 Y7.708 E0.01482
G1 X113.954 Y112.292 E4.63453
G1 X113.888 Y112.62 E0.01482
G1 X113.759 Y112.932 E0.01495
G1 X113.573 Y113.21 E0.01482
G1 X113.212 Y113.572 E0.02266
G1 X113.014 Y113.715 E0.01085
G1 X112.624 Y113.887 E0.01888
G1 X112.292 Y113.954 E0.015
G1 X7.708 Y113.954 E4.63453
G1 X7.38 Y113.888 E0.01482
G1 X7.068 Y113.759 E0.01495
G1 X6.79 Y113.573 E0.01482
G1 X6.428 Y113.212 E0.02266
G1 X6.285 Y113.014 E0.01085
G1 X6.113 Y112.624 E0.01888
G1 X6.046 Y112.292 E0.015
G1 X6.046 Y7.708 E4.63453
G1 X6.112 Y7.38 E0.01482
G1 X6.241 Y7.068 E0.01495
G1 X6.427 Y6.79 E0.01482
G1 X6.481 Y6.736 E0.00341
G1 X6.783 Y7.037 F18000
G1 F1800
G1 X7.077 Y6.743 E0.01844
G1 X7.214 Y6.646 E0.00743
G1 X7.524 Y6.514 E0.01494
G1 X7.729 Y6.473 E0.00927
G1 X112.313 Y6.477 E4.63452
G1 X112.476 Y6.514 E0.00743
G1 X112.786 Y6.646 E0.01494
G1 X112.923 Y6.743 E0.00743
G1 X113.257 Y7.077 E0.02092
G1 X113.373 Y7.251 E0.00927
G1 X113.486 Y7.524 E0.01309
G1 X113.527 Y7.729 E0.00927
G1 X113.527 Y112.271 E4.63267
G1 X113.486 Y112.476 E0.00927
G1 X113.373 Y112.749 E0.01309
G1 X113.257 Y112.923 E0.00927
G1 X112.923 Y113.257 E0.02092
G1 X112.786 Y113.354 E0.00743
G1 X112.476 Y113.486 E0.01494
G1 X112.271 Y113.527 E0.00927
G1 X7.729 Y113.527 E4.63267
G1 X7.524 Y113.486 E0.00927
G1 X7.251 Y113.373 E0.01309
G1 X7.077 Y113.257 E0.00927
G1 X6.743 Y112.923 E0.02092
G1 X6.646 Y112.786 E0.00743
G1 X6.514 Y112.476 E0.01494
G1 X6.473 Y112.271 E0.00927
G1 X6.473 Y7.729 E4.63267
G1 X6.514 Y7.524 E0.00927
G1 X6.627 Y7.251 E0.01309
G1 X6.741 Y7.08 E0.0091
G1 X7.059 Y7.363 F18000
G1 F1800
G1 X7.363 Y7.059 E0.01906
G1 X7.433 Y7.012 E0.00372
G1 X7.667 Y6.915 E0.01124
G1 X7.75 Y6.899 E0.00372
G1 X112.25 Y6.899 E4.63082
G1 X112.333 Y6.915 E0.00372
G1 X112.567 Y7.012 E0.01124
G1 X112.637 Y7.059 E0.00372
G1 X112.941 Y7.363 E0.01906
G1 X112.988 Y7.433 E0.00372
G1 X113.085 Y7.667 E0.01124
G1 X113.101 Y7.75 E0.00372
G1 X113.101 Y112.25 E4.63082
G1 X113.085 Y112.333 E0.00372
G1 X112.988 Y112.567 E0.01124
G1 X112.941 Y112.637 E0.00372
G1 X112.637 Y112.941 E0.01906
G1 X112.567 Y112.988 E0.00372
G1 X112.333 Y113.085 E0.01124
G1 X112.25 Y113.101 E0.00372
G1 X7.75 Y113.101 E4.63082
G1 X7.667 Y113.085 E0.00372
G1 X7.433 Y112.988 E0.01124
G1 X7.363 Y112.941 E0.00372
G1 X7.059 Y112.637 E0.01906
G1 X7.012 Y112.567 E0.00372
G1 X6.915 Y112.333 E0.01124
G1 X6.899 Y112.25 E0.00372
G1 X6.899 Y7.75 E4.63082
G1 X6.915 Y7.667 E0.00372
G1 X7.012 Y7.433 E0.01124
G1 X7.026 Y7.413 E0.00106
G1 X7.39 Y7.635 F18000
G1 F1800
G1 X7.635 Y7.39 E0.01534
G1 X7.792 Y7.325 E0.00752
G1 X112.208 Y7.325 E4.62709
G1 X112.365 Y7.39 E0.00752
G1 X112.61 Y7.635 E0.01534
G1 X112.675 Y7.792 E0.00752
G1 X112.675 Y112.208 E4.62709
G1 X112.61 Y112.365 E0.00752
G1 X112.365 Y112.61 E0.01534
G1 X112.208 Y112.675 E0.00752
G1 X7.792 Y112.675 E4.62709
G1 X7.635 Y112.61 E0.00752
G1 X7.39 Y112.365 E0.01534
G1 X7.325 Y112.208 E0.00752
G1 X7.325 Y7.792 E4.62709
G1 X7.367 Y7.691 E0.00486
G1 X7.752 Y7.877 F18000
G1 F1800
G1 X7.877 Y7.752 E0.00783
G1 X112.123 Y7.752 E4.61958
G1 X112.248 Y7.877 E0.00783
G1 X112.248 Y112.123 E4.61958
G1 X112.123 Y112.248 E0.00783
G1 X7.877 Y112.248 E4.61958
G1 X7.752 Y112.123 E0.00783
G1 X7.752 Y7.937 E4.61692
; printing object StencilHolder2.STL id:0 copy 0
G1 X8.205 Y8.205 F18000
;TYPE:External perimeter
G1 F1800
G1 X111.795 Y8.205 E5.04953
G1 X111.795 Y111.795 E5.04953
G1 X8.205 Y111.795 E5.04953
G1 X8.205 Y8.265 E5.0466
;WIPE_START
M204 S1500
G1 X8.551 Y8.405 F18000
;WIPE_END
M204 S1000
G1 X8.631 Y8.631
;TYPE:Internal perimeter
G1 F1800
G1 X111.369 Y8.631 E5.00796
G1 X111.369 Y111.369 E5.00796
G1 X8.631 Y111.369 E5.00796
G1 X8.631 Y8.691 E5.00504
G1 X9.058 Y9.058 F18000
G1 F1800
G1 X110.942 Y9.058 E4.9664
G1 X110.942 Y110.942 E4.9664
G1 X9.058 Y110.942 E4.9664
G1 X9.058 Y9.118 E4.96347
G1 X9.484 Y9.484 F18000
G1 F1800
G1 X110.516 Y9.484 E4.92483
G1 X110.516 Y110.516 E4.92483
G1 X9.484 Y110.516 E4.92483
G1 X9.484 Y9.544 E4.92191
G1 E-2 F3000
M204 S1500
G1 Z0.65 F18000
; acceleration to travel
G1 X31.159 Y23.852
; decel to extrusion
M204 S1000
G1 X45.609 Y33.391
; end travel
G1 Z0.25
G1 E2 F1800
;TYPE:External perimeter
G1 X44.501 Y34.016 E0.06199
G1 X43.597 Y34.577 E0.05186
G1 X42.714 Y35.168 E0.0518
G1 X41.853 Y35.791 E0.0518
G1 X41.014 Y36.443 E0.0518
G1 X40.198 Y37.124 E0.0518
G1 X39.407 Y37.834 E0.0518
G1 X38.641 Y38.571 E0.0518
G1 X37.902 Y39.334 E0.0518
G1 X37.19 Y40.123 E0.0518
G1 X36.506 Y40.936 E0.0518
G1 X35.851 Y41.773 E0.0518
G1 X35.226 Y42.632 E0.0518
G1 X34.631 Y43.513 E0.0518
G1 X34.067 Y44.414 E0.0518
G1 X33.536 Y45.335 E0.0518
G1 X33.037 Y46.273 E0.05181
G1 X32.572 Y47.228 E0.0518
G1 X32.14 Y48.2 E0.0518
G1 X31.743 Y49.185 E0.0518
G1 X31.381 Y50.184 E0.0518
G1 X31.054 Y51.195 E0.0518
G1 X30.762 Y52.217 E0.0518
G1 X30.507 Y53.249 E0.0518
G1 X30.288 Y54.289 E0.0518
G1 X30.106 Y55.336 E0.0518
G1 X29.961 Y56.389 E0.0518
G1 X29.852 Y57.446 E0.0518
G1 X29.781 Y58.506 E0.0518
G1 X29.747 Y59.57 E0.05186
G1 X29.761 Y60.841 E0.06199
G1 X29.847 Y61.065 E0.0117
G1 X29.941 Y61.189 E0.00761
G1 X30.524 Y61.863 E0.04343
G1 X31.575 Y63.134 E0.08039
G1 X32.597 Y64.429 E0.0804
G1 X33.59 Y65.745 E0.08039
G1 X34.553 Y67.084 E0.08039
G1 X35.487 Y68.444 E0.0804
G1 X36.39 Y69.824 E0.08039
G1 X37.262 Y71.224 E0.08039
G1 X38.102 Y72.643 E0.08039
G1 X38.911 Y74.08 E0.08039
G1 X39.687 Y75.535 E0.08039
G1 X40.431 Y77.007 E0.0804
G1 X41.142 Y78.495 E0.08039
G1 X41.819 Y79.999 E0.08039
G1 X42.463 Y81.517 E0.08039
G1 X43.073 Y83.049 E0.08034
G1 X43.996 Y85.575 E0.1311
G1 X44.143 Y85.757 E0.01141
G1 X44.277 Y85.851 E0.00796
G1 X45.247 Y86.415 E0.05474
G1 X46.184 Y86.917 E0.0518
G1 X47.138 Y87.386 E0.0518
G1 X48.108 Y87.821 E0.0518
G1 X49.092 Y88.221 E0.0518
G1 X50.09 Y88.587 E0.0518
G1 X51.1 Y88.917 E0.0518
G1 X52.121 Y89.212 E0.0518
G1 X53.152 Y89.471 E0.0518
G1 X54.191 Y89.693 E0.0518
G1 X55.237 Y89.879 E0.0518
G1 X56.29 Y90.027 E0.0518
G1 X57.346 Y90.139 E0.0518
G1 X58.407 Y90.214 E0.0518
G1 X59.469 Y90.251 E0.0518
G1 X60.531 Y90.251 E0.0518
G1 X61.593 Y90.214 E0.0518
G1 X62.654 Y90.139 E0.0518
G1 X63.71 Y90.027 E0.0518
G1 X64.763 Y89.879 E0.0518
G1 X65.809 Y89.693 E0.0518
G1 X66.848 Y89.471 E0.0518
G1 X67.879 Y89.212 E0.0518
G1 X68.9 Y88.917 E0.0518
G1 X69.91 Y88.587 E0.0518
G1 X70.908 Y88.221 E0.0518
G1 X71.892 Y87.821 E0.0518
G1 X72.862 Y87.386 E0.0518
G1 X73.816 Y86.917 E0.0518
G1 X74.753 Y86.415 E0.0518
G1 X75.723 Y85.851 E0.05474
G1 X75.857 Y85.757 E0.00796
G1 X76.004 Y85.575 E0.01141
G1 X76.927 Y83.049 E0.1311
G1 X77.537 Y81.517 E0.08034
G1 X78.181 Y79.999 E0.08039
G1 X78.858 Y78.495 E0.08039
G1 X79.569 Y77.007 E0.0804
G1 X80.313 Y75.535 E0.08039
G1 X81.089 Y74.08 E0.08039
G1 X81.898 Y72.643 E0.08039
G1 X82.738 Y71.224 E0.08039
G1 X83.61 Y69.824 E0.08039
G1 X84.513 Y68.444 E0.08039
G1 X85.447 Y67.084 E0.0804
G1 X86.41 Y65.745 E0.08039
G1 X87.403 Y64.429 E0.08039
G1 X88.424 Y63.135 E0.08034
G1 X90.15 Y61.073 E0.1311
G1 X90.234 Y60.854 E0.01141
G1 X90.249 Y60.691 E0.00796
G1 X90.253 Y59.567 E0.05479
G1 X90.148 Y57.446 E0.10354
G1 X90.039 Y56.389 E0.0518
G1 X89.894 Y55.336 E0.0518
G1 X89.712 Y54.289 E0.0518
G1 X89.493 Y53.249 E0.0518
G1 X89.238 Y52.217 E0.0518
G1 X88.946 Y51.195 E0.0518
G1 X88.619 Y50.184 E0.0518
G1 X88.257 Y49.185 E0.0518
G1 X87.86 Y48.2 E0.0518
G1 X87.428 Y47.228 E0.0518
G1 X86.963 Y46.273 E0.0518
G1 X86.464 Y45.335 E0.0518
G1 X85.933 Y44.414 E0.0518
G1 X85.369 Y43.513 E0.0518
G1 X84.774 Y42.632 E0.0518
G1 X84.149 Y41.773 E0.0518
G1 X83.494 Y40.936 E0.0518
G1 X82.81 Y40.123 E0.0518
G1 X82.098 Y39.334 E0.0518
G1 X81.359 Y38.571 E0.0518
G1 X80.593 Y37.834 E0.0518
G1 X79.802 Y37.124 E0.0518
G1 X78.986 Y36.443 E0.0518
G1 X78.147 Y35.791 E0.0518
G1 X77.286 Y35.168 E0.0518
G1 X76.403 Y34.577 E0.0518
G1 X75.5 Y34.016 E0.0518
G1 X74.526 Y33.458 E0.05474
G1 X74.378 Y33.389 E0.00796
G1 X74.147 Y33.353 E0.01139
G1 X74.015 Y33.375 E0.00652
G1 X71.497 Y33.816 E0.1246
G1 X69.866 Y34.054 E0.08034
G1 X68.229 Y34.256 E0.08039
G1 X66.588 Y34.421 E0.08039
G1 X64.944 Y34.549 E0.08039
G1 X63.297 Y34.641 E0.08039
G1 X61.649 Y34.696 E0.08039
G1 X60 Y34.714 E0.08039
G1 X58.351 Y34.696 E0.08039
G1 X56.703 Y34.641 E0.08039
G1 X55.056 Y34.549 E0.08039
G1 X53.412 Y34.421 E0.08039
G1 X51.771 Y34.256 E0.08039
G1 X50.134 Y34.054 E0.08039
G1 X48.502 Y33.816 E0.08039
G1 X46.876 Y33.542 E0.08039
G1 X46.001 Y33.374 E0.04343
G1 X45.846 Y33.354 E0.0076
G1 X45.668 Y33.382 E0.00877
;WIPE_START
M204 S1500
G1 X45.291 Y33.148 F18000
;WIPE_END
M204 S1000
G1 X45.467 Y32.982
;TYPE:Internal perimeter
G1 F1800
G1 X44.284 Y33.649 E0.06617
G1 X43.366 Y34.218 E0.05267
G1 X42.471 Y34.818 E0.05253
G1 X41.597 Y35.45 E0.05253
G1 X40.746 Y36.111 E0.05253
G1 X39.919 Y36.802 E0.05253
G1 X39.117 Y37.521 E0.05253
G1 X38.34 Y38.269 E0.05253
G1 X37.59 Y39.043 E0.05253
G1 X36.868 Y39.843 E0.05253
G1 X36.175 Y40.667 E0.05253
G1 X35.51 Y41.516 E0.05254
G1 X34.876 Y42.388 E0.05253
G1 X34.273 Y43.281 E0.05253
G1 X33.702 Y44.195 E0.05253
G1 X33.163 Y45.128 E0.05253
G1 X32.657 Y46.08 E0.05254
G1 X32.185 Y47.048 E0.05253
G1 X31.748 Y48.033 E0.05253
G1 X31.345 Y49.033 E0.05253
G1 X30.977 Y50.046 E0.05253
G1 X30.646 Y51.071 E0.05253
G1 X30.35 Y52.108 E0.05253
G1 X30.091 Y53.154 E0.05253
G1 X29.869 Y54.209 E0.05253
G1 X29.685 Y55.27 E0.05253
G1 X29.537 Y56.338 E0.05253
G1 X29.427 Y57.41 E0.05253
G1 X29.355 Y58.485 E0.05253
G1 X29.321 Y59.565 E0.05267
G1 X29.335 Y60.923 E0.06617
G1 X29.471 Y61.275 E0.01843
G1 X29.61 Y61.458 E0.01122
G1 X30.199 Y62.139 E0.04383
G1 X31.243 Y63.402 E0.07993
G1 X32.259 Y64.689 E0.07993
G1 X33.247 Y65.998 E0.07993
G1 X34.205 Y67.329 E0.07993
G1 X35.133 Y68.681 E0.07993
G1 X36.03 Y70.053 E0.07993
G1 X36.897 Y71.445 E0.07992
G1 X37.733 Y72.856 E0.07993
G1 X38.537 Y74.285 E0.07993
G1 X39.309 Y75.732 E0.07993
G1 X40.048 Y77.195 E0.07993
G1 X40.755 Y78.675 E0.07993
G1 X41.429 Y80.17 E0.07993
G1 X42.069 Y81.679 E0.07993
G1 X42.674 Y83.201 E0.07982
G1 X43.62 Y85.788 E0.13427
G1 X43.849 Y86.071 E0.01778
G1 X44.047 Y86.21 E0.01176
G1 X45.039 Y86.788 E0.05599
G1 X45.989 Y87.297 E0.05253
G1 X46.957 Y87.772 E0.05253
G1 X47.94 Y88.213 E0.05253
G1 X48.938 Y88.619 E0.05253
G1 X49.95 Y88.99 E0.05253
G1 X50.975 Y89.325 E0.05253
G1 X52.01 Y89.624 E0.05253
G1 X53.055 Y89.886 E0.05253
G1 X54.109 Y90.111 E0.05253
G1 X55.17 Y90.3 E0.05253
G1 X56.237 Y90.451 E0.05253
G1 X57.309 Y90.564 E0.05253
G1 X58.384 Y90.64 E0.05253
G1 X59.461 Y90.677 E0.05253
G1 X60.539 Y90.677 E0.05253
G1 X61.616 Y90.64 E0.05253
G1 X62.691 Y90.564 E0.05253
G1 X63.763 Y90.451 E0.05253
G1 X64.83 Y90.3 E0.05253
G1 X65.891 Y90.111 E0.05253
G1 X66.945 Y89.886 E0.05253
G1 X67.99 Y89.624 E0.05253
G1 X69.025 Y89.325 E0.05253
G1 X70.05 Y88.99 E0.05253
G1 X71.062 Y88.619 E0.05253
G1 X72.06 Y88.213 E0.05253
G1 X73.043 Y87.772 E0.05253
G1 X74.011 Y87.297 E0.05253
G1 X74.961 Y86.788 E0.05253
G1 X75.953 Y86.21 E0.05599
G1 X76.151 Y86.071 E0.01176
G1 X76.38 Y85.788 E0.01778
G1 X77.326 Y83.201 E0.13426
G1 X77.931 Y81.679 E0.07982
G1 X78.571 Y80.17 E0.07993
G1 X79.245 Y78.675 E0.07993
G1 X79.952 Y77.195 E0.07993
G1 X80.691 Y75.732 E0.07992
G1 X81.463 Y74.285 E0.07993
G1 X82.267 Y72.856 E0.07993
G1 X83.103 Y71.445 E0.07993
G1 X83.97 Y70.053 E0.07992
G1 X84.867 Y68.681 E0.07993
G1 X85.795 Y67.329 E0.07993
G1 X86.753 Y65.998 E0.07993
G1 X87.741 Y64.689 E0.07993
G1 X88.755 Y63.404 E0.07981
G1 X90.523 Y61.292 E0.13427
G1 X90.654 Y60.951 E0.01778
G1 X90.675 Y60.711 E0.01176
G1 X90.679 Y59.558 E0.05623
G1 X90.573 Y57.414 E0.10463
G1 X90.463 Y56.338 E0.05272
G1 X90.315 Y55.27 E0.05253
G1 X90.131 Y54.209 E0.05253
G1 X89.909 Y53.154 E0.05253
G1 X89.65 Y52.108 E0.05253
G1 X89.354 Y51.071 E0.05254
G1 X89.023 Y50.046 E0.05253
G1 X88.655 Y49.033 E0.05253
G1 X88.252 Y48.033 E0.05253
G1 X87.815 Y47.048 E0.05253
G1 X87.343 Y46.08 E0.05253
G1 X86.837 Y45.128 E0.05253
G1 X86.298 Y44.195 E0.05253
G1 X85.727 Y43.281 E0.05253
G1 X85.124 Y42.388 E0.05253
G1 X84.49 Y41.516 E0.05253
G1 X83.825 Y40.668 E0.05253
G1 X83.132 Y39.843 E0.05253
G1 X82.41 Y39.043 E0.05253
G1 X81.66 Y38.269 E0.05253
G1 X80.883 Y37.521 E0.05253
G1 X80.081 Y36.802 E0.05253
G1 X79.254 Y36.111 E0.05253
G1 X78.403 Y35.45 E0.05253
G1 X77.529 Y34.818 E0.05253
G1 X76.634 Y34.218 E0.05253
G1 X75.719 Y33.65 E0.05253
G1 X74.722 Y33.079 E0.05599
G1 X74.503 Y32.977 E0.01176
G1 X74.144 Y32.921 E0.01773
G1 X73.942 Y32.955 E0.00998
G1 X71.43 Y33.395 E0.12434
G1 X69.809 Y33.631 E0.07981
