; generated by SuperSlicer 2.4 on 2024-02-25 at 04:49:33 UTC


;
;

;
;
; TODO: check the size of the extruder and the y-bar clearance. Optimize & test supports.

; external perimeters extrusion width = 0.40mm
; perimeters extrusion width = 0.40mm
; infill extrusion width = 0.40mm
; solid infill extrusion width = 0.40mm
; top infill extrusion width = 0.40mm
; first layer extrusion width = 0.48mm

; external perimeters extrusion width = 0.40mm
; perimeters extrusion width = 0.40mm
; infill extrusion width = 0.40mm
; solid infill extrusion width = 0.40mm
; top infill extrusion width = 0.40mm
; first layer extrusion width = 0.48mm

; external perimeters extrusion width = 0.40mm
; perimeters extrusion width = 0.40mm
; infill extrusion width = 0.40mm
; solid infill extrusion width = 0.40mm
; top infill extrusion width = 0.40mm
; first layer extrusion width = 0.48mm

; object:{"name":"planet_gear_bearing","id":"planet_gear_bearing.STL id:0 copy 0","object_center":[46.211214,75.921919,0.000000],"boundingbox_center":[46.211214,75.921919,3.000000],"boundingbox_size":[25.843838,25.843838,6.000000]}
; object:{"name":"planet_gear_bearing","id":"planet_gear_bearing.STL id:1 copy 0","object_center":[46.211214,44.078081,0.000000],"boundingbox_center":[46.211214,44.078081,3.000000],"boundingbox_size":[25.843838,25.843838,6.000000]}
; object:{"name":"planet_gear_bearing","id":"planet_gear_bearing.STL id:2 copy 0","object_center":[73.788787,60.000000,0.000000],"boundingbox_center":[73.788787,60.000000,3.000000],"boundingbox_size":[25.843838,25.843838,6.000000]}
; plater:{"center":[60.000000,60.000000,0.000000],"boundingbox_center":[60.000000,60.000000,3.000000],"boundingbox_size":[53.421411,57.687676,6.000000]}

;TYPE:Custom
; M190 S0
;M109 S0 ; uncomment to remove set&wait temp gcode added automatically after this start gcode
print_start EXTRUDER=260 BED=50 CHAMBER=50

;G92 E0
;G1 E10 F1500 ; prime the nozzle
M107
G21 ; set units to millimeters
G90 ; use absolute coordinates
M83 ; use relative distances for extrusion
SET_PRESSURE_ADVANCE ADVANCE=0.04
;_TOOLCHANGE 0
M104 S260 ; set temperature
M109 S260 ; set temperature and wait for it to be reached
M190 S50 ; set bed temperature and wait for it to be reached
M107
;LAYER_CHANGE
;Z:0.25
;HEIGHT:0.25
;BEFORE_LAYER_CHANGE
;0.25


G1 Z0.25 F18000
;AFTER_LAYER_CHANGE
;0.25
TIMELAPSE_TAKE_FRAME
G92 E0
G1 E-2 F3000
G1 Z0.65 F18000
M204 S1000
G1 X37.15 Y63.247
G1 Z0.25
G1 E2 F1800
;TYPE:Skirt
;WIDTH:0.48
G1 X37.939 Y62.927 E0.03774
G1 X38.675 Y62.852 E0.03276
G1 X39.021 Y62.339 E0.02742
G1 X39.616 Y61.826 E0.03484
G1 X40.672 Y61.353 E0.05127
G1 X41.499 Y61.226 E0.03706
G1 X42.305 Y61.344 E0.03609
G1 X42.772 Y60.948 E0.02718
G1 X43.339 Y60.649 E0.0284
G1 X43.578 Y60.576 E0.01107
G1 X44.668 Y60.421 E0.04878
G1 X45.028 Y60.427 E0.01597
G1 X45.586 Y60.544 E0.02527
G1 X46.143 Y60.788 E0.02693
G1 X46.218 Y60.839 E0.00402
G1 X46.841 Y60.544 E0.03055
G1 X47.17 Y60.46 E0.01504
G1 X47.789 Y60.417 E0.02749
G1 X48.702 Y60.537 E0.04078
G1 X49.331 Y60.759 E0.02956
G1 X49.652 Y60.955 E0.01666
G1 X50.112 Y61.354 E0.02701
G1 X50.71 Y61.235 E0.02701
G1 X51.342 Y61.258 E0.02802
G1 X51.665 Y61.331 E0.01467
G1 X52.71 Y61.768 E0.0502
G1 X52.977 Y61.944 E0.01418
G1 X53.371 Y62.305 E0.0237
G1 X53.754 Y62.858 E0.02977
G1 X54.464 Y62.922 E0.03161
G1 X55.26 Y63.239 E0.03798
G1 X56.219 Y64.001 E0.05427
G1 X56.656 Y64.631 E0.03397
G1 X56.864 Y65.171 E0.02565
G1 X56.88 Y65.25 E0.00358
G1 X57.543 Y65.498 E0.03136
G1 X58.218 Y65.996 E0.03716
G1 X58.886 Y66.861 E0.04845
G1 X59.207 Y67.65 E0.03774
G1 X59.281 Y68.386 E0.03276
G1 X59.777 Y68.718 E0.02648
G1 X60.208 Y69.181 E0.02802
G1 X60.385 Y69.461 E0.01467
G1 X60.815 Y70.509 E0.0502
G1 X60.879 Y70.822 E0.01418
G1 X60.903 Y71.357 E0.0237
G1 X60.782 Y72.018 E0.02977
G1 X61.24 Y72.565 E0.03161
G1 X61.577 Y73.353 E0.03799
G1 X61.717 Y74.579 E0.05471
G1 X61.569 Y75.357 E0.03508
G1 X61.298 Y75.913 E0.02741
G1 X61.594 Y76.564 E0.03168
G1 X61.72 Y77.393 E0.03716
G1 X61.581 Y78.477 E0.04845
G1 X61.249 Y79.262 E0.03774
G1 X60.785 Y79.831 E0.03254
G1 X60.814 Y79.918 E0.00406
G1 X60.901 Y80.458 E0.02425
G1 X60.874 Y81.06 E0.02667
G1 X60.802 Y81.376 E0.01437
G1 X60.365 Y82.421 E0.05019
G1 X60.189 Y82.687 E0.01416
G1 X59.831 Y83.08 E0.02355
G1 X59.281 Y83.467 E0.02981
G1 X59.205 Y84.199 E0.03262
G1 X58.848 Y85.047 E0.04077
G1 X58.063 Y85.994 E0.05452
G1 X57.522 Y86.357 E0.02883
G1 X56.882 Y86.593 E0.03023
G1 X56.635 Y87.253 E0.03126
G1 X56.137 Y87.928 E0.03716
G1 X55.272 Y88.597 E0.04845
G1 X54.483 Y88.917 E0.03774
G1 X53.747 Y88.991 E0.03276
G1 X53.415 Y89.488 E0.02648
G1 X52.952 Y89.919 E0.02802
G1 X52.672 Y90.095 E0.01467
G1 X51.624 Y90.525 E0.0502
G1 X51.311 Y90.59 E0.01418
G1 X50.776 Y90.613 E0.0237
G1 X50.116 Y90.493 E0.02977
G1 X49.568 Y90.95 E0.03161
G1 X48.78 Y91.288 E0.03799
G1 X47.554 Y91.427 E0.05471
G1 X46.776 Y91.28 E0.03508
G1 X46.22 Y91.009 E0.02741
G1 X45.569 Y91.305 E0.03168
G1 X44.74 Y91.431 E0.03716
G1 X43.656 Y91.291 E0.04845
G1 X42.871 Y90.96 E0.03774
G1 X42.302 Y90.496 E0.03254
G1 X42.215 Y90.525 E0.00406
G1 X41.675 Y90.611 E0.02425
G1 X41.074 Y90.585 E0.02667
G1 X40.758 Y90.512 E0.01437
G1 X39.713 Y90.076 E0.05019
G1 X39.446 Y89.9 E0.01417
G1 X39.053 Y89.541 E0.02355
G1 X38.662 Y88.985 E0.03014
G1 X37.958 Y88.922 E0.03129
G1 X37.163 Y88.604 E0.03798
G1 X36.203 Y87.843 E0.05427
G1 X35.766 Y87.213 E0.03397
G1 X35.559 Y86.673 E0.02565
G1 X35.543 Y86.594 E0.00358
G1 X34.88 Y86.346 E0.03136
G1 X34.205 Y85.848 E0.03716
G1 X33.536 Y84.983 E0.04845
G1 X33.216 Y84.194 E0.03774
G1 X33.142 Y83.463 E0.03255
G1 X33.06 Y83.422 E0.00406
G1 X32.616 Y83.101 E0.02425
G1 X32.21 Y82.657 E0.02667
G1 X32.038 Y82.383 E0.01437
G1 X31.608 Y81.335 E0.05019
G1 X31.543 Y81.022 E0.01416
G1 X31.52 Y80.491 E0.02355
G1 X31.636 Y79.821 E0.03014
G1 X31.183 Y79.279 E0.03129
G1 X30.845 Y78.491 E0.03798
G1 X30.705 Y77.275 E0.05427
G1 X30.841 Y76.52 E0.03397
G1 X31.077 Y75.992 E0.02565
G1 X31.121 Y75.924 E0.00358
G1 X30.828 Y75.28 E0.03136
G1 X30.702 Y74.451 E0.03716
G1 X30.842 Y73.366 E0.04845
G1 X31.173 Y72.582 E0.03774
G1 X31.637 Y72.013 E0.03254
G1 X31.609 Y71.926 E0.00406
G1 X31.522 Y71.385 E0.02425
G1 X31.548 Y70.784 E0.02667
G1 X31.621 Y70.468 E0.01437
G1 X32.058 Y69.423 E0.05019
G1 X32.233 Y69.156 E0.01417
G1 X32.592 Y68.764 E0.02355
G1 X33.148 Y68.372 E0.03014
G1 X33.211 Y67.669 E0.03129
G1 X33.529 Y66.873 E0.03798
G1 X34.29 Y65.914 E0.05427
G1 X34.92 Y65.477 E0.03397
G1 X35.46 Y65.269 E0.02565
G1 X35.539 Y65.253 E0.00358
G1 X35.788 Y64.59 E0.03136
G1 X36.285 Y63.915 E0.03716
G1 X37.103 Y63.284 E0.0458
G1 X37.338 Y63.631 F18000
G1 F1800
G1 X38.071 Y63.333 E0.03504
G1 X38.651 Y63.279 E0.02579
G1 X38.931 Y63.312 E0.0125
G1 X38.997 Y63.139 E0.00826
G1 X39.322 Y62.643 E0.02626
G1 X39.87 Y62.17 E0.0321
G1 X40.817 Y61.755 E0.04577
G1 X41.528 Y61.653 E0.03187
G1 X42.181 Y61.753 E0.02926
G1 X42.444 Y61.864 E0.01265
G1 X42.604 Y61.649 E0.01189
G1 X42.994 Y61.313 E0.02281
G1 X43.487 Y61.05 E0.02476
G1 X43.656 Y60.996 E0.00786
G1 X44.712 Y60.845 E0.04727
G1 X44.961 Y60.848 E0.01103
G1 X45.476 Y60.957 E0.02334
G1 X45.945 Y61.167 E0.02278
G1 X46.203 Y61.367 E0.01447
G1 X46.339 Y61.254 E0.00781
G1 X46.97 Y60.95 E0.03105
G1 X47.222 Y60.883 E0.01155
G1 X47.755 Y60.843 E0.0237
G1 X48.623 Y60.957 E0.03879
G1 X49.166 Y61.152 E0.02555
G1 X49.385 Y61.288 E0.01144
G1 X49.884 Y61.721 E0.02927
G1 X49.982 Y61.859 E0.00749
G1 X50.147 Y61.782 E0.00807
G1 X50.722 Y61.662 E0.02603
G1 X51.271 Y61.679 E0.02433
G1 X51.518 Y61.732 E0.01121
G1 X52.527 Y62.154 E0.04843
G1 X52.701 Y62.27 E0.00929
G1 X53.065 Y62.603 E0.02187
G1 X53.416 Y63.12 E0.02768
G1 X53.491 Y63.313 E0.00916
G1 X53.697 Y63.281 E0.00921
G1 X54.339 Y63.33 E0.02856
G1 X55.022 Y63.595 E0.03244
G1 X55.889 Y64.272 E0.04876
G1 X56.268 Y64.808 E0.02908
G1 X56.456 Y65.3 E0.02333
G1 X56.498 Y65.633 E0.01488
G1 X56.753 Y65.658 E0.01135
G1 X57.317 Y65.861 E0.02657
G1 X57.901 Y66.282 E0.03188
G1 X58.502 Y67.049 E0.04319
G1 X58.8 Y67.782 E0.03504
G1 X58.855 Y68.361 E0.02579
G1 X58.821 Y68.641 E0.0125
G1 X58.995 Y68.708 E0.00825
G1 X59.484 Y69.028 E0.02593
G1 X59.86 Y69.428 E0.02433
G1 X59.998 Y69.641 E0.01121
G1 X60.412 Y70.652 E0.04843
G1 X60.454 Y70.858 E0.00929
G1 X60.475 Y71.351 E0.02187
G1 X60.358 Y71.964 E0.02768
G1 X60.275 Y72.153 E0.00916
G1 X60.443 Y72.277 E0.00924
G1 X60.862 Y72.766 E0.02854
G1 X61.158 Y73.435 E0.03244
G1 X61.292 Y74.532 E0.04897
G1 X61.156 Y75.249 E0.03229
G1 X60.888 Y75.78 E0.02636
G1 X60.765 Y75.926 E0.00846
G1 X60.924 Y76.118 E0.01104
G1 X61.178 Y76.661 E0.02657
G1 X61.293 Y77.372 E0.03188
G1 X61.176 Y78.339 E0.04319
G1 X60.869 Y79.068 E0.03504
G1 X60.498 Y79.516 E0.02579
G1 X60.273 Y79.692 E0.01264
G1 X60.397 Y80.008 E0.01505
G1 X60.476 Y80.504 E0.02227
G1 X60.454 Y80.986 E0.02138
G1 X60.401 Y81.229 E0.01101
G1 X59.979 Y82.237 E0.04843
G1 X59.863 Y82.412 E0.00929
G1 X59.532 Y82.774 E0.02176
G1 X59.05 Y83.108 E0.026
G1 X58.82 Y83.195 E0.01089
G1 X58.855 Y83.488 E0.01311
G1 X58.799 Y84.067 E0.02574
G1 X58.497 Y84.802 E0.03522
G1 X57.799 Y85.658 E0.04895
G1 X57.307 Y85.988 E0.02626
G1 X56.753 Y86.186 E0.02609
G1 X56.5 Y86.211 E0.01124
G1 X56.475 Y86.464 E0.01128
G1 X56.272 Y87.028 E0.02657
G1 X55.851 Y87.611 E0.03188
G1 X55.084 Y88.213 E0.04319
G1 X54.351 Y88.511 E0.03504
G1 X53.772 Y88.565 E0.02579
G1 X53.492 Y88.531 E0.0125
G1 X53.425 Y88.705 E0.00825
G1 X53.105 Y89.195 E0.02593
G1 X52.705 Y89.571 E0.02433
G1 X52.492 Y89.708 E0.01121
G1 X51.481 Y90.123 E0.04843
G1 X51.276 Y90.164 E0.00929
G1 X50.783 Y90.186 E0.02187
G1 X50.169 Y90.069 E0.02768
G1 X49.98 Y89.986 E0.00916
G1 X49.856 Y90.154 E0.00924
G1 X49.367 Y90.573 E0.02854
G1 X48.698 Y90.869 E0.03244
G1 X47.601 Y91.002 E0.04897
G1 X46.885 Y90.867 E0.03229
G1 X46.354 Y90.599 E0.02636
G1 X46.207 Y90.476 E0.00846
G1 X46.015 Y90.634 E0.01104
G1 X45.472 Y90.889 E0.02657
G1 X44.762 Y91.004 E0.03188
G1 X43.794 Y90.887 E0.04319
G1 X43.066 Y90.579 E0.03504
G1 X42.617 Y90.208 E0.02579
G1 X42.441 Y89.984 E0.01264
G1 X42.125 Y90.107 E0.01505
G1 X41.629 Y90.187 E0.02227
G1 X41.147 Y90.164 E0.02138
G1 X40.904 Y90.112 E0.01101
G1 X39.896 Y89.69 E0.04843
G1 X39.721 Y89.574 E0.00929
G1 X39.359 Y89.243 E0.02176
G1 X39.025 Y88.761 E0.02599
G1 X38.938 Y88.53 E0.01092
G1 X38.726 Y88.562 E0.00953
G1 X38.083 Y88.513 E0.02856
G1 X37.4 Y88.249 E0.03244
G1 X36.533 Y87.572 E0.04876
G1 X36.155 Y87.036 E0.02908
G1 X35.966 Y86.544 E0.02334
G1 X35.924 Y86.211 E0.01488
G1 X35.669 Y86.186 E0.01135
G1 X35.105 Y85.982 E0.02657
G1 X34.522 Y85.561 E0.03188
G1 X33.92 Y84.795 E0.04319
G1 X33.623 Y84.062 E0.03504
G1 X33.568 Y83.483 E0.02579
G1 X33.602 Y83.199 E0.01264
G1 X33.291 Y83.063 E0.01505
G1 X32.884 Y82.769 E0.02227
G1 X32.559 Y82.412 E0.02138
G1 X32.425 Y82.203 E0.01101
G1 X32.01 Y81.192 E0.04843
G1 X31.969 Y80.986 E0.00929
G1 X31.947 Y80.496 E0.02176
G1 X32.051 Y79.919 E0.02599
G1 X32.153 Y79.694 E0.01092
G1 X31.98 Y79.567 E0.00953
G1 X31.56 Y79.078 E0.02856
G1 X31.264 Y78.408 E0.03244
G1 X31.13 Y77.316 E0.04876
G1 X31.242 Y76.67 E0.02908
G1 X31.456 Y76.188 E0.02333
G1 X31.662 Y75.923 E0.01488
G1 X31.499 Y75.725 E0.01135
G1 X31.244 Y75.183 E0.02657
G1 X31.129 Y74.472 E0.03188
G1 X31.246 Y73.505 E0.04319
G1 X31.554 Y72.776 E0.03504
G1 X31.925 Y72.328 E0.02579
G1 X32.149 Y72.152 E0.01264
G1 X32.026 Y71.836 E0.01505
G1 X31.946 Y71.339 E0.02227
G1 X31.969 Y70.858 E0.02138
G1 X32.022 Y70.615 E0.01101
G1 X32.443 Y69.607 E0.04843
G1 X32.559 Y69.432 E0.00929
G1 X32.89 Y69.07 E0.02176
G1 X33.372 Y68.736 E0.02599
G1 X33.603 Y68.649 E0.01092
G1 X33.571 Y68.436 E0.00953
G1 X33.62 Y67.794 E0.02856
G1 X33.884 Y67.111 E0.03244
G1 X34.562 Y66.244 E0.04876
G1 X35.097 Y65.865 E0.02908
G1 X35.589 Y65.677 E0.02334
G1 X35.922 Y65.635 E0.01488
G1 X35.947 Y65.38 E0.01135
G1 X36.151 Y64.816 E0.02657
G1 X36.572 Y64.232 E0.03188
G1 X37.291 Y63.668 E0.04053
G1 X37.554 Y64.003 F18000
G1 F1800
G1 X37.577 Y63.985 E0.00128
G1 X38.198 Y63.742 E0.02954
G1 X38.661 Y63.705 E0.02059
G1 X39.068 Y63.762 E0.0182
G1 X39.22 Y63.824 E0.00729
G1 X39.232 Y63.748 E0.00343
G1 X39.369 Y63.35 E0.01865
G1 X39.662 Y62.902 E0.0237
G1 X40.121 Y62.516 E0.02658
G1 X40.959 Y62.158 E0.04039
G1 X41.495 Y62.079 E0.02404
G1 X42.087 Y62.17 E0.02653
G1 X42.531 Y62.373 E0.02164
G1 X42.593 Y62.417 E0.00335
G1 X42.624 Y62.348 E0.00335
G1 X42.902 Y61.955 E0.02135
G1 X43.253 Y61.652 E0.02056
G1 X43.667 Y61.436 E0.02067
G1 X43.733 Y61.416 E0.00307
G1 X44.757 Y61.269 E0.04581
G1 X44.897 Y61.27 E0.00624
G1 X45.324 Y61.355 E0.01926
G1 X45.746 Y61.545 E0.02049
G1 X46.161 Y61.882 E0.02371
G1 X46.211 Y61.941 E0.00345
G1 X46.554 Y61.624 E0.0207
G1 X47.104 Y61.356 E0.02714
G1 X47.279 Y61.306 E0.00802
G1 X47.723 Y61.269 E0.01975
G1 X48.544 Y61.377 E0.03671
G1 X48.997 Y61.545 E0.02141
G1 X49.119 Y61.621 E0.00636
G1 X49.581 Y62.022 E0.02714
G1 X49.829 Y62.417 E0.02067
G1 X50.263 Y62.194 E0.0216
G1 X50.783 Y62.085 E0.02358
G1 X51.235 Y62.104 E0.02003
G1 X51.373 Y62.134 E0.00626
G1 X52.311 Y62.522 E0.04499
G1 X52.43 Y62.599 E0.00626
G1 X52.727 Y62.864 E0.01767
G1 X53.048 Y63.337 E0.02529
G1 X53.189 Y63.739 E0.01891
G1 X53.202 Y63.814 E0.00335
G1 X53.273 Y63.787 E0.00335
G1 X53.692 Y63.709 E0.01891
G1 X54.276 Y63.753 E0.02593
G1 X54.786 Y63.951 E0.02428
G1 X55.562 Y64.547 E0.04333
G1 X55.88 Y64.987 E0.02405
G1 X56.048 Y65.426 E0.02086
G1 X56.104 Y65.958 E0.02371
G1 X56.097 Y66.035 E0.00338
G1 X56.637 Y66.069 E0.02396
G1 X57.145 Y66.252 E0.02392
G1 X57.584 Y66.569 E0.024
G1 X58.148 Y67.288 E0.04048
G1 X58.391 Y67.908 E0.02954
G1 X58.428 Y68.371 E0.02059
G1 X58.371 Y68.778 E0.0182
G1 X58.309 Y68.93 E0.00729
G1 X58.385 Y68.943 E0.00343
G1 X58.783 Y69.079 E0.01865
G1 X59.228 Y69.371 E0.02358
G1 X59.534 Y69.704 E0.02003
G1 X59.611 Y69.822 E0.00626
G1 X60 Y70.76 E0.04499
G1 X60.029 Y70.898 E0.00626
G1 X60.052 Y71.296 E0.01767
G1 X59.945 Y71.857 E0.02529
G1 X59.76 Y72.242 E0.01891
G1 X59.716 Y72.304 E0.00337
G1 X59.788 Y72.337 E0.00353
G1 X60.137 Y72.576 E0.01876
G1 X60.518 Y73.02 E0.02591
G1 X60.739 Y73.521 E0.02428
G1 X60.866 Y74.49 E0.04333
G1 X60.761 Y75.084 E0.02672
G1 X60.52 Y75.562 E0.0237
G1 X60.194 Y75.921 E0.02154
G1 X60.55 Y76.327 E0.02393
G1 X60.78 Y76.816 E0.02392
G1 X60.866 Y77.35 E0.024
G1 X60.757 Y78.257 E0.04048
G1 X60.49 Y78.868 E0.02954
G1 X60.189 Y79.221 E0.02059
G1 X59.861 Y79.469 E0.0182
G1 X59.699 Y79.536 E0.00776
G1 X59.805 Y79.673 E0.00767
G1 X59.979 Y80.1 E0.02044
G1 X60.052 Y80.549 E0.02016
G1 X60.029 Y80.946 E0.0176
G1 X60 Y81.084 E0.00626
G1 X59.611 Y82.022 E0.04499
G1 X59.534 Y82.14 E0.00626
G1 X59.268 Y82.438 E0.01769
G1 X58.832 Y82.741 E0.02354
G1 X58.31 Y82.916 E0.02439
G1 X58.371 Y83.066 E0.00718
G1 X58.428 Y83.472 E0.0182
G1 X58.378 Y83.994 E0.02324
G1 X58.146 Y84.559 E0.02704
G1 X57.532 Y85.324 E0.04348
G1 X57.137 Y85.596 E0.02123
G1 X56.637 Y85.775 E0.02354
G1 X56.099 Y85.809 E0.02391
G1 X56.064 Y86.348 E0.02391
G1 X55.881 Y86.855 E0.02392
G1 X55.564 Y87.295 E0.024
G1 X54.845 Y87.858 E0.04048
G1 X54.225 Y88.102 E0.02954
G1 X53.762 Y88.138 E0.02059
G1 X53.355 Y88.082 E0.0182
G1 X53.203 Y88.02 E0.00729
G1 X53.19 Y88.096 E0.00343
G1 X53.054 Y88.494 E0.01865
G1 X52.762 Y88.939 E0.02358
G1 X52.43 Y89.245 E0.02003
G1 X52.311 Y89.322 E0.00626
G1 X51.373 Y89.71 E0.04499
G1 X51.235 Y89.74 E0.00626
G1 X50.837 Y89.762 E0.01767
G1 X50.276 Y89.655 E0.02529
G1 X49.891 Y89.471 E0.01891
G1 X49.829 Y89.426 E0.00337
G1 X49.797 Y89.499 E0.00353
G1 X49.557 Y89.848 E0.01876
G1 X49.113 Y90.229 E0.02591
G1 X48.612 Y90.45 E0.02428
G1 X47.643 Y90.577 E0.04333
G1 X47.049 Y90.472 E0.02672
G1 X46.571 Y90.231 E0.0237
G1 X46.212 Y89.904 E0.02154
G1 X45.806 Y90.261 E0.02393
G1 X45.318 Y90.49 E0.02392
G1 X44.783 Y90.577 E0.024
G1 X43.876 Y90.467 E0.04048
G1 X43.265 Y90.201 E0.02954
G1 X42.912 Y89.899 E0.02059
G1 X42.664 Y89.572 E0.0182
G1 X42.597 Y89.41 E0.00776
G1 X42.46 Y89.516 E0.00767
G1 X42.033 Y89.69 E0.02044
G1 X41.584 Y89.762 E0.02016
G1 X41.187 Y89.74 E0.0176
G1 X41.049 Y89.71 E0.00626
G1 X40.111 Y89.322 E0.04499
G1 X39.993 Y89.245 E0.00626
G1 X39.695 Y88.979 E0.01769
G1 X39.392 Y88.542 E0.02354
G1 X39.22 Y88.031 E0.02394
G1 X39.15 Y88.056 E0.0033
