; generated by SuperSlicer 2.4 on 2024-03-18 at 19:20:11 UTC


;
;

;
;
; TODO: check the size of the extruder and the y-bar clearance. Optimize & test supports.

; external perimeters extrusion width = 0.40mm
; perimeters extrusion width = 0.40mm
; infill extrusion width = 0.40mm
; solid infill extrusion width = 0.40mm
; top infill extrusion width = 0.40mm
; first layer extrusion width = 0.56mm

; object:{"name":"StencilHolder2","id":"StencilHolder2.STL id:0 copy 0","object_center":[60.000000,60.000000,0.000000],"boundingbox_center":[60.000000,60.000000,0.500000],"boundingbox_size":[115.849411,104.952805,1.000000]}
; plater:{"center":[60.000000,60.000000,0.000000],"boundingbox_center":[60.000000,60.000000,0.500000],"boundingbox_size":[115.849411,104.952805,1.000000]}

;TYPE:Custom
; M190 S0
;M109 S0 ; uncomment to remove set&wait temp gcode added automatically after this start gcode
print_start EXTRUDER=245 BED=90 CHAMBER=50

;G92 E0
;G1 E10 F1500 ; prime the nozzle
M107
G21 ; set units to millimeters
G90 ; use absolute coordinates
M83 ; use relative distances for extrusion
SET_PRESSURE_ADVANCE ADVANCE=0.04
;_TOOLCHANGE 0
M104 S245 ; set temperature
M109 S245 ; set temperature and wait for it to be reached
M190 S90 ; set bed temperature and wait for it to be reached
M107
;LAYER_CHANGE
;Z:0.25
;HEIGHT:0.25
;BEFORE_LAYER_CHANGE
;0.25


G1 Z0.25 F18000
;AFTER_LAYER_CHANGE
;0.25
TIMELAPSE_TAKE_FRAME
G92 E0
G1 E-2 F3000
G1 Z0.65 F18000
; printing object StencilHolder2.STL id:0 copy 0
M204 S1000
G1 X45.283 Y32.48
G1 Z0.25
G1 E2 F1800
;TYPE:Internal perimeter
;WIDTH:0.56
G1 X44.015 Y33.195 E0.08427
G1 X43.08 Y33.775 E0.06373
G1 X42.169 Y34.386 E0.06346
G1 X41.281 Y35.028 E0.06346
G1 X40.415 Y35.701 E0.06346
G1 X39.574 Y36.403 E0.06347
G1 X38.758 Y37.135 E0.06346
G1 X37.968 Y37.895 E0.06346
G1 X37.205 Y38.683 E0.06346
G1 X36.471 Y39.496 E0.06346
G1 X35.765 Y40.335 E0.06346
G1 X35.09 Y41.199 E0.06347
G1 X34.445 Y42.085 E0.06346
G1 X33.831 Y42.994 E0.06346
G1 X33.25 Y43.923 E0.06346
G1 X32.702 Y44.872 E0.06346
G1 X32.188 Y45.84 E0.06346
G1 X31.708 Y46.826 E0.06346
G1 X31.262 Y47.828 E0.06346
G1 X30.853 Y48.844 E0.06346
G1 X30.479 Y49.875 E0.06346
G1 X30.141 Y50.918 E0.06346
G1 X29.841 Y51.972 E0.06346
G1 X29.578 Y53.036 E0.06346
G1 X29.352 Y54.109 E0.06346
G1 X29.164 Y55.189 E0.06346
G1 X29.014 Y56.275 E0.06346
G1 X28.902 Y57.365 E0.06346
G1 X28.829 Y58.459 E0.06346
G1 X28.794 Y59.559 E0.06373
G1 X28.808 Y61.015 E0.08427
G1 X29.008 Y61.535 E0.03226
G1 X29.205 Y61.795 E0.01886
G1 X29.796 Y62.479 E0.05234
G1 X30.833 Y63.734 E0.09425
G1 X31.842 Y65.011 E0.09424
G1 X32.822 Y66.311 E0.09424
G1 X33.773 Y67.632 E0.09425
G1 X34.695 Y68.975 E0.09425
G1 X35.586 Y70.337 E0.09425
G1 X36.447 Y71.719 E0.09425
G1 X37.276 Y73.12 E0.09425
G1 X38.075 Y74.538 E0.09425
G1 X38.841 Y75.975 E0.09425
G1 X39.575 Y77.428 E0.09425
G1 X40.277 Y78.897 E0.09425
G1 X40.946 Y80.381 E0.09425
G1 X41.581 Y81.88 E0.09424
G1 X42.182 Y83.388 E0.09401
G1 X43.153 Y86.045 E0.16375
G1 X43.488 Y86.46 E0.03086
G1 X43.767 Y86.657 E0.01977
G1 X44.782 Y87.248 E0.06803
G1 X45.749 Y87.765 E0.06347
G1 X46.733 Y88.249 E0.06346
G1 X47.733 Y88.697 E0.06346
G1 X48.748 Y89.11 E0.06346
G1 X49.778 Y89.488 E0.06346
G1 X50.82 Y89.828 E0.06347
G1 X51.873 Y90.132 E0.06346
G1 X52.936 Y90.399 E0.06346
G1 X54.008 Y90.629 E0.06346
G1 X55.087 Y90.82 E0.06346
G1 X56.173 Y90.974 E0.06346
G1 X57.263 Y91.089 E0.06346
G1 X58.356 Y91.166 E0.06346
G1 X59.452 Y91.204 E0.06346
G1 X60.548 Y91.204 E0.06346
G1 X61.644 Y91.166 E0.06346
G1 X62.737 Y91.089 E0.06346
G1 X63.827 Y90.974 E0.06346
G1 X64.913 Y90.82 E0.06346
G1 X65.992 Y90.629 E0.06346
G1 X67.064 Y90.399 E0.06346
G1 X68.127 Y90.132 E0.06346
G1 X69.18 Y89.828 E0.06346
G1 X70.222 Y89.488 E0.06346
G1 X71.252 Y89.11 E0.06346
G1 X72.267 Y88.697 E0.06346
G1 X73.267 Y88.249 E0.06346
G1 X74.251 Y87.765 E0.06346
G1 X75.218 Y87.248 E0.06346
G1 X76.233 Y86.657 E0.06804
G1 X76.512 Y86.46 E0.01977
G1 X76.847 Y86.045 E0.03087
G1 X77.818 Y83.388 E0.16375
G1 X78.419 Y81.88 E0.094
G1 X79.054 Y80.381 E0.09425
G1 X79.723 Y78.897 E0.09424
G1 X80.425 Y77.428 E0.09425
G1 X81.159 Y75.975 E0.09425
G1 X81.925 Y74.538 E0.09424
G1 X82.724 Y73.119 E0.09425
G1 X83.553 Y71.719 E0.09424
G1 X84.414 Y70.337 E0.09425
G1 X85.305 Y68.975 E0.09424
G1 X86.227 Y67.632 E0.09425
G1 X87.178 Y66.311 E0.09425
G1 X88.158 Y65.011 E0.09424
G1 X89.164 Y63.737 E0.094
G1 X90.979 Y61.568 E0.16375
G1 X91.171 Y61.07 E0.03087
G1 X91.202 Y60.73 E0.01977
G1 X91.206 Y59.555 E0.06803
G1 X91.171 Y58.459 E0.06346
G1 X91.098 Y57.365 E0.06346
G1 X90.986 Y56.275 E0.06346
G1 X90.836 Y55.189 E0.06346
G1 X90.648 Y54.109 E0.06346
G1 X90.422 Y53.036 E0.06346
G1 X90.159 Y51.972 E0.06346
G1 X89.859 Y50.918 E0.06346
G1 X89.521 Y49.875 E0.06346
G1 X89.147 Y48.844 E0.06347
G1 X88.738 Y47.828 E0.06346
G1 X88.292 Y46.826 E0.06347
G1 X87.812 Y45.841 E0.06346
G1 X87.298 Y44.872 E0.06346
G1 X86.75 Y43.923 E0.06346
G1 X86.169 Y42.994 E0.06346
G1 X85.555 Y42.085 E0.06346
G1 X84.91 Y41.199 E0.06346
G1 X84.235 Y40.335 E0.06346
G1 X83.529 Y39.496 E0.06346
G1 X82.795 Y38.683 E0.06346
G1 X82.032 Y37.895 E0.06346
G1 X81.242 Y37.135 E0.06346
G1 X80.426 Y36.403 E0.06346
G1 X79.585 Y35.701 E0.06346
G1 X78.719 Y35.028 E0.06346
G1 X77.831 Y34.386 E0.06346
G1 X76.92 Y33.775 E0.06346
G1 X75.989 Y33.197 E0.06347
G1 X74.969 Y32.613 E0.06803
G1 X74.659 Y32.47 E0.01977
G1 X74.134 Y32.387 E0.03077
G1 X73.842 Y32.438 E0.01716
G1 X71.346 Y32.875 E0.1467
G1 X69.739 Y33.109 E0.094
G1 X68.123 Y33.308 E0.09425
G1 X66.503 Y33.471 E0.09426
G1 X64.88 Y33.598 E0.09424
G1 X63.255 Y33.688 E0.09425
G1 X61.628 Y33.743 E0.09424
G1 X60 Y33.761 E0.09425
G1 X58.372 Y33.743 E0.09425
G1 X56.745 Y33.688 E0.09424
G1 X55.12 Y33.598 E0.09425
G1 X53.497 Y33.471 E0.09424
G1 X51.877 Y33.308 E0.09426
G1 X50.261 Y33.109 E0.09425
G1 X48.65 Y32.874 E0.09424
G1 X47.045 Y32.603 E0.09425
G1 X46.157 Y32.433 E0.05234
G1 X45.834 Y32.393 E0.01886
G1 X45.342 Y32.47 E0.02879
G1 X45.543 Y32.951 F18000
G1 F1800
G1 X45.452 Y32.965 E0.00529
G1 X44.273 Y33.631 E0.07837
G1 X43.355 Y34.201 E0.0626
G1 X42.459 Y34.801 E0.06243
G1 X41.585 Y35.433 E0.06243
G1 X40.733 Y36.095 E0.06243
G1 X39.906 Y36.786 E0.06243
G1 X39.103 Y37.506 E0.06243
G1 X38.326 Y38.254 E0.06243
G1 X37.575 Y39.029 E0.06243
G1 X36.853 Y39.829 E0.06243
G1 X36.159 Y40.654 E0.06243
G1 X35.494 Y41.504 E0.06244
G1 X34.859 Y42.376 E0.06243
G1 X34.256 Y43.27 E0.06243
G1 X33.684 Y44.184 E0.06243
G1 X33.145 Y45.118 E0.06243
G1 X32.639 Y46.07 E0.06243
G1 X32.167 Y47.04 E0.06243
G1 X31.729 Y48.025 E0.06243
G1 X31.326 Y49.025 E0.06243
G1 X30.958 Y50.039 E0.06243
G1 X30.626 Y51.065 E0.06243
G1 X30.33 Y52.102 E0.06243
G1 X30.071 Y53.149 E0.06243
G1 X29.849 Y54.205 E0.06243
G1 X29.664 Y55.267 E0.06243
G1 X29.517 Y56.335 E0.06243
G1 X29.407 Y57.408 E0.06243
G1 X29.335 Y58.484 E0.06243
G1 X29.3 Y59.565 E0.0626
G1 X29.314 Y60.919 E0.07837
G1 X29.455 Y61.287 E0.02282
G1 X29.598 Y61.476 E0.01376
G1 X30.183 Y62.152 E0.05171
G1 X31.227 Y63.415 E0.0949
G1 X32.243 Y64.702 E0.0949
G1 X33.23 Y66.011 E0.09489
G1 X34.188 Y67.341 E0.09491
G1 X35.115 Y68.693 E0.0949
G1 X36.013 Y70.064 E0.0949
G1 X36.879 Y71.456 E0.0949
G1 X37.715 Y72.866 E0.0949
G1 X38.519 Y74.295 E0.0949
G1 X39.29 Y75.741 E0.0949
G1 X40.03 Y77.204 E0.0949
G1 X40.736 Y78.683 E0.0949
G1 X41.41 Y80.178 E0.0949
G1 X42.05 Y81.687 E0.0949
G1 X42.655 Y83.208 E0.09475
G1 X43.599 Y85.792 E0.15928
G1 X43.838 Y86.087 E0.02194
G1 X44.041 Y86.231 E0.01441
G1 X45.029 Y86.806 E0.06621
G1 X45.98 Y87.315 E0.06244
G1 X46.948 Y87.79 E0.06243
G1 X47.932 Y88.232 E0.06243
G1 X48.931 Y88.638 E0.06243
G1 X49.943 Y89.009 E0.06243
G1 X50.969 Y89.344 E0.06244
G1 X52.005 Y89.644 E0.06243
G1 X53.051 Y89.906 E0.06243
G1 X54.105 Y90.132 E0.06243
G1 X55.167 Y90.32 E0.06243
G1 X56.235 Y90.471 E0.06243
G1 X57.307 Y90.585 E0.06243
G1 X58.383 Y90.66 E0.06243
G1 X59.461 Y90.698 E0.06243
G1 X60.539 Y90.698 E0.06243
G1 X61.617 Y90.66 E0.06243
G1 X62.693 Y90.585 E0.06243
G1 X63.765 Y90.471 E0.06243
G1 X64.833 Y90.32 E0.06243
G1 X65.895 Y90.132 E0.06243
G1 X66.949 Y89.906 E0.06243
G1 X67.995 Y89.644 E0.06243
G1 X69.032 Y89.344 E0.06243
G1 X70.056 Y89.009 E0.06243
G1 X71.069 Y88.638 E0.06243
G1 X72.068 Y88.232 E0.06243
G1 X73.052 Y87.79 E0.06243
G1 X74.02 Y87.315 E0.06243
G1 X74.971 Y86.806 E0.06243
G1 X75.959 Y86.231 E0.06621
G1 X76.162 Y86.087 E0.01441
G1 X76.401 Y85.792 E0.02194
G1 X77.345 Y83.208 E0.15929
G1 X77.95 Y81.687 E0.09474
G1 X78.59 Y80.178 E0.0949
G1 X79.264 Y78.684 E0.0949
G1 X79.97 Y77.204 E0.0949
G1 X80.71 Y75.741 E0.09491
G1 X81.481 Y74.295 E0.09489
G1 X82.285 Y72.866 E0.0949
G1 X83.121 Y71.456 E0.0949
G1 X83.987 Y70.064 E0.0949
G1 X84.885 Y68.693 E0.0949
G1 X85.812 Y67.341 E0.0949
G1 X86.77 Y66.011 E0.0949
G1 X87.757 Y64.702 E0.0949
G1 X88.771 Y63.418 E0.09474
G1 X90.537 Y61.307 E0.15929
G1 X90.673 Y60.954 E0.02194
G1 X90.696 Y60.706 E0.01441
G1 X90.7 Y59.562 E0.06621
G1 X90.665 Y58.484 E0.06243
G1 X90.593 Y57.408 E0.06243
G1 X90.483 Y56.335 E0.06243
G1 X90.336 Y55.267 E0.06243
G1 X90.151 Y54.205 E0.06243
G1 X89.929 Y53.149 E0.06243
G1 X89.67 Y52.102 E0.06243
G1 X89.374 Y51.065 E0.06243
G1 X89.042 Y50.039 E0.06243
G1 X88.674 Y49.025 E0.06243
G1 X88.271 Y48.025 E0.06243
G1 X87.833 Y47.04 E0.06244
G1 X87.361 Y46.07 E0.06243
G1 X86.855 Y45.118 E0.06243
G1 X86.316 Y44.184 E0.06243
G1 X85.744 Y43.27 E0.06243
G1 X85.141 Y42.376 E0.06243
G1 X84.506 Y41.504 E0.06243
G1 X83.841 Y40.654 E0.06243
G1 X83.147 Y39.829 E0.06243
G1 X82.425 Y39.029 E0.06243
G1 X81.674 Y38.254 E0.06243
G1 X80.897 Y37.506 E0.06243
G1 X80.094 Y36.786 E0.06243
G1 X79.267 Y36.095 E0.06243
G1 X78.415 Y35.433 E0.06243
G1 X77.541 Y34.801 E0.06243
G1 X76.645 Y34.201 E0.06243
G1 X75.729 Y33.632 E0.06243
G1 X74.737 Y33.064 E0.06621
G1 X74.511 Y32.96 E0.01441
G1 X74.137 Y32.901 E0.02188
G1 X73.928 Y32.937 E0.01229
G1 X71.426 Y33.375 E0.14707
G1 X69.807 Y33.611 E0.09474
G1 X68.18 Y33.811 E0.0949
G1 X66.548 Y33.975 E0.09491
G1 X64.914 Y34.103 E0.0949
G1 X63.278 Y34.194 E0.0949
G1 X61.639 Y34.249 E0.0949
G1 X60 Y34.267 E0.0949
G1 X58.361 Y34.249 E0.0949
G1 X56.722 Y34.194 E0.0949
G1 X55.086 Y34.103 E0.0949
G1 X53.452 Y33.975 E0.0949
G1 X51.82 Y33.811 E0.09491
G1 X50.193 Y33.611 E0.0949
G1 X48.571 Y33.374 E0.0949
G1 X46.955 Y33.102 E0.0949
G1 X46.078 Y32.933 E0.05171
G1 X45.842 Y32.904 E0.01376
G1 X45.602 Y32.942 E0.01406
G1 X45.622 Y33.451 F18000
;TYPE:External perimeter
G1 F1800
G1 X44.531 Y34.066 E0.07247
G1 X43.629 Y34.626 E0.06148
G1 X42.748 Y35.217 E0.0614
G1 X41.888 Y35.838 E0.0614
G1 X41.051 Y36.489 E0.0614
G1 X40.237 Y37.169 E0.0614
G1 X39.447 Y37.877 E0.0614
G1 X38.683 Y38.613 E0.0614
G1 X37.945 Y39.375 E0.0614
G1 X37.234 Y40.162 E0.0614
G1 X36.552 Y40.974 E0.0614
G1 X35.898 Y41.809 E0.0614
G1 X35.274 Y42.666 E0.0614
G1 X34.681 Y43.546 E0.0614
G1 X34.118 Y44.445 E0.0614
G1 X33.588 Y45.363 E0.0614
G1 X33.09 Y46.3 E0.0614
G1 X32.626 Y47.253 E0.0614
G1 X32.195 Y48.223 E0.0614
G1 X31.799 Y49.206 E0.0614
G1 X31.437 Y50.204 E0.0614
G1 X31.11 Y51.213 E0.0614
G1 X30.82 Y52.233 E0.0614
G1 X30.565 Y53.262 E0.0614
G1 X30.346 Y54.3 E0.0614
G1 X30.165 Y55.345 E0.0614
G1 X30.019 Y56.396 E0.0614
G1 X29.911 Y57.451 E0.0614
G1 X29.84 Y58.509 E0.0614
G1 X29.807 Y59.571 E0.06148
G1 X29.819 Y60.822 E0.07247
G1 X29.902 Y61.038 E0.01339
G1 X29.992 Y61.157 E0.00866
G1 X30.569 Y61.825 E0.05109
G1 X31.621 Y63.097 E0.09555
G1 X32.644 Y64.393 E0.09555
G1 X33.638 Y65.71 E0.09555
G1 X34.602 Y67.05 E0.09556
G1 X35.536 Y68.411 E0.09556
G1 X36.44 Y69.792 E0.09555
G1 X37.312 Y71.193 E0.09555
G1 X38.153 Y72.613 E0.09556
G1 X38.963 Y74.052 E0.09555
G1 X39.74 Y75.508 E0.09555
G1 X40.484 Y76.981 E0.09555
G1 X41.196 Y78.47 E0.09555
G1 X41.874 Y79.975 E0.09556
G1 X42.518 Y81.495 E0.09555
G1 X43.128 Y83.027 E0.09549
G1 X44.046 Y85.539 E0.15482
G1 X44.187 Y85.714 E0.01301
G1 X44.315 Y85.804 E0.00906
G1 X45.276 Y86.364 E0.06439
G1 X46.211 Y86.864 E0.0614
G1 X47.163 Y87.332 E0.0614
G1 X48.131 Y87.766 E0.0614
G1 X49.114 Y88.166 E0.0614
G1 X50.109 Y88.531 E0.0614
G1 X51.117 Y88.86 E0.0614
G1 X52.136 Y89.155 E0.0614
G1 X53.165 Y89.413 E0.0614
G1 X54.202 Y89.635 E0.0614
G1 X55.247 Y89.82 E0.0614
G1 X56.297 Y89.968 E0.0614
G1 X57.352 Y90.08 E0.0614
G1 X58.41 Y90.154 E0.0614
G1 X59.47 Y90.192 E0.0614
G1 X60.53 Y90.192 E0.0614
G1 X61.59 Y90.154 E0.0614
G1 X62.648 Y90.08 E0.0614
G1 X63.703 Y89.968 E0.0614
G1 X64.753 Y89.82 E0.0614
G1 X65.798 Y89.635 E0.0614
G1 X66.835 Y89.413 E0.0614
G1 X67.864 Y89.155 E0.0614
G1 X68.883 Y88.86 E0.0614
G1 X69.891 Y88.531 E0.0614
G1 X70.886 Y88.166 E0.0614
G1 X71.869 Y87.766 E0.0614
G1 X72.837 Y87.332 E0.0614
G1 X73.789 Y86.864 E0.0614
G1 X74.724 Y86.364 E0.0614
G1 X75.685 Y85.804 E0.06439
G1 X75.813 Y85.714 E0.00906
G1 X75.954 Y85.539 E0.01301
G1 X76.872 Y83.027 E0.15482
G1 X77.482 Y81.495 E0.09549
G1 X78.126 Y79.975 E0.09555
G1 X78.804 Y78.47 E0.09555
G1 X79.516 Y76.981 E0.09555
G1 X80.26 Y75.508 E0.09556
G1 X81.037 Y74.052 E0.09555
G1 X81.847 Y72.613 E0.09556
G1 X82.688 Y71.193 E0.09555
G1 X83.56 Y69.792 E0.09555
G1 X84.464 Y68.411 E0.09555
G1 X85.398 Y67.05 E0.09555
G1 X86.362 Y65.71 E0.09556
G1 X87.356 Y64.393 E0.09555
G1 X88.378 Y63.098 E0.09549
G1 X90.095 Y61.047 E0.15483
G1 X90.175 Y60.837 E0.01301
G1 X90.19 Y60.682 E0.00906
G1 X90.193 Y59.569 E0.06439
G1 X90.16 Y58.509 E0.0614
G1 X90.089 Y57.451 E0.0614
G1 X89.981 Y56.396 E0.0614
G1 X89.835 Y55.345 E0.0614
G1 X89.654 Y54.3 E0.0614
G1 X89.435 Y53.262 E0.0614
G1 X89.18 Y52.233 E0.0614
G1 X88.89 Y51.213 E0.0614
G1 X88.563 Y50.204 E0.06141
G1 X88.201 Y49.206 E0.0614
G1 X87.805 Y48.223 E0.0614
G1 X87.374 Y47.253 E0.0614
G1 X86.91 Y46.3 E0.0614
G1 X86.412 Y45.363 E0.0614
G1 X85.882 Y44.445 E0.0614
G1 X85.319 Y43.546 E0.0614
G1 X84.726 Y42.666 E0.0614
G1 X84.102 Y41.809 E0.0614
G1 X83.448 Y40.974 E0.0614
G1 X82.766 Y40.162 E0.0614
G1 X82.055 Y39.375 E0.0614
G1 X81.317 Y38.613 E0.0614
G1 X80.553 Y37.877 E0.0614
G1 X79.763 Y37.169 E0.0614
G1 X78.949 Y36.489 E0.0614
G1 X78.112 Y35.838 E0.0614
G1 X77.252 Y35.217 E0.0614
G1 X76.371 Y34.626 E0.0614
G1 X75.47 Y34.067 E0.0614
G1 X74.505 Y33.514 E0.06439
G1 X74.363 Y33.449 E0.00905
G1 X74.141 Y33.414 E0.01299
G1 X74.015 Y33.436 E0.00742
G1 X71.506 Y33.875 E0.14744
G1 X69.874 Y34.113 E0.09549
G1 X68.236 Y34.314 E0.09555
G1 X66.594 Y34.48 E0.09556
G1 X64.948 Y34.608 E0.09555
G1 X63.3 Y34.7 E0.09555
G1 X61.65 Y34.755 E0.09556
G1 X60 Y34.774 E0.09555
G1 X58.35 Y34.755 E0.09555
G1 X56.7 Y34.7 E0.09556
G1 X55.052 Y34.608 E0.09555
G1 X53.406 Y34.48 E0.09555
G1 X51.764 Y34.314 E0.09556
G1 X50.126 Y34.113 E0.09555
G1 X48.493 Y33.874 E0.09555
G1 X46.865 Y33.6 E0.09555
G1 X45.999 Y33.434 E0.05108
G1 X45.85 Y33.415 E0.00866
G1 X45.681 Y33.442 E0.00992
;WIPE_START
M204 S1500
G1 X45.304 Y33.208 F18000
;WIPE_END
G1 E-2 F3000
G1 Z0.65 F18000
; acceleration to travel
G1 X20.444 Y18.852
; decel to extrusion
M204 S1000
G1 X3.871 Y9.281
; end travel
G1 Z0.25
G1 E2 F1800
;TYPE:Internal perimeter
G1 X116.129 Y9.281 E6.49886
G1 X116.129 Y110.719 E5.87242
G1 X3.871 Y110.719 E6.49886
G1 X3.871 Y9.341 E5.86895
G1 X3.364 Y8.775 F18000
G1 F1800
G1 X116.636 Y8.775 E6.55749
G1 X116.636 Y111.225 E5.93105
G1 X3.364 Y111.225 E6.55749
G1 X3.364 Y8.835 E5.92757
G1 X2.858 Y8.268 F18000
;TYPE:External perimeter
G1 F1800
G1 X117.142 Y8.268 E6.61611
G1 X117.142 Y111.732 E5.98967
G1 X2.858 Y111.732 E6.61611
G1 X2.858 Y8.328 E5.9862
;WIPE_START
M204 S1500
G1 X3.204 Y8.468 F18000
;WIPE_END
G1 E-2 F3000
G1 Z0.65 F18000
; acceleration to travel
G1 X70.853 Y9.676
; decel to extrusion
M204 S1000
G1 X115.952 Y10.482
; end travel
G1 Z0.25
G1 E2 F1800
;TYPE:Solid infill
;WIDTH:0.559885
G1 X115.146 Y9.676 E0.06596
G1 X114.43 Y9.676 E0.04145
G1 X115.734 Y10.98 E0.10675
G1 X115.734 Y11.696 E0.04145
G1 X113.714 Y9.676 E0.16537
G1 X112.998 Y9.676 E0.04145
G1 X115.734 Y12.412 E0.22398
G1 X115.734 Y13.128 E0.04145
G1 X112.282 Y9.676 E0.2826
G1 X111.566 Y9.676 E0.04145
G1 X115.734 Y13.845 E0.34121
G1 X115.734 Y14.561 E0.04145
G1 X110.85 Y9.676 E0.39983
G1 X110.134 Y9.676 E0.04145
G1 X115.734 Y15.277 E0.45844
G1 X115.734 Y15.993 E0.04145
G1 X109.418 Y9.676 E0.51706
G1 X108.702 Y9.676 E0.04145
