; generated by SuperSlicer 2.4 on 2024-02-25 at 17:27:39 UTC


;
;

;
;
; TODO: check the size of the extruder and the y-bar clearance. Optimize & test supports.

; external perimeters extrusion width = 0.40mm
; perimeters extrusion width = 0.40mm
; infill extrusion width = 0.40mm
; solid infill extrusion width = 0.40mm
; top infill extrusion width = 0.40mm
; support material extrusion width = 0.44mm
; first layer extrusion width = 0.48mm

; object:{"name":"TestMotorClamp3","id":"TestMotorClamp3.STL id:0 copy 0","object_center":[60.000000,60.000000,0.000000],"boundingbox_center":[60.000000,60.000000,4.800000],"boundingbox_size":[89.884483,90.000000,9.600000]}
; plater:{"center":[60.000000,60.000000,0.000000],"boundingbox_center":[60.000000,60.000000,4.800000],"boundingbox_size":[89.884483,90.000000,9.600000]}

;TYPE:Custom
; M190 S0
;M109 S0 ; uncomment to remove set&wait temp gcode added automatically after this start gcode
print_start EXTRUDER=260 BED=50 CHAMBER=50

;G92 E0
;G1 E10 F1500 ; prime the nozzle
M107
G21 ; set units to millimeters
G90 ; use absolute coordinates
M83 ; use relative distances for extrusion
SET_PRESSURE_ADVANCE ADVANCE=0.04
;_TOOLCHANGE 0
M104 S260 ; set temperature
M109 S260 ; set temperature and wait for it to be reached
M190 S50 ; set bed temperature and wait for it to be reached
M107
;LAYER_CHANGE
;Z:0.25
;HEIGHT:0.25
;BEFORE_LAYER_CHANGE
;0.25


G1 Z0.25 F18000
;AFTER_LAYER_CHANGE
;0.25
TIMELAPSE_TAKE_FRAME
G92 E0
G1 E-2 F3000
G1 Z0.65 F18000
M204 S1000
G1 X25.813 Y27.235
G1 Z0.25
G1 E2 F1800
;TYPE:Skirt
;WIDTH:0.48
G1 X29.202 Y24.023 E0.20692
G1 X33 Y21.092 E0.21259
G1 X37.075 Y18.56 E0.21259
G1 X41.385 Y16.454 E0.21259
G1 X45.886 Y14.794 E0.21259
G1 X50.532 Y13.598 E0.21259
G1 X55.275 Y12.878 E0.21259
G1 X60.066 Y12.642 E0.21259
G1 X64.857 Y12.891 E0.21258
G1 X69.576 Y13.62 E0.21162
G1 X74.199 Y14.82 E0.21162
G1 X78.696 Y16.488 E0.21258
G1 X83.002 Y18.603 E0.21258
G1 X87.072 Y21.142 E0.21257
G1 X90.848 Y24.066 E0.21163
G1 X94.325 Y27.371 E0.21258
G1 X97.436 Y30.994 E0.21161
G1 X100.178 Y34.93 E0.21258
G1 X102.509 Y39.123 E0.21259
G1 X104.403 Y43.531 E0.21258
G1 X105.835 Y48.086 E0.21162
G1 X106.805 Y52.784 E0.21258
G1 X107.294 Y57.535 E0.21163
G1 X107.301 Y62.321 E0.2121
G1 X106.822 Y67.106 E0.21306
G1 X105.863 Y71.806 E0.2126
G1 X104.433 Y76.386 E0.21259
G1 X102.552 Y80.787 E0.2121
G1 X100.226 Y84.994 E0.21306
G1 X97.497 Y88.927 E0.21214
G1 X94.272 Y92.684 E0.21939
G1 X90.798 Y95.977 E0.21212
G1 X87 Y98.908 E0.21259
G1 X82.925 Y101.44 E0.21259
G1 X78.615 Y103.546 E0.21259
G1 X74.114 Y105.206 E0.21259
G1 X69.468 Y106.402 E0.21259
G1 X64.725 Y107.122 E0.21259
G1 X59.934 Y107.358 E0.21259
G1 X55.143 Y107.109 E0.21258
G1 X50.424 Y106.38 E0.21162
G1 X45.801 Y105.18 E0.21162
G1 X41.304 Y103.512 E0.21258
G1 X36.998 Y101.397 E0.21258
G1 X32.928 Y98.858 E0.21257
G1 X29.152 Y95.934 E0.21163
G1 X25.675 Y92.629 E0.21258
G1 X22.564 Y89.006 E0.21161
G1 X19.822 Y85.07 E0.21258
G1 X17.491 Y80.877 E0.21259
G1 X15.597 Y76.469 E0.21258
G1 X14.165 Y71.914 E0.21162
G1 X13.195 Y67.216 E0.21258
G1 X12.706 Y62.465 E0.21163
G1 X12.699 Y57.679 E0.2121
G1 X13.178 Y52.894 E0.21306
G1 X14.137 Y48.194 E0.2126
G1 X15.567 Y43.614 E0.21259
G1 X17.448 Y39.213 E0.2121
G1 X19.774 Y35.006 E0.21306
G1 X22.503 Y31.073 E0.21214
G1 X25.728 Y27.316 E0.21939
G1 X25.77 Y27.277 E0.00255
G1 X26.063 Y27.586 F18000
G1 F1800
G1 X29.472 Y24.354 E0.20814
G1 X33.234 Y21.449 E0.21067
G1 X37.272 Y18.938 E0.21067
G1 X41.543 Y16.85 E0.21067
G1 X46.003 Y15.204 E0.21067
G1 X50.607 Y14.018 E0.21067
G1 X55.307 Y13.303 E0.21067
G1 X60.055 Y13.068 E0.21068
G1 X64.803 Y13.314 E0.21067
G1 X69.48 Y14.035 E0.20971
G1 X74.081 Y15.23 E0.21067
G1 X78.538 Y16.884 E0.21066
G1 X82.805 Y18.981 E0.21067
G1 X86.82 Y21.486 E0.20971
G1 X90.562 Y24.383 E0.20972
G1 X94.008 Y27.657 E0.21067
G1 X97.093 Y31.247 E0.2097
G1 X99.811 Y35.147 E0.21067
G1 X102.121 Y39.302 E0.21067
G1 X103.999 Y43.669 E0.21067
G1 X105.42 Y48.183 E0.20971
G1 X106.382 Y52.839 E0.21067
G1 X106.869 Y57.568 E0.21067
G1 X106.875 Y62.311 E0.21019
G1 X106.399 Y67.052 E0.21115
G1 X105.448 Y71.71 E0.21068
G1 X104.03 Y76.248 E0.21067
G1 X102.165 Y80.609 E0.21019
G1 X99.858 Y84.778 E0.21115
G1 X97.153 Y88.675 E0.21022
G1 X93.971 Y92.382 E0.21648
G1 X90.528 Y95.646 E0.2102
G1 X86.766 Y98.551 E0.21067
G1 X82.728 Y101.062 E0.21067
G1 X78.457 Y103.15 E0.21067
G1 X73.997 Y104.796 E0.21067
G1 X69.393 Y105.982 E0.21067
G1 X64.693 Y106.697 E0.21067
G1 X59.945 Y106.932 E0.21067
G1 X55.197 Y106.686 E0.21067
G1 X50.52 Y105.965 E0.20971
G1 X45.919 Y104.77 E0.21067
G1 X41.462 Y103.116 E0.21066
G1 X37.195 Y101.019 E0.21067
G1 X33.18 Y98.514 E0.20971
G1 X29.438 Y95.617 E0.20972
G1 X25.992 Y92.343 E0.21067
G1 X22.907 Y88.753 E0.2097
G1 X20.189 Y84.853 E0.21067
G1 X17.879 Y80.698 E0.21067
G1 X16.001 Y76.331 E0.21067
G1 X14.58 Y71.817 E0.20971
G1 X13.618 Y67.161 E0.21067
G1 X13.131 Y62.432 E0.21067
G1 X13.125 Y57.689 E0.21019
G1 X13.601 Y52.948 E0.21115
G1 X14.552 Y48.29 E0.21068
G1 X15.97 Y43.752 E0.21067
G1 X17.835 Y39.391 E0.21019
G1 X20.142 Y35.222 E0.21115
G1 X22.847 Y31.325 E0.21022
G1 X26.021 Y27.628 E0.21589
G1 X26.331 Y27.92 F18000
G1 F1800
G1 X29.741 Y24.685 E0.20829
G1 X33.469 Y21.805 E0.20876
G1 X37.469 Y19.317 E0.20876
G1 X41.701 Y17.246 E0.20876
G1 X46.12 Y15.614 E0.20876
G1 X50.681 Y14.438 E0.20876
G1 X55.339 Y13.729 E0.20876
G1 X60.044 Y13.494 E0.20876
G1 X64.748 Y13.737 E0.20876
G1 X69.383 Y14.451 E0.2078
G1 X73.943 Y15.634 E0.20875
G1 X78.36 Y17.272 E0.20875
G1 X82.588 Y19.348 E0.20876
G1 X86.567 Y21.83 E0.2078
G1 X90.292 Y24.713 E0.20876
G1 X93.707 Y27.959 E0.20876
G1 X96.762 Y31.516 E0.20779
G1 X99.455 Y35.382 E0.20876
G1 X101.743 Y39.499 E0.20876
G1 X103.603 Y43.828 E0.20876
G1 X105.01 Y48.301 E0.2078
G1 X105.963 Y52.914 E0.20876
G1 X106.444 Y57.601 E0.20876
G1 X106.448 Y62.301 E0.20828
G1 X105.976 Y66.999 E0.20924
G1 X105.032 Y71.614 E0.20877
G1 X103.626 Y76.111 E0.20876
G1 X101.777 Y80.432 E0.20828
G1 X99.49 Y84.562 E0.20923
G1 X96.809 Y88.423 E0.20829
G1 X93.669 Y92.08 E0.21358
G1 X90.259 Y95.315 E0.20829
G1 X86.531 Y98.195 E0.20876
G1 X82.531 Y100.683 E0.20876
G1 X78.299 Y102.754 E0.20876
G1 X73.88 Y104.386 E0.20876
G1 X69.319 Y105.562 E0.20876
G1 X64.661 Y106.271 E0.20876
G1 X59.956 Y106.506 E0.20876
G1 X55.252 Y106.263 E0.20876
G1 X50.617 Y105.549 E0.2078
G1 X46.057 Y104.366 E0.20875
G1 X41.64 Y102.728 E0.20875
G1 X37.412 Y100.652 E0.20876
G1 X33.433 Y98.17 E0.2078
G1 X29.707 Y95.287 E0.20876
G1 X26.293 Y92.041 E0.20876
G1 X23.238 Y88.484 E0.20779
G1 X20.545 Y84.618 E0.20876
G1 X18.257 Y80.501 E0.20876
G1 X16.397 Y76.172 E0.20876
G1 X14.99 Y71.699 E0.2078
G1 X14.037 Y67.086 E0.20876
G1 X13.556 Y62.399 E0.20876
G1 X13.552 Y57.699 E0.20828
G1 X14.024 Y53.001 E0.20924
G1 X14.968 Y48.386 E0.20877
G1 X16.374 Y43.889 E0.20876
G1 X18.223 Y39.568 E0.20828
G1 X20.51 Y35.438 E0.20923
G1 X23.191 Y31.577 E0.20829
G1 X26.292 Y27.965 E0.21093
G1 X26.614 Y28.242 F18000
G1 F1800
G1 X26.632 Y28.222 E0.00121
G1 X30.01 Y25.016 E0.20637
G1 X33.703 Y22.161 E0.20685
G1 X37.666 Y19.695 E0.20685
G1 X41.858 Y17.642 E0.20685
G1 X46.237 Y16.024 E0.20685
G1 X50.756 Y14.857 E0.20685
G1 X55.371 Y14.154 E0.20685
G1 X60.033 Y13.921 E0.20685
G1 X64.694 Y14.16 E0.20685
G1 X69.287 Y14.866 E0.20589
G1 X73.805 Y16.037 E0.20684
G1 X78.182 Y17.659 E0.20684
G1 X82.372 Y19.716 E0.20684
G1 X86.332 Y22.186 E0.20685
G1 X90.023 Y25.044 E0.20685
G1 X93.405 Y28.261 E0.20684
G1 X96.432 Y31.786 E0.20588
G1 X99.099 Y35.616 E0.20685
G1 X101.365 Y39.697 E0.20685
G1 X103.207 Y43.986 E0.20685
G1 X104.6 Y48.418 E0.20589
G1 X105.543 Y52.99 E0.20685
G1 X106.018 Y57.633 E0.20685
G1 X106.022 Y62.29 E0.20637
G1 X105.553 Y66.945 E0.20732
G1 X104.617 Y71.518 E0.20685
G1 X103.222 Y75.973 E0.20685
G1 X101.389 Y80.254 E0.20637
G1 X99.122 Y84.346 E0.20732
G1 X96.465 Y88.171 E0.20638
G1 X93.368 Y91.778 E0.21069
G1 X89.99 Y94.984 E0.20637
G1 X86.297 Y97.839 E0.20685
G1 X82.334 Y100.305 E0.20685
G1 X78.142 Y102.358 E0.20685
G1 X73.763 Y103.976 E0.20685
G1 X69.244 Y105.143 E0.20685
G1 X64.629 Y105.846 E0.20685
G1 X59.967 Y106.079 E0.20685
G1 X55.306 Y105.84 E0.20685
G1 X50.713 Y105.134 E0.20589
G1 X46.195 Y103.963 E0.20684
G1 X41.818 Y102.341 E0.20684
G1 X37.628 Y100.284 E0.20684
G1 X33.668 Y97.814 E0.20685
G1 X29.977 Y94.956 E0.20685
G1 X26.595 Y91.739 E0.20684
G1 X23.568 Y88.214 E0.20588
G1 X20.901 Y84.384 E0.20685
G1 X18.635 Y80.303 E0.20685
G1 X16.793 Y76.014 E0.20685
G1 X15.4 Y71.582 E0.20589
G1 X14.457 Y67.01 E0.20685
G1 X13.982 Y62.367 E0.20685
G1 X13.978 Y57.71 E0.20636
G1 X14.447 Y53.055 E0.20732
G1 X15.383 Y48.482 E0.20685
G1 X16.778 Y44.027 E0.20685
G1 X18.611 Y39.746 E0.20637
G1 X20.878 Y35.654 E0.20732
G1 X23.535 Y31.829 E0.20638
G1 X26.575 Y28.288 E0.20682
G1 X26.898 Y28.565 F18000
G1 F1800
G1 X26.934 Y28.523 E0.00243
G1 X30.279 Y25.346 E0.20445
G1 X33.938 Y22.517 E0.20493
G1 X37.864 Y20.073 E0.20493
G1 X42.016 Y18.038 E0.20493
G1 X46.354 Y16.434 E0.20493
G1 X50.831 Y15.277 E0.20493
G1 X55.403 Y14.579 E0.20493
G1 X60.022 Y14.347 E0.20493
G1 X64.64 Y14.583 E0.20493
G1 X69.211 Y15.286 E0.20493
G1 X73.687 Y16.447 E0.20493
G1 X78.003 Y18.047 E0.20397
G1 X82.155 Y20.083 E0.20493
G1 X86.08 Y22.53 E0.20493
G1 X89.737 Y25.36 E0.20493
G1 X93.089 Y28.547 E0.20493
G1 X96.088 Y32.038 E0.20397
G1 X98.732 Y35.833 E0.20493
G1 X100.978 Y39.875 E0.20493
G1 X102.804 Y44.124 E0.20493
G1 X104.19 Y48.536 E0.20493
G1 X105.123 Y53.065 E0.20493
G1 X105.593 Y57.666 E0.20493
G1 X105.596 Y62.28 E0.20445
G1 X105.13 Y66.892 E0.20541
G1 X104.201 Y71.422 E0.20493
G1 X102.819 Y75.835 E0.20493
G1 X101.002 Y80.076 E0.20445
G1 X98.755 Y84.13 E0.20541
G1 X96.121 Y87.919 E0.20446
G1 X93.066 Y91.477 E0.20781
G1 X89.721 Y94.654 E0.20445
G1 X86.062 Y97.483 E0.20493
G1 X82.136 Y99.927 E0.20493
G1 X77.984 Y101.962 E0.20493
G1 X73.646 Y103.566 E0.20493
G1 X69.169 Y104.723 E0.20493
G1 X64.597 Y105.421 E0.20493
G1 X59.978 Y105.653 E0.20493
G1 X55.36 Y105.417 E0.20493
G1 X50.789 Y104.714 E0.20493
G1 X46.313 Y103.553 E0.20493
G1 X41.997 Y101.953 E0.20397
G1 X37.845 Y99.917 E0.20493
G1 X33.92 Y97.47 E0.20493
G1 X30.263 Y94.64 E0.20493
G1 X26.911 Y91.453 E0.20493
G1 X23.912 Y87.962 E0.20397
G1 X21.268 Y84.167 E0.20493
G1 X19.022 Y80.125 E0.20493
G1 X17.196 Y75.876 E0.20493
G1 X15.81 Y71.464 E0.20493
G1 X14.877 Y66.935 E0.20493
G1 X14.407 Y62.334 E0.20493
G1 X14.404 Y57.72 E0.20445
G1 X14.87 Y53.108 E0.20541
G1 X15.799 Y48.578 E0.20493
G1 X17.181 Y44.165 E0.20493
G1 X18.998 Y39.924 E0.20445
G1 X21.245 Y35.87 E0.20541
G1 X23.879 Y32.081 E0.20446
G1 X26.859 Y28.61 E0.20272
G1 X27.182 Y28.887 F18000
G1 F1800
G1 X27.235 Y28.825 E0.00365
G1 X30.549 Y25.677 E0.20254
G1 X34.172 Y22.873 E0.20302
G1 X38.061 Y20.451 E0.20302
G1 X42.175 Y18.434 E0.20302
G1 X46.471 Y16.844 E0.20302
G1 X50.907 Y15.697 E0.20302
G1 X55.435 Y15.004 E0.20302
G1 X60.011 Y14.773 E0.20302
G1 X64.586 Y15.007 E0.20302
G1 X69.115 Y15.701 E0.20302
G1 X73.549 Y16.851 E0.20302
G1 X77.825 Y18.434 E0.20206
G1 X81.939 Y20.451 E0.20302
G1 X85.828 Y22.873 E0.20302
G1 X89.451 Y25.677 E0.20302
G1 X92.772 Y28.833 E0.20302
G1 X95.757 Y32.308 E0.20302
G1 X98.376 Y36.068 E0.20302
G1 X100.6 Y40.073 E0.20302
G1 X102.408 Y44.282 E0.20302
G1 X103.78 Y48.653 E0.20302
G1 X104.703 Y53.141 E0.20302
G1 X105.168 Y57.699 E0.20302
G1 X105.169 Y62.269 E0.20254
G1 X104.707 Y66.838 E0.2035
G1 X103.786 Y71.326 E0.20302
G1 X102.415 Y75.697 E0.20302
G1 X100.614 Y79.898 E0.20254
G1 X98.387 Y83.914 E0.2035
G1 X95.777 Y87.666 E0.20254
G1 X92.765 Y91.175 E0.20493
G1 X89.451 Y94.323 E0.20254
G1 X85.828 Y97.127 E0.20302
G1 X81.939 Y99.549 E0.20302
G1 X77.825 Y101.566 E0.20302
G1 X73.529 Y103.156 E0.20302
G1 X69.093 Y104.303 E0.20302
G1 X64.565 Y104.996 E0.20302
G1 X59.989 Y105.227 E0.20302
G1 X55.414 Y104.993 E0.20302
G1 X50.885 Y104.299 E0.20302
G1 X46.451 Y103.149 E0.20302
G1 X42.175 Y101.566 E0.20206
G1 X38.061 Y99.549 E0.20302
G1 X34.172 Y97.127 E0.20302
G1 X30.549 Y94.323 E0.20302
G1 X27.228 Y91.167 E0.20302
G1 X24.243 Y87.692 E0.20302
G1 X21.624 Y83.932 E0.20302
G1 X19.4 Y79.927 E0.20302
G1 X17.592 Y75.718 E0.20302
G1 X16.22 Y71.347 E0.20302
G1 X15.297 Y66.859 E0.20302
G1 X14.832 Y62.301 E0.20302
G1 X14.831 Y57.731 E0.20254
G1 X15.293 Y53.162 E0.2035
G1 X16.214 Y48.674 E0.20302
G1 X17.585 Y44.303 E0.20302
G1 X19.386 Y40.102 E0.20254
G1 X21.613 Y36.086 E0.2035
G1 X24.223 Y32.334 E0.20254
G1 X27.142 Y28.933 E0.19862
G1 X27.464 Y29.209 F18000
G1 F1800
G1 X27.533 Y29.13 E0.00463
G1 X30.822 Y26.004 E0.2011
G1 X34.411 Y23.227 E0.2011
G1 X38.263 Y20.826 E0.20111
G1 X42.338 Y18.828 E0.20111
G1 X46.594 Y17.253 E0.2011
G1 X50.987 Y16.116 E0.20111
G1 X55.473 Y15.429 E0.2011
G1 X60.005 Y15.2 E0.2011
G1 X60.458 Y15.223 E0.02007
G1 X64.538 Y15.43 E0.18103
G1 X69.024 Y16.118 E0.2011
G1 X73.417 Y17.256 E0.20111
G1 X77.672 Y18.833 E0.2011
G1 X81.746 Y20.832 E0.2011
G1 X85.597 Y23.233 E0.20111
G1 X89.186 Y26.011 E0.2011
G1 X92.475 Y29.138 E0.2011
G1 X95.43 Y32.582 E0.2011
G1 X98.022 Y36.307 E0.20111
G1 X100.224 Y40.275 E0.2011
G1 X102.013 Y44.446 E0.2011
G1 X103.371 Y48.776 E0.2011
G1 X104.284 Y53.221 E0.2011
G1 X104.743 Y57.736 E0.20111
G1 X104.742 Y62.274 E0.2011
G1 X104.283 Y66.789 E0.20111
G1 X103.369 Y71.235 E0.2011
G1 X102.01 Y75.564 E0.2011
G1 X100.219 Y79.735 E0.2011
G1 X98.017 Y83.702 E0.2011
G1 X95.43 Y87.418 E0.20063
G1 X92.475 Y90.862 E0.2011
G1 X89.186 Y93.989 E0.2011
G1 X85.597 Y96.767 E0.2011
G1 X81.746 Y99.168 E0.20111
G1 X77.672 Y101.167 E0.2011
G1 X73.406 Y102.747 E0.20158
G1 X69.013 Y103.884 E0.20111
G1 X64.527 Y104.571 E0.2011
G1 X59.995 Y104.8 E0.2011
G1 X55.462 Y104.57 E0.2011
G1 X50.976 Y103.882 E0.2011
G1 X46.583 Y102.744 E0.20111
G1 X42.328 Y101.167 E0.2011
G1 X38.254 Y99.168 E0.2011
G1 X34.403 Y96.767 E0.20111
G1 X30.814 Y93.989 E0.2011
G1 X27.525 Y90.862 E0.2011
G1 X24.57 Y87.418 E0.2011
G1 X21.983 Y83.702 E0.20063
G1 X19.781 Y79.735 E0.2011
G1 X17.99 Y75.564 E0.2011
G1 X16.631 Y71.235 E0.2011
G1 X15.717 Y66.789 E0.2011
G1 X15.258 Y62.274 E0.20111
G1 X15.257 Y57.736 E0.2011
G1 X15.716 Y53.221 E0.20111
G1 X16.629 Y48.776 E0.2011
G1 X17.987 Y44.446 E0.2011
G1 X19.776 Y40.275 E0.2011
G1 X21.978 Y36.307 E0.2011
G1 X24.57 Y32.582 E0.20111
G1 X27.425 Y29.255 E0.19429
; printing object TestMotorClamp3.STL id:0 copy 0
G1 X27.769 Y29.55 F18000
;TYPE:External perimeter
G1 F1800
G1 X27.858 Y29.447 E0.00664
G1 X31.114 Y26.352 E0.21898
G1 X34.666 Y23.602 E0.21898
G1 X38.478 Y21.226 E0.21898
G1 X42.512 Y19.247 E0.21898
G1 X46.724 Y17.687 E0.21898
G1 X51.073 Y16.561 E0.21898
G1 X55.514 Y15.881 E0.21898
G1 X60 Y15.653 E0.21898
G1 X60.435 Y15.675 E0.02123
G1 X64.486 Y15.881 E0.19775
G1 X68.927 Y16.561 E0.21898
G1 X73.276 Y17.687 E0.21898
G1 X77.488 Y19.247 E0.21898
G1 X81.522 Y21.226 E0.21898
G1 X85.334 Y23.602 E0.21898
G1 X88.886 Y26.352 E0.21898
G1 X92.142 Y29.447 E0.21898
G1 X95.068 Y32.855 E0.21898
G1 X97.635 Y36.542 E0.21898
G1 X99.815 Y40.47 E0.21898
G1 X101.586 Y44.598 E0.21898
G1 X102.931 Y48.884 E0.21898
G1 X103.835 Y53.285 E0.21898
G1 X104.29 Y57.754 E0.21898
G1 X104.29 Y62.246 E0.21898
G1 X103.835 Y66.715 E0.21898
G1 X102.931 Y71.116 E0.21898
G1 X101.586 Y75.402 E0.21898
G1 X99.815 Y79.53 E0.21898
G1 X97.635 Y83.458 E0.21898
G1 X95.068 Y87.145 E0.21898
G1 X92.142 Y90.553 E0.21898
G1 X88.886 Y93.648 E0.21898
G1 X85.334 Y96.398 E0.21898
G1 X81.522 Y98.774 E0.21898
G1 X77.488 Y100.753 E0.21898
G1 X73.276 Y102.313 E0.21898
G1 X68.927 Y103.439 E0.21898
G1 X64.486 Y104.119 E0.21898
G1 X60 Y104.347 E0.21898
G1 X55.514 Y104.119 E0.21898
G1 X51.073 Y103.439 E0.21898
G1 X46.724 Y102.313 E0.21898
G1 X42.512 Y100.753 E0.21898
G1 X38.478 Y98.774 E0.21898
G1 X34.666 Y96.398 E0.21898
G1 X31.114 Y93.648 E0.21898
G1 X27.858 Y90.553 E0.21898
G1 X24.932 Y87.145 E0.21898
G1 X22.365 Y83.458 E0.21898
G1 X20.185 Y79.53 E0.21898
G1 X18.414 Y75.402 E0.21898
G1 X17.069 Y71.116 E0.21898
G1 X16.165 Y66.715 E0.21898
G1 X15.71 Y62.246 E0.21898
G1 X15.71 Y57.754 E0.21898
G1 X16.165 Y53.285 E0.21898
G1 X17.069 Y48.884 E0.21898
G1 X18.414 Y44.598 E0.21898
G1 X20.185 Y40.47 E0.21898
G1 X22.365 Y36.542 E0.21898
G1 X24.932 Y32.855 E0.21898
G1 X27.73 Y29.595 E0.20941
