; generated by SuperSlicer 2.4 on 2023-11-04 at 04:05:49 UTC

; 

; external perimeters extrusion width = 0.42mm
; perimeters extrusion width = 0.46mm
; infill extrusion width = 0.44mm
; solid infill extrusion width = 0.46mm
; top infill extrusion width = 0.44mm
; first layer extrusion width = 0.56mm

; object:{"name":"CarbonTubeHolder","id":"CarbonTubeHolder.STL id:0 copy 0","object_center":[115.048978,112.449634,0.000000],"boundingbox_center":[115.048978,112.449634,5.000000],"boundingbox_size":[10.000000,10.000000,10.000000]}
; Total objects to print: 1
M486 T1
; plater:{"center":[115.048978,112.449634,0.000000],"boundingbox_center":[115.048978,112.449634,5.000000],"boundingbox_size":[10.000000,10.000000,10.000000]}

;TYPE:Custom
G90 ; use absolute coordinates
M83 ; extruder relative mode
M140 S60 ; set final bed temp
M104 S150 ; set temporary nozzle temp to prevent oozing during homing and auto bed leveling
G4 S10 ; allow partial nozzle warmup
G28 ; home all axis
G1 Z50 F240
G1 X2 Y10 F3000
M104 S205 ; set final nozzle temp
M190 S60 ; wait for bed temp to stabilize
M109 S205 ; wait for nozzle temp to stabilize
G1 Z0.28 F240
G92 E0
G1 Y140 E10 F1500 ; prime the nozzle
G1 X2.3 F5000
G92 E0
G1 Y10 E10 F1200 ; prime the nozzle
G92 E0
M107
G21 ; set units to millimeters
G90 ; use absolute coordinates
M82 ; use absolute distances for extrusion
G92 E0
; Filament gcode
;_TOOLCHANGE 0
M107
;LAYER_CHANGE
;Z:0.2
;HEIGHT:0.2
;BEFORE_LAYER_CHANGE
;0.2


G1 E-1 F3600
G1 Z0.2 F9000
;AFTER_LAYER_CHANGE
;0.2
G92 E0
M204 S500
G1 X109.156 Y105.527
G1 E1 F2400
;TYPE:Skirt
;WIDTH:0.48
G1 F900
G1 X107.919 Y106.809 E1.06477
G1 X106.955 Y108.309 E1.12955
G1 X106.303 Y109.967 E1.19432
G1 X106.078 Y110.999 E1.23267
G1 X105.969 Y111.989 E1.26887
G1 X106.078 Y113.901 E1.33847
G1 X106.398 Y115.245 E1.38869
G1 X107.109 Y116.879 E1.45347
G1 X108.126 Y118.343 E1.51824
G1 X109.409 Y119.58 E1.58301
G1 X110.908 Y120.543 E1.64778
G1 X112.567 Y121.196 E1.71256
G1 X113.598 Y121.421 E1.75091
G1 X114.588 Y121.529 E1.78711
G1 X116.5 Y121.421 E1.85671
G1 X117.844 Y121.101 E1.90693
G1 X119.478 Y120.389 E1.9717
G1 X120.942 Y119.373 E2.03648
G1 X122.179 Y118.09 E2.10125
G1 X123.143 Y116.59 E2.16602
G1 X123.795 Y114.932 E2.23079
G1 X124.02 Y113.901 E2.26915
G1 X124.129 Y112.911 E2.30535
G1 X124.02 Y110.999 E2.37495
G1 X123.7 Y109.654 E2.42517
G1 X122.989 Y108.02 E2.48994
G1 X121.972 Y106.557 E2.55471
G1 X120.689 Y105.319 E2.61949
G1 X119.19 Y104.356 E2.68426
G1 X117.531 Y103.704 E2.74903
G1 X116.5 Y103.478 E2.78739
G1 X115.51 Y103.37 E2.82359
G1 X113.598 Y103.478 E2.89319
G1 X112.254 Y103.799 E2.94341
G1 X110.62 Y104.51 E3.00818
G1 X109.205 Y105.493 E3.07077
G1 X109.454 Y105.85 F9000
G1 F900
G1 X109.433 Y105.865 E3.0717
G1 X108.256 Y107.087 E3.13335
G1 X107.341 Y108.515 E3.19501
G1 X106.721 Y110.094 E3.25667
G1 X106.506 Y111.084 E3.29347
G1 X106.406 Y112.003 E3.32707
G1 X106.506 Y113.815 E3.39304
G1 X106.816 Y115.118 E3.44171
G1 X107.495 Y116.673 E3.50336
G1 X108.464 Y118.065 E3.56502
G1 X109.686 Y119.242 E3.62668
G1 X111.114 Y120.158 E3.68834
G1 X112.694 Y120.777 E3.75
G1 X113.683 Y120.992 E3.7868
G1 X114.602 Y121.093 E3.8204
G1 X116.415 Y120.992 E3.88637
G1 X117.717 Y120.682 E3.93503
G1 X119.272 Y120.004 E3.99669
G1 X120.665 Y119.035 E4.05835
G1 X121.842 Y117.813 E4.12001
G1 X122.757 Y116.384 E4.18167
G1 X123.377 Y114.805 E4.24333
G1 X123.592 Y113.815 E4.28013
G1 X123.692 Y112.896 E4.31373
G1 X123.592 Y111.084 E4.3797
G1 X123.282 Y109.781 E4.42836
G1 X122.603 Y108.226 E4.49002
G1 X121.634 Y106.834 E4.55168
G1 X120.412 Y105.657 E4.61334
G1 X118.984 Y104.741 E4.675
G1 X117.404 Y104.122 E4.73666
G1 X116.415 Y103.907 E4.77346
G1 X115.496 Y103.807 E4.80706
G1 X113.683 Y103.907 E4.87303
G1 X112.381 Y104.217 E4.92169
G1 X110.826 Y104.896 E4.98335
G1 X109.503 Y105.816 E5.0419
G1 X109.752 Y106.173 F9000
G1 F900
G1 X109.71 Y106.202 E5.04377
G1 X108.594 Y107.364 E5.10231
G1 X107.726 Y108.721 E5.16086
G1 X107.139 Y110.221 E5.2194
G1 X106.843 Y112.017 E5.28556
G1 X106.935 Y113.73 E5.3479
G1 X107.234 Y114.991 E5.395
G1 X107.88 Y116.467 E5.45355
G1 X108.802 Y117.788 E5.5121
G1 X109.963 Y118.904 E5.57064
G1 X111.32 Y119.772 E5.62919
G1 X112.821 Y120.359 E5.68773
G1 X114.617 Y120.656 E5.75389
G1 X116.329 Y120.564 E5.81623
G1 X117.59 Y120.264 E5.86333
G1 X119.066 Y119.618 E5.92188
G1 X120.388 Y118.697 E5.98043
G1 X121.504 Y117.535 E6.03897
G1 X122.372 Y116.178 E6.09752
G1 X122.959 Y114.678 E6.15606
G1 X123.255 Y112.882 E6.22222
G1 X123.163 Y111.169 E6.28456
G1 X122.864 Y109.908 E6.33166
G1 X122.218 Y108.432 E6.39021
G1 X121.296 Y107.111 E6.44875
G1 X120.135 Y105.995 E6.5073
G1 X118.778 Y105.127 E6.56585
G1 X117.277 Y104.54 E6.62439
G1 X115.481 Y104.244 E6.69055
G1 X113.768 Y104.336 E6.75289
G1 X112.507 Y104.635 E6.79999
G1 X111.032 Y105.281 E6.85854
G1 X109.802 Y106.139 E6.91304
G92 E0
G1 E-0.7 F3600
;WIPE_START
G1 F7200
G1 X109.71 Y106.202 E-0.75283
G1 X109.372 Y106.555 E-0.985
;WIPE_END
G1 E-1 F3600
; printing object CarbonTubeHolder.STL id:0 copy 0
M486 S0
; acceleration to travel
M204 S1500
G1 X111.849 Y108.877 F9000
; decel to extrusion
M204 S500
G1 X112.152 Y109.161
; end travel
G1 E0 F2400
;TYPE:External perimeter
;WIDTH:0.564
G1 F900
G1 X111.712 Y109.609 E0.02718
G1 X111.51 Y109.865 E0.04133
G1 X111.179 Y110.392 E0.0683
G1 X111.037 Y110.686 E0.08245
G1 X110.828 Y111.272 E0.10941
G1 X110.752 Y111.59 E0.12356
G1 X110.673 Y112.212 E0.15075
G1 X110.684 Y112.845 E0.17815
G1 X110.786 Y113.469 E0.20556
G1 X110.976 Y114.067 E0.23274
G1 X111.256 Y114.645 E0.26058
G1 X111.608 Y115.165 E0.28777
G1 X112.032 Y115.628 E0.31495
G1 X112.277 Y115.844 E0.3291
G1 X112.789 Y116.205 E0.35628
G1 X113.349 Y116.489 E0.38347
G1 X113.655 Y116.604 E0.39762
G1 X114.257 Y116.76 E0.42458
G1 X114.578 Y116.807 E0.43862
G1 X115.05 Y116.832 E0.45914
G1 X115.525 Y116.806 E0.47974
G1 X116.14 Y116.694 E0.50681
G1 X116.448 Y116.602 E0.52074
G1 X116.749 Y116.489 E0.53467
G1 X117.309 Y116.205 E0.56186
G1 X117.821 Y115.844 E0.58904
G1 X118.066 Y115.628 E0.60319
G1 X118.49 Y115.165 E0.63038
G1 X118.845 Y114.641 E0.65778
G1 X119.118 Y114.076 E0.68496
G1 X119.226 Y113.774 E0.69889
G1 X119.312 Y113.464 E0.71283
G1 X119.414 Y112.845 E0.74001
G1 X119.425 Y112.212 E0.76741
G1 X119.346 Y111.585 E0.79482
G1 X119.178 Y110.98 E0.822
G1 X119.057 Y110.677 E0.83615
G1 X118.765 Y110.127 E0.86311
G1 X118.582 Y109.857 E0.87727
G1 X118.179 Y109.383 E0.90423
G1 X117.942 Y109.158 E0.91838
G1 X117.447 Y108.781 E0.94534
G1 X117.167 Y108.613 E0.95949
G1 X116.597 Y108.35 E0.98668
G1 X115.996 Y108.171 E1.01386
G1 X115.68 Y108.113 E1.02779
G1 X115.36 Y108.078 E1.04172
G1 X114.733 Y108.078 E1.06891
G1 X114.112 Y108.169 E1.09609
G1 X113.801 Y108.249 E1.11002
G1 X113.496 Y108.352 E1.12395
G1 X112.931 Y108.613 E1.15091
G1 X112.651 Y108.781 E1.16506
G1 X112.2 Y109.125 E1.18965
;WIPE_START
G1 X111.77 Y109.042 F9000
;WIPE_END
G1 X111.916 Y108.925
G1 F900
G1 X111.942 Y108.9 E1.19122
G1 X112.173 Y108.71 E1.2042
G1 X112.694 Y108.362 E1.23134
G1 X112.958 Y108.22 E1.24431
G1 X113.537 Y107.981 E1.27145
G1 X113.823 Y107.894 E1.28443
G1 X114.433 Y107.773 E1.31136
G1 X115.054 Y107.732 E1.3383
G1 X115.358 Y107.742 E1.35148
G1 X115.66 Y107.772 E1.36465
G1 X116.274 Y107.894 E1.39179
G1 X116.561 Y107.981 E1.40477
G1 X117.14 Y108.22 E1.4319
G1 X117.404 Y108.362 E1.44488
G1 X117.925 Y108.71 E1.47202
G1 X118.156 Y108.9 E1.48499
G1 X118.599 Y109.343 E1.51213
G1 X118.789 Y109.574 E1.52511
G1 X119.137 Y110.095 E1.55224
G1 X119.278 Y110.359 E1.56522
G1 X119.518 Y110.938 E1.59236
G1 X119.605 Y111.224 E1.60533
G1 X119.726 Y111.834 E1.63227
G1 X119.767 Y112.454 E1.65921
G1 X119.757 Y112.758 E1.67238
G1 X119.727 Y113.061 E1.68556
G1 X119.605 Y113.675 E1.7127
G1 X119.518 Y113.962 E1.72567
G1 X119.278 Y114.54 E1.75281
G1 X119.137 Y114.804 E1.76579
G1 X118.789 Y115.325 E1.79292
G1 X118.599 Y115.557 E1.8059
G1 X118.156 Y116 E1.83304
G1 X117.925 Y116.19 E1.84601
G1 X117.404 Y116.538 E1.87315
G1 X117.14 Y116.679 E1.88613
G1 X116.561 Y116.918 E1.91326
G1 X116.274 Y117.005 E1.92624
G1 X115.665 Y117.127 E1.95318
G1 X115.044 Y117.167 E1.98011
G1 X114.74 Y117.157 E1.99329
G1 X114.438 Y117.128 E2.00646
G1 X113.823 Y117.005 E2.0336
G1 X113.537 Y116.918 E2.04658
G1 X112.958 Y116.679 E2.07371
G1 X112.694 Y116.538 E2.08669
G1 X112.173 Y116.19 E2.11383
G1 X111.942 Y116 E2.1268
G1 X111.499 Y115.557 E2.15394
G1 X111.309 Y115.325 E2.16692
G1 X110.961 Y114.804 E2.19405
G1 X110.82 Y114.54 E2.20703
G1 X110.58 Y113.962 E2.23417
G1 X110.493 Y113.675 E2.24714
G1 X110.372 Y113.065 E2.27408
G1 X110.331 Y112.445 E2.30102
G1 X110.341 Y112.141 E2.31419
G1 X110.371 Y111.838 E2.32737
G1 X110.493 Y111.224 E2.35451
G1 X110.58 Y110.938 E2.36748
G1 X110.82 Y110.359 E2.39462
G1 X110.961 Y110.095 E2.4076
G1 X111.309 Y109.574 E2.43473
G1 X111.499 Y109.343 E2.44771
G1 X111.874 Y108.968 E2.47067
;WIPE_START
G1 X112.302 Y109.029 F9000
;WIPE_END
M106 S84.15
;LAYER_CHANGE
;Z:0.4
;HEIGHT:0.2
;BEFORE_LAYER_CHANGE
;0.4


G92 E0
G1 E-0.7 F3600
;WIPE_START
G1 F7200
G1 X112.726 Y108.604 E-0.985
;WIPE_END
G1 E-1 F3600
; stop printing object CarbonTubeHolder.STL id:0 copy 0
M486 S-1
G1 Z0.4 F9000
;AFTER_LAYER_CHANGE
;0.4
M104 S200 ; set temperature
G92 E0
; acceleration to travel
M204 S1500
G1 X110.406 Y105.263
; decel to extrusion
M204 S500
G1 X110.123 Y104.855
; end travel
G1 E1 F2400
;TYPE:Skirt
;WIDTH:0.48
G1 F900
G1 X109.156 Y105.527 E1.04278
G1 X107.919 Y106.809 E1.10755
G1 X106.955 Y108.309 E1.17232
G1 X106.303 Y109.967 E1.2371
G1 X106.078 Y110.999 E1.27545
G1 X105.969 Y111.989 E1.31165
G1 X106.078 Y113.901 E1.38125
G1 X106.398 Y115.245 E1.43147
G1 X107.109 Y116.879 E1.49624
G1 X108.126 Y118.343 E1.56102
G1 X109.409 Y119.58 E1.62579
G1 X110.908 Y120.543 E1.69056
G1 X112.567 Y121.196 E1.75533
G1 X113.598 Y121.421 E1.79369
G1 X114.588 Y121.529 E1.82989
G1 X116.5 Y121.421 E1.89949
G1 X117.844 Y121.101 E1.94971
G1 X119.478 Y120.389 E2.01448
G1 X120.942 Y119.373 E2.07925
G1 X122.179 Y118.09 E2.14403
G1 X123.143 Y116.59 E2.2088
G1 X123.795 Y114.932 E2.27357
G1 X124.02 Y113.901 E2.31193
G1 X124.129 Y112.911 E2.34813
G1 X124.02 Y110.999 E2.41773
G1 X123.7 Y109.654 E2.46795
G1 X122.989 Y108.02 E2.53272
G1 X121.972 Y106.557 E2.59749
G1 X120.689 Y105.319 E2.66227
G1 X119.19 Y104.356 E2.72704
G1 X117.531 Y103.704 E2.79181
G1 X116.5 Y103.478 E2.83017
G1 X115.51 Y103.37 E2.86637
G1 X113.598 Y103.478 E2.93597
G1 X112.254 Y103.799 E2.98619
G1 X110.62 Y104.51 E3.05096
G1 X110.172 Y104.821 E3.07077
M106 S84.15
G1 X110.42 Y105.178 F9000
G1 F900
G1 X109.433 Y105.865 E3.11447
G1 X108.256 Y107.087 E3.17613
G1 X107.341 Y108.515 E3.23779
G1 X106.721 Y110.094 E3.29945
G1 X106.506 Y111.084 E3.33625
G1 X106.406 Y112.003 E3.36985
G1 X106.506 Y113.815 E3.43582
G1 X106.816 Y115.118 E3.48448
G1 X107.495 Y116.673 E3.54614
G1 X108.464 Y118.065 E3.6078
G1 X109.686 Y119.242 E3.66946
G1 X111.114 Y120.158 E3.73112
G1 X112.694 Y120.777 E3.79278
G1 X113.683 Y120.992 E3.82958
G1 X114.602 Y121.093 E3.86318
G1 X116.415 Y120.992 E3.92915
G1 X117.717 Y120.682 E3.97781
G1 X119.272 Y120.004 E4.03947
G1 X120.665 Y119.035 E4.10113
G1 X121.842 Y117.813 E4.16279
G1 X122.757 Y116.384 E4.22445
G1 X123.377 Y114.805 E4.28611
G1 X123.592 Y113.815 E4.32291
G1 X123.692 Y112.896 E4.35651
G1 X123.592 Y111.084 E4.42248
G1 X123.282 Y109.781 E4.47114
G1 X122.603 Y108.226 E4.5328
G1 X121.634 Y106.834 E4.59446
G1 X120.412 Y105.657 E4.65612
G1 X118.984 Y104.741 E4.71778
G1 X117.404 Y104.122 E4.77944
G1 X116.415 Y103.907 E4.81623
G1 X115.496 Y103.807 E4.84984
G1 X113.683 Y103.907 E4.91581
G1 X112.381 Y104.217 E4.96447
G1 X110.826 Y104.896 E5.02613
G1 X110.469 Y105.144 E5.0419
M106 S84.15
G1 X110.718 Y105.5 F9000
G1 F900
G1 X109.71 Y106.202 E5.08654
G1 X108.594 Y107.364 E5.14509
G1 X107.726 Y108.721 E5.20364
G1 X107.139 Y110.221 E5.26218
G1 X106.843 Y112.017 E5.32834
G1 X106.935 Y113.73 E5.39068
G1 X107.234 Y114.991 E5.43778
G1 X107.88 Y116.467 E5.49633
G1 X108.802 Y117.788 E5.55487
G1 X109.963 Y118.904 E5.61342
G1 X111.32 Y119.772 E5.67197
G1 X112.821 Y120.359 E5.73051
G1 X114.617 Y120.656 E5.79667
G1 X116.329 Y120.564 E5.85901
G1 X117.59 Y120.264 E5.90611
G1 X119.066 Y119.618 E5.96466
G1 X120.388 Y118.697 E6.0232
G1 X121.504 Y117.535 E6.08175
G1 X122.372 Y116.178 E6.14029
G1 X122.959 Y114.678 E6.19884
G1 X123.255 Y112.882 E6.265
G1 X123.163 Y111.169 E6.32734
G1 X122.864 Y109.908 E6.37444
G1 X122.218 Y108.432 E6.43299
G1 X121.296 Y107.111 E6.49153
G1 X120.135 Y105.995 E6.55008
G1 X118.778 Y105.127 E6.60862
G1 X117.277 Y104.54 E6.66717
G1 X115.481 Y104.244 E6.73333
G1 X113.768 Y104.336 E6.79567
G1 X112.507 Y104.635 E6.84277
G1 X111.032 Y105.281 E6.90132
G1 X110.767 Y105.466 E6.91304
M106 S84.15
G92 E0
G1 E-0.7 F3600
;WIPE_START
G1 F7200
G1 X110.275 Y105.809 E-0.985
;WIPE_END
G1 E-1 F3600
; printing object CarbonTubeHolder.STL id:0 copy 0
M486 S0
; acceleration to travel
M204 S1500
G1 X112.496 Y108.466 F9000
; decel to extrusion
M204 S500
G1 X112.77 Y108.794
; end travel
G1 E0 F2400
;TYPE:External perimeter
;WIDTH:0.42
G1 F900
M106 S255
G1 X112.692 Y108.841 E0.00286
G1 X112.2 Y109.215 E0.02224
G1 X111.766 Y109.656 E0.04163
G1 X111.569 Y109.907 E0.05162
G1 X111.243 Y110.427 E0.07089
G1 X111.104 Y110.714 E0.08089
G1 X110.897 Y111.293 E0.10015
G1 X110.823 Y111.603 E0.11015
G1 X110.745 Y112.216 E0.12953
G1 X110.756 Y112.838 E0.14904
G1 X110.857 Y113.452 E0.16854
G1 X111.043 Y114.041 E0.18793
G1 X111.318 Y114.608 E0.20767
G1 X111.665 Y115.12 E0.22706
G1 X112.082 Y115.576 E0.24644
G1 X112.321 Y115.787 E0.25644
G1 X112.827 Y116.143 E0.27582
G1 X113.378 Y116.423 E0.29521
G1 X113.975 Y116.624 E0.31495
G1 X114.581 Y116.735 E0.33428
G1 X115.049 Y116.76 E0.34897
G1 X115.517 Y116.735 E0.36366
G1 X116.123 Y116.624 E0.38299
G1 X116.425 Y116.534 E0.39286
G1 X116.72 Y116.423 E0.40274
G1 X117.271 Y116.143 E0.42213
G1 X117.777 Y115.787 E0.44151
G1 X118.016 Y115.576 E0.45151
G1 X118.433 Y115.12 E0.47089
G1 X118.782 Y114.605 E0.4904
G1 X119.052 Y114.049 E0.50978
G1 X119.158 Y113.752 E0.51966
G1 X119.242 Y113.448 E0.52954
G1 X119.342 Y112.838 E0.54892
G1 X119.353 Y112.216 E0.56843
G1 X119.275 Y111.599 E0.58793
G1 X119.109 Y111.003 E0.60732
G1 X118.991 Y110.707 E0.61731
G1 X118.704 Y110.164 E0.63658
G1 X118.525 Y109.9 E0.64658
G1 X118.127 Y109.432 E0.66584
G1 X117.895 Y109.213 E0.67584
G1 X117.406 Y108.841 E0.69511
G1 X117.133 Y108.677 E0.7051
G1 X116.572 Y108.417 E0.72449
G1 X115.979 Y108.241 E0.74387
G1 X115.669 Y108.184 E0.75375
G1 X115.356 Y108.15 E0.76363
G1 X114.738 Y108.15 E0.78301
G1 X114.126 Y108.239 E0.8024
G1 X113.821 Y108.318 E0.81227
G1 X113.523 Y108.419 E0.82215
G1 X112.965 Y108.677 E0.84142
G1 X112.821 Y108.763 E0.84668
M106 S84.15
;WIPE_START
G1 X112.42 Y108.6 F9000
;WIPE_END
G1 X112.507 Y108.4
G1 F900
M106 S255
G1 X112.657 Y108.3 E0.85235
G1 X112.927 Y108.155 E0.86196
G1 X113.513 Y107.913 E0.88182
G1 X113.806 Y107.824 E0.89143
G1 X114.424 Y107.701 E0.91118
G1 X115.052 Y107.66 E0.93093
G1 X115.362 Y107.67 E0.94065
G1 X115.671 Y107.7 E0.95037
G1 X116.292 Y107.824 E0.97023
G1 X116.585 Y107.913 E0.97984
G1 X117.171 Y108.155 E0.9997
G1 X117.441 Y108.3 E1.00931
G1 X117.968 Y108.652 E1.02918
G1 X118.205 Y108.846 E1.03879
G1 X118.652 Y109.294 E1.05865
G1 X118.847 Y109.531 E1.06826
G1 X119.199 Y110.058 E1.08812
G1 X119.343 Y110.328 E1.09773
G1 X119.586 Y110.913 E1.11759
G1 X119.675 Y111.207 E1.1272
G1 X119.798 Y111.824 E1.14695
G1 X119.839 Y112.453 E1.1667
G1 X119.829 Y112.763 E1.17643
G1 X119.798 Y113.071 E1.18614
G1 X119.675 Y113.693 E1.206
G1 X119.586 Y113.986 E1.21562
G1 X119.343 Y114.571 E1.23548
G1 X119.199 Y114.842 E1.24509
G1 X118.847 Y115.368 E1.26495
G1 X118.652 Y115.605 E1.27456
G1 X118.205 Y116.053 E1.29442
G1 X117.968 Y116.248 E1.30403
G1 X117.441 Y116.599 E1.32389
G1 X117.171 Y116.744 E1.3335
G1 X116.585 Y116.986 E1.35336
G1 X116.292 Y117.075 E1.36297
G1 X115.674 Y117.198 E1.38273
G1 X115.046 Y117.239 E1.40248
G1 X114.736 Y117.229 E1.4122
G1 X114.427 Y117.199 E1.42192
G1 X113.806 Y117.075 E1.44178
G1 X113.513 Y116.986 E1.45139
G1 X112.927 Y116.744 E1.47125
G1 X112.657 Y116.599 E1.48086
G1 X112.13 Y116.248 E1.50072
G1 X111.893 Y116.053 E1.51033
