; generated by SuperSlicer 2.4 on 2023-11-04 at 03:45:41 UTC

; 

; external perimeters extrusion width = 0.42mm
; perimeters extrusion width = 0.46mm
; infill extrusion width = 0.44mm
; solid infill extrusion width = 0.46mm
; top infill extrusion width = 0.44mm
; first layer extrusion width = 0.56mm

; object:{"name":"CarbonTubeHolder","id":"CarbonTubeHolder.STL id:0 copy 0","object_center":[115.000000,112.500000,0.000000],"boundingbox_center":[115.000000,112.500000,5.000000],"boundingbox_size":[10.000000,10.000000,10.000000]}
; Total objects to print: 1
M486 T1
; plater:{"center":[115.000000,112.500000,0.000000],"boundingbox_center":[115.000000,112.500000,5.000000],"boundingbox_size":[10.000000,10.000000,10.000000]}

;TYPE:Custom
G90 ; use absolute coordinates
M83 ; extruder relative mode
M140 S60 ; set final bed temp
M104 S150 ; set temporary nozzle temp to prevent oozing during homing and auto bed leveling
G4 S10 ; allow partial nozzle warmup
G28 ; home all axis
G1 Z50 F240
G1 X2 Y10 F3000
M104 S205 ; set final nozzle temp
M190 S60 ; wait for bed temp to stabilize
M109 S205 ; wait for nozzle temp to stabilize
G1 Z0.28 F240
G92 E0
G1 Y140 E10 F1500 ; prime the nozzle
G1 X2.3 F5000
G92 E0
G1 Y10 E10 F1200 ; prime the nozzle
G92 E0
M107
G21 ; set units to millimeters
G90 ; use absolute coordinates
M82 ; use absolute distances for extrusion
G92 E0
; Filament gcode
;_TOOLCHANGE 0
M107
;LAYER_CHANGE
;Z:0.2
;HEIGHT:0.2
;BEFORE_LAYER_CHANGE
;0.2


G1 E-1 F3600
G1 Z0.2 F9000
;AFTER_LAYER_CHANGE
;0.2
G92 E0
M204 S500
G1 X109.107 Y105.577
G1 E1 F2400
;TYPE:Skirt
;WIDTH:0.48
G1 F900
G1 X107.87 Y106.86 E1.06477
G1 X106.906 Y108.359 E1.12955
G1 X106.254 Y110.018 E1.19432
G1 X106.029 Y111.049 E1.23267
G1 X105.92 Y112.039 E1.26887
G1 X106.029 Y113.951 E1.33847
G1 X106.349 Y115.295 E1.38869
G1 X107.06 Y116.929 E1.45347
G1 X108.077 Y118.393 E1.51824
G1 X109.36 Y119.63 E1.58301
G1 X110.859 Y120.594 E1.64778
G1 X112.518 Y121.246 E1.71256
G1 X113.549 Y121.471 E1.75091
G1 X114.539 Y121.58 E1.78711
G1 X116.451 Y121.471 E1.85671
G1 X117.795 Y121.151 E1.90693
G1 X119.429 Y120.44 E1.9717
G1 X120.893 Y119.423 E2.03648
G1 X122.13 Y118.14 E2.10125
G1 X123.094 Y116.641 E2.16602
G1 X123.746 Y114.982 E2.23079
G1 X123.971 Y113.951 E2.26915
G1 X124.08 Y112.961 E2.30535
G1 X123.971 Y111.049 E2.37495
G1 X123.651 Y109.705 E2.42517
G1 X122.94 Y108.071 E2.48994
G1 X121.923 Y106.607 E2.55471
G1 X120.64 Y105.37 E2.61949
G1 X119.141 Y104.406 E2.68426
G1 X117.482 Y103.754 E2.74903
G1 X116.451 Y103.529 E2.78739
G1 X115.461 Y103.42 E2.82359
G1 X113.549 Y103.529 E2.89319
G1 X112.205 Y103.849 E2.94341
G1 X110.571 Y104.56 E3.00818
G1 X109.156 Y105.543 E3.07077
G1 X109.405 Y105.9 F9000
G1 F900
G1 X109.384 Y105.915 E3.0717
G1 X108.207 Y107.137 E3.13335
G1 X107.292 Y108.565 E3.19501
G1 X106.672 Y110.145 E3.25667
G1 X106.457 Y111.134 E3.29347
G1 X106.357 Y112.053 E3.32707
G1 X106.457 Y113.866 E3.39304
G1 X106.767 Y115.168 E3.44171
G1 X107.446 Y116.723 E3.50336
G1 X108.415 Y118.116 E3.56502
G1 X109.637 Y119.293 E3.62668
G1 X111.065 Y120.208 E3.68834
G1 X112.645 Y120.828 E3.75
G1 X113.634 Y121.043 E3.7868
G1 X114.553 Y121.143 E3.8204
G1 X116.366 Y121.043 E3.88637
G1 X117.668 Y120.733 E3.93503
G1 X119.223 Y120.054 E3.99669
G1 X120.616 Y119.085 E4.05835
G1 X121.793 Y117.863 E4.12001
G1 X122.708 Y116.435 E4.18167
G1 X123.328 Y114.855 E4.24333
G1 X123.543 Y113.866 E4.28013
G1 X123.643 Y112.947 E4.31373
G1 X123.543 Y111.134 E4.3797
G1 X123.233 Y109.832 E4.42836
G1 X122.554 Y108.277 E4.49002
G1 X121.585 Y106.884 E4.55168
G1 X120.363 Y105.707 E4.61334
G1 X118.935 Y104.792 E4.675
G1 X117.355 Y104.172 E4.73666
G1 X116.366 Y103.957 E4.77346
G1 X115.447 Y103.857 E4.80706
G1 X113.634 Y103.957 E4.87303
G1 X112.332 Y104.267 E4.92169
G1 X110.777 Y104.946 E4.98335
G1 X109.454 Y105.866 E5.0419
G1 X109.703 Y106.224 F9000
G1 F900
G1 X109.661 Y106.253 E5.04377
G1 X108.545 Y107.414 E5.10231
G1 X107.677 Y108.771 E5.16086
G1 X107.09 Y110.272 E5.2194
G1 X106.794 Y112.068 E5.28556
G1 X106.886 Y113.781 E5.3479
G1 X107.185 Y115.042 E5.395
G1 X107.831 Y116.517 E5.45355
G1 X108.753 Y117.839 E5.5121
G1 X109.914 Y118.955 E5.57064
G1 X111.271 Y119.823 E5.62919
G1 X112.772 Y120.41 E5.68773
G1 X114.568 Y120.706 E5.75389
G1 X116.281 Y120.614 E5.81623
G1 X117.542 Y120.315 E5.86333
G1 X119.017 Y119.669 E5.92188
G1 X120.339 Y118.747 E5.98043
G1 X121.455 Y117.586 E6.03897
G1 X122.323 Y116.229 E6.09752
G1 X122.91 Y114.728 E6.15606
G1 X123.206 Y112.932 E6.22222
G1 X123.114 Y111.219 E6.28456
G1 X122.815 Y109.958 E6.33166
G1 X122.169 Y108.483 E6.39021
G1 X121.247 Y107.161 E6.44875
G1 X120.086 Y106.045 E6.5073
G1 X118.729 Y105.177 E6.56585
G1 X117.228 Y104.59 E6.62439
G1 X115.432 Y104.294 E6.69055
G1 X113.719 Y104.386 E6.75289
G1 X112.458 Y104.685 E6.79999
G1 X110.983 Y105.331 E6.85854
G1 X109.753 Y106.189 E6.91304
G92 E0
G1 E-0.7 F3600
;WIPE_START
G1 F7200
G1 X109.661 Y106.253 E-0.75283
G1 X109.323 Y106.605 E-0.985
;WIPE_END
G1 E-1 F3600
; printing object CarbonTubeHolder.STL id:0 copy 0
M486 S0
; acceleration to travel
M204 S1500
G1 X111.758 Y108.788 F9000
; decel to extrusion
M204 S500
G1 X112.056 Y109.054
; end travel
G1 E0 F2400
;TYPE:External perimeter
;WIDTH:0.564
G1 F900
G1 X111.603 Y109.499 E0.02749
G1 X111.215 Y110.007 E0.0552
G1 X110.904 Y110.56 E0.08269
G1 X110.774 Y110.863 E0.09698
G1 X110.588 Y111.464 E0.12425
G1 X110.525 Y111.783 E0.13833
G1 X110.485 Y112.106 E0.15241
G1 X110.474 Y112.735 E0.17968
G1 X110.503 Y113.063 E0.19397
G1 X110.624 Y113.681 E0.22125
G1 X110.722 Y113.996 E0.23554
G1 X110.97 Y114.575 E0.26281
G1 X111.132 Y114.862 E0.27711
G1 X111.496 Y115.375 E0.30438
G1 X111.715 Y115.623 E0.31867
G1 X112.179 Y116.048 E0.34594
G1 X112.445 Y116.243 E0.36024
G1 X112.992 Y116.564 E0.38773
G1 X113.584 Y116.806 E0.41543
G1 X114.199 Y116.961 E0.44292
G1 X114.523 Y117.007 E0.45711
G1 X115.002 Y117.032 E0.47785
G1 X115.477 Y117.007 E0.49847
G1 X115.801 Y116.961 E0.51265
G1 X116.416 Y116.806 E0.54014
G1 X117.008 Y116.564 E0.56785
G1 X117.555 Y116.243 E0.59534
G1 X117.821 Y116.048 E0.60963
G1 X118.285 Y115.623 E0.6369
G1 X118.5 Y115.379 E0.65098
G1 X118.698 Y115.121 E0.66506
G1 X119.028 Y114.579 E0.69255
G1 X119.28 Y113.992 E0.72025
G1 X119.446 Y113.379 E0.74774
G1 X119.498 Y113.059 E0.76182
G1 X119.526 Y112.735 E0.7759
G1 X119.515 Y112.101 E0.80339
G1 X119.414 Y111.469 E0.83109
G1 X119.226 Y110.863 E0.85858
G1 X119.096 Y110.56 E0.87288
G1 X118.788 Y110.011 E0.90015
G1 X118.6 Y109.746 E0.91423
G1 X118.393 Y109.495 E0.9283
G1 X117.941 Y109.051 E0.95579
G1 X117.43 Y108.674 E0.98328
G1 X117.145 Y108.508 E0.99758
G1 X116.572 Y108.249 E1.02485
G1 X116.258 Y108.146 E1.03914
G1 X115.638 Y108.012 E1.06663
G1 X115.005 Y107.968 E1.09412
G1 X114.68 Y107.979 E1.1082
G1 X114.357 Y108.013 E1.12227
G1 X113.742 Y108.146 E1.14955
G1 X113.428 Y108.249 E1.16384
G1 X112.85 Y108.51 E1.19133
G1 X112.314 Y108.849 E1.21882
G1 X112.103 Y109.017 E1.23051
;WIPE_START
G1 X111.674 Y108.934 F9000
;WIPE_END
G1 X111.939 Y108.912
G1 F900
G1 X112.124 Y108.76 E1.2409
G1 X112.645 Y108.412 E1.26804
G1 X112.909 Y108.271 E1.28101
G1 X113.488 Y108.031 E1.30815
G1 X113.775 Y107.944 E1.32113
G1 X114.384 Y107.823 E1.34806
G1 X115.005 Y107.782 E1.375
G1 X115.309 Y107.792 E1.38818
G1 X115.611 Y107.822 E1.40135
G1 X116.225 Y107.944 E1.42849
G1 X116.512 Y108.031 E1.44147
G1 X117.091 Y108.271 E1.4686
G1 X117.355 Y108.412 E1.48158
G1 X117.876 Y108.76 E1.50872
G1 X118.107 Y108.95 E1.52169
G1 X118.55 Y109.393 E1.54883
G1 X118.74 Y109.624 E1.56181
G1 X119.088 Y110.145 E1.58894
G1 X119.229 Y110.409 E1.60192
G1 X119.469 Y110.988 E1.62906
G1 X119.556 Y111.275 E1.64203
G1 X119.677 Y111.884 E1.66897
G1 X119.718 Y112.505 E1.69591
G1 X119.708 Y112.809 E1.70908
G1 X119.678 Y113.111 E1.72226
G1 X119.556 Y113.725 E1.7494
G1 X119.469 Y114.012 E1.76237
G1 X119.229 Y114.591 E1.78951
G1 X119.088 Y114.855 E1.80249
G1 X118.74 Y115.376 E1.82962
G1 X118.55 Y115.607 E1.8426
G1 X118.107 Y116.05 E1.86974
G1 X117.876 Y116.24 E1.88271
G1 X117.355 Y116.588 E1.90985
G1 X117.091 Y116.729 E1.92283
G1 X116.512 Y116.969 E1.94996
G1 X116.225 Y117.056 E1.96294
G1 X115.616 Y117.177 E1.98988
G1 X114.995 Y117.218 E2.01681
G1 X114.691 Y117.208 E2.02999
G1 X114.389 Y117.178 E2.04316
G1 X113.775 Y117.056 E2.0703
G1 X113.488 Y116.969 E2.08328
G1 X112.909 Y116.729 E2.11041
G1 X112.645 Y116.588 E2.12339
G1 X112.124 Y116.24 E2.15053
G1 X111.893 Y116.05 E2.1635
G1 X111.45 Y115.607 E2.19064
G1 X111.26 Y115.376 E2.20362
G1 X110.912 Y114.855 E2.23075
G1 X110.771 Y114.591 E2.24373
G1 X110.531 Y114.012 E2.27087
G1 X110.444 Y113.725 E2.28384
G1 X110.323 Y113.116 E2.31078
G1 X110.282 Y112.495 E2.33772
G1 X110.292 Y112.191 E2.35089
G1 X110.322 Y111.889 E2.36407
G1 X110.444 Y111.275 E2.39121
G1 X110.531 Y110.988 E2.40418
G1 X110.771 Y110.409 E2.43132
G1 X110.912 Y110.145 E2.4443
G1 X111.26 Y109.624 E2.47143
G1 X111.45 Y109.393 E2.48441
G1 X111.893 Y108.95 E2.51154
;WIPE_START
G1 X112.317 Y109.042 F9000
;WIPE_END
M106 S84.15
;LAYER_CHANGE
;Z:0.4
;HEIGHT:0.2
;BEFORE_LAYER_CHANGE
;0.4


G92 E0
G1 E-0.7 F3600
;WIPE_START
G1 F7200
G1 X112.729 Y108.605 E-0.985
;WIPE_END
G1 E-1 F3600
; stop printing object CarbonTubeHolder.STL id:0 copy 0
M486 S-1
G1 Z0.4 F9000
;AFTER_LAYER_CHANGE
;0.4
M104 S200 ; set temperature
G92 E0
; acceleration to travel
M204 S1500
G1 X110.414 Y105.273
; decel to extrusion
M204 S500
G1 X110.132 Y104.865
; end travel
G1 E1 F2400
;TYPE:Skirt
;WIDTH:0.48
G1 F900
G1 X109.107 Y105.577 E1.04534
G1 X107.87 Y106.86 E1.11011
G1 X106.906 Y108.359 E1.17489
G1 X106.254 Y110.018 E1.23966
G1 X106.029 Y111.049 E1.27801
G1 X105.92 Y112.039 E1.31421
G1 X106.029 Y113.951 E1.38381
G1 X106.349 Y115.295 E1.43403
G1 X107.06 Y116.929 E1.49881
G1 X108.077 Y118.393 E1.56358
G1 X109.36 Y119.63 E1.62835
G1 X110.859 Y120.594 E1.69312
G1 X112.518 Y121.246 E1.7579
G1 X113.549 Y121.471 E1.79625
G1 X114.539 Y121.58 E1.83245
G1 X116.451 Y121.471 E1.90205
G1 X117.795 Y121.151 E1.95227
G1 X119.429 Y120.44 E2.01704
G1 X120.893 Y119.423 E2.08182
G1 X122.13 Y118.14 E2.14659
G1 X123.094 Y116.641 E2.21136
G1 X123.746 Y114.982 E2.27613
G1 X123.971 Y113.951 E2.31449
G1 X124.08 Y112.961 E2.35069
G1 X123.971 Y111.049 E2.42029
G1 X123.651 Y109.705 E2.47051
G1 X122.94 Y108.071 E2.53528
G1 X121.923 Y106.607 E2.60005
G1 X120.64 Y105.37 E2.66483
G1 X119.141 Y104.406 E2.7296
G1 X117.482 Y103.754 E2.79437
G1 X116.451 Y103.529 E2.83273
G1 X115.461 Y103.42 E2.86893
G1 X113.549 Y103.529 E2.93853
G1 X112.205 Y103.849 E2.98875
G1 X110.571 Y104.56 E3.05352
G1 X110.181 Y104.831 E3.07077
M106 S84.15
G1 X110.429 Y105.188 F9000
G1 F900
G1 X109.384 Y105.915 E3.11703
G1 X108.207 Y107.137 E3.17869
G1 X107.292 Y108.565 E3.24035
G1 X106.672 Y110.145 E3.30201
G1 X106.457 Y111.134 E3.33881
G1 X106.357 Y112.053 E3.37241
G1 X106.457 Y113.866 E3.43838
G1 X106.767 Y115.168 E3.48705
G1 X107.446 Y116.723 E3.5487
G1 X108.415 Y118.116 E3.61036
G1 X109.637 Y119.293 E3.67202
G1 X111.065 Y120.208 E3.73368
G1 X112.645 Y120.828 E3.79534
G1 X113.634 Y121.043 E3.83214
G1 X114.553 Y121.143 E3.86574
G1 X116.366 Y121.043 E3.93171
G1 X117.668 Y120.733 E3.98037
G1 X119.223 Y120.054 E4.04203
G1 X120.616 Y119.085 E4.10369
G1 X121.793 Y117.863 E4.16535
G1 X122.708 Y116.435 E4.22701
G1 X123.328 Y114.855 E4.28867
G1 X123.543 Y113.866 E4.32547
G1 X123.643 Y112.947 E4.35907
G1 X123.543 Y111.134 E4.42504
G1 X123.233 Y109.832 E4.4737
G1 X122.554 Y108.277 E4.53536
G1 X121.585 Y106.884 E4.59702
G1 X120.363 Y105.707 E4.65868
G1 X118.935 Y104.792 E4.72034
G1 X117.355 Y104.172 E4.782
G1 X116.366 Y103.957 E4.8188
G1 X115.447 Y103.857 E4.8524
G1 X113.634 Y103.957 E4.91837
G1 X112.332 Y104.267 E4.96703
G1 X110.777 Y104.946 E5.02869
G1 X110.478 Y105.154 E5.0419
M106 S84.15
G1 X110.727 Y105.51 F9000
G1 F900
G1 X109.661 Y106.253 E5.08911
G1 X108.545 Y107.414 E5.14765
G1 X107.677 Y108.771 E5.2062
G1 X107.09 Y110.272 E5.26474
G1 X106.794 Y112.068 E5.3309
G1 X106.886 Y113.781 E5.39324
G1 X107.185 Y115.042 E5.44034
G1 X107.831 Y116.517 E5.49889
G1 X108.753 Y117.839 E5.55744
G1 X109.914 Y118.955 E5.61598
G1 X111.271 Y119.823 E5.67453
G1 X112.772 Y120.41 E5.73307
G1 X114.568 Y120.706 E5.79923
G1 X116.281 Y120.614 E5.86157
G1 X117.542 Y120.315 E5.90867
G1 X119.017 Y119.669 E5.96722
G1 X120.339 Y118.747 E6.02576
G1 X121.455 Y117.586 E6.08431
G1 X122.323 Y116.229 E6.14286
G1 X122.91 Y114.728 E6.2014
G1 X123.206 Y112.932 E6.26756
G1 X123.114 Y111.219 E6.3299
G1 X122.815 Y109.958 E6.377
G1 X122.169 Y108.483 E6.43555
G1 X121.247 Y107.161 E6.49409
G1 X120.086 Y106.045 E6.55264
G1 X118.729 Y105.177 E6.61119
G1 X117.228 Y104.59 E6.66973
G1 X115.432 Y104.294 E6.73589
G1 X113.719 Y104.386 E6.79823
G1 X112.458 Y104.685 E6.84533
G1 X110.983 Y105.331 E6.90388
G1 X110.776 Y105.476 E6.91304
M106 S84.15
G92 E0
G1 E-0.7 F3600
;WIPE_START
G1 F7200
G1 X110.284 Y105.819 E-0.985
;WIPE_END
G1 E-1 F3600
; printing object CarbonTubeHolder.STL id:0 copy 0
M486 S0
; acceleration to travel
M204 S1500
G1 X112.506 Y108.329 F9000
; decel to extrusion
M204 S500
G1 X112.78 Y108.639
; end travel
G1 E0 F2400
;TYPE:External perimeter
;WIDTH:0.42
G1 F900
M106 S255
G1 X112.356 Y108.908 E0.01576
G1 X112.103 Y109.108 E0.02586
G1 X111.657 Y109.547 E0.04547
G1 X111.275 Y110.046 E0.0652
G1 X110.969 Y110.592 E0.08482
G1 X110.841 Y110.888 E0.09492
G1 X110.657 Y111.482 E0.11442
G1 X110.596 Y111.794 E0.12441
G1 X110.557 Y112.111 E0.13439
G1 X110.546 Y112.732 E0.15389
G1 X110.574 Y113.053 E0.16399
G1 X110.694 Y113.663 E0.18349
G1 X110.789 Y113.971 E0.19359
G1 X111.035 Y114.543 E0.21309
G1 X111.193 Y114.824 E0.2232
G1 X111.553 Y115.33 E0.24269
G1 X111.766 Y115.572 E0.2528
G1 X112.225 Y115.992 E0.27229
G1 X112.484 Y116.183 E0.2824
G1 X113.024 Y116.499 E0.30201
G1 X113.607 Y116.737 E0.32174
G1 X114.213 Y116.89 E0.34136
G1 X114.53 Y116.935 E0.3514
G1 X115 Y116.96 E0.36615
G1 X115.47 Y116.935 E0.38089
G1 X115.787 Y116.89 E0.39094
G1 X116.393 Y116.737 E0.41055
G1 X116.976 Y116.499 E0.43028
G1 X117.516 Y116.183 E0.44989
G1 X117.775 Y115.992 E0.46
G1 X118.234 Y115.572 E0.4795
G1 X118.445 Y115.333 E0.48948
G1 X118.638 Y115.08 E0.49947
G1 X118.964 Y114.546 E0.51908
G1 X119.212 Y113.968 E0.53881
G1 X119.376 Y113.364 E0.55843
G1 X119.426 Y113.05 E0.56842
G1 X119.454 Y112.732 E0.5784
G1 X119.443 Y112.107 E0.59802
G1 X119.344 Y111.486 E0.61775
G1 X119.159 Y110.888 E0.63736
G1 X119.031 Y110.592 E0.64746
G1 X118.727 Y110.05 E0.66696
G1 X118.542 Y109.79 E0.67695
G1 X118.34 Y109.544 E0.68694
G1 X117.894 Y109.106 E0.70655
G1 X117.39 Y108.734 E0.72616
G1 X117.112 Y108.572 E0.73627
G1 X116.545 Y108.316 E0.75576
G1 X116.239 Y108.215 E0.76587
G1 X115.628 Y108.084 E0.78548
G1 X115.004 Y108.04 E0.8051
G1 X114.685 Y108.051 E0.81508
G1 X114.369 Y108.085 E0.82507
G1 X113.761 Y108.215 E0.84457
G1 X113.455 Y108.316 E0.85467
G1 X112.884 Y108.573 E0.87429
G1 X112.831 Y108.607 E0.87626
M106 S84.15
;WIPE_START
G1 X112.426 Y108.453 F9000
;WIPE_END
G1 X112.594 Y108.36
G1 F900
M106 S255
G1 X112.878 Y108.206 E0.88641
G1 X113.464 Y107.963 E0.90627
G1 X113.757 Y107.874 E0.91588
G1 X114.375 Y107.751 E0.93563
G1 X115.003 Y107.71 E0.95539
G1 X115.313 Y107.72 E0.96511
G1 X115.622 Y107.751 E0.97482
G1 X116.243 Y107.874 E0.99468
G1 X116.536 Y107.963 E1.0043
G1 X117.122 Y108.206 E1.02416
G1 X117.392 Y108.35 E1.03377
G1 X117.919 Y108.702 E1.05363
G1 X118.156 Y108.897 E1.06324
G1 X118.603 Y109.344 E1.0831
G1 X118.798 Y109.581 E1.09271
G1 X119.15 Y110.108 E1.11257
G1 X119.294 Y110.378 E1.12218
G1 X119.537 Y110.964 E1.14204
G1 X119.626 Y111.257 E1.15166
G1 X119.749 Y111.875 E1.17141
G1 X119.79 Y112.503 E1.19116
G1 X119.78 Y112.813 E1.20088
G1 X119.749 Y113.122 E1.2106
G1 X119.626 Y113.743 E1.23046
G1 X119.537 Y114.036 E1.24007
G1 X119.294 Y114.622 E1.25993
G1 X119.15 Y114.892 E1.26954
G1 X118.798 Y115.419 E1.2894
G1 X118.603 Y115.656 E1.29901
G1 X118.156 Y116.103 E1.31887
G1 X117.919 Y116.298 E1.32848
G1 X117.392 Y116.65 E1.34834
G1 X117.122 Y116.794 E1.35796
G1 X116.536 Y117.037 E1.37782
G1 X116.243 Y117.126 E1.38743
G1 X115.625 Y117.249 E1.40718
G1 X114.997 Y117.29 E1.42693
G1 X114.687 Y117.28 E1.43665
G1 X114.378 Y117.249 E1.44637
G1 X113.757 Y117.126 E1.46623
