; generated by SuperSlicer 2.4 on 2023-11-03 at 00:37:33 UTC

; 

; external perimeters extrusion width = 0.42mm
; perimeters extrusion width = 0.46mm
; infill extrusion width = 0.44mm
; solid infill extrusion width = 0.46mm
; top infill extrusion width = 0.44mm
; first layer extrusion width = 0.56mm

; object:{"name":"EncoderPlate","id":"EncoderPlate.STL id:0 copy 0","object_center":[115.000000,112.500000,0.000000],"boundingbox_center":[115.000000,112.500000,1.500000],"boundingbox_size":[78.784622,70.627357,3.000000]}
; Total objects to print: 1
M486 T1
; plater:{"center":[115.000000,112.500000,0.000000],"boundingbox_center":[115.000000,112.500000,1.500000],"boundingbox_size":[78.784622,70.627357,3.000000]}

;TYPE:Custom
G90 ; use absolute coordinates
M83 ; extruder relative mode
M140 S60 ; set final bed temp
M104 S150 ; set temporary nozzle temp to prevent oozing during homing and auto bed leveling
G4 S10 ; allow partial nozzle warmup
G28 ; home all axis
G1 Z50 F240
G1 X2 Y10 F3000
M104 S205 ; set final nozzle temp
M190 S60 ; wait for bed temp to stabilize
M109 S205 ; wait for nozzle temp to stabilize
G1 Z0.28 F240
G92 E0
G1 Y140 E10 F1500 ; prime the nozzle
G1 X2.3 F5000
G92 E0
G1 Y10 E10 F1200 ; prime the nozzle
G92 E0
M107
G21 ; set units to millimeters
G90 ; use absolute coordinates
M82 ; use absolute distances for extrusion
G92 E0
; Filament gcode
;_TOOLCHANGE 0
M107
;LAYER_CHANGE
;Z:0.2
;HEIGHT:0.2
;BEFORE_LAYER_CHANGE
;0.2


G1 E-2 F3600
G1 Z0.2 F9000
;AFTER_LAYER_CHANGE
;0.2
G92 E0
M204 S500
G1 X83.772 Y77.953
G1 E2 F2400
;TYPE:Skirt
;WIDTH:0.48
G1 F1200
G1 X82.213 Y79.672 E2.08434
G1 X80.855 Y81.336 E2.1624
G1 X79.482 Y83.207 E2.24674
G1 X78.211 Y85.149 E2.33108
G1 X77.047 Y87.156 E2.41541
G1 X75.992 Y89.223 E2.49975
G1 X74.984 Y91.504 E2.59037
G1 X74.166 Y93.675 E2.67471
G1 X73.465 Y95.887 E2.75905
G1 X72.884 Y98.134 E2.84338
G1 X72.454 Y100.238 E2.92144
G1 X72.82 Y102.491 E3.0044
G1 X98.532 Y147.025 E4.87329
G1 X100.3 Y148.469 E4.95624
G1 X102.503 Y149.199 E5.04058
G1 X104.573 Y149.769 E5.11864
G1 X107.01 Y150.3 E5.20926
G1 X109.301 Y150.668 E5.2936
G1 X111.609 Y150.912 E5.37794
G1 X113.926 Y151.032 E5.46227
G1 X116.074 Y151.032 E5.54033
G1 X118.564 Y150.898 E5.63095
G1 X120.87 Y150.645 E5.71529
G1 X122.99 Y150.3 E5.79335
G1 X125.426 Y149.769 E5.88397
G1 X127.497 Y149.199 E5.96203
G1 X129.7 Y148.469 E6.04636
G1 X131.468 Y147.025 E6.12932
G1 X157.18 Y102.491 E7.9982
G1 X157.546 Y100.238 E8.08116
G1 X157.116 Y98.134 E8.15922
G1 X156.535 Y95.887 E8.24356
G1 X155.834 Y93.675 E8.3279
G1 X155.016 Y91.504 E8.41224
G1 X154.082 Y89.379 E8.49658
G1 X153.035 Y87.308 E8.58091
G1 X151.879 Y85.296 E8.66525
G1 X150.616 Y83.349 E8.74959
G1 X149.145 Y81.336 E8.84021
G1 X147.674 Y79.541 E8.92455
G1 X146.109 Y77.828 E9.00889
G1 X144.58 Y76.32 E9.08695
G1 X142.846 Y74.777 E9.17128
G1 X140.712 Y73.968 E9.25424
G1 X89.288 Y73.968 E11.12312
G1 X87.154 Y74.777 E11.20608
G1 X85.42 Y76.32 E11.29042
G1 X83.814 Y77.91 E11.37258
G92 E0
G1 E-1.4 F3600
;WIPE_START
G1 F7200
G1 X83.007 Y78.798 E-1.97
;WIPE_END
G1 E-2 F3600
; printing object EncoderPlate.STL id:0 copy 0
M486 S0
; acceleration to travel
M204 S1500
G1 X118.284 Y108.426 F9000
; decel to extrusion
M204 S500
G1 X122.593 Y112.045
; end travel
G1 E0 F2400
;TYPE:Internal perimeter
;WIDTH:0.564
G1 F1200
G1 X122.424 Y112.254 E0.01164
G1 X122.213 Y112.66 E0.03148
G1 X122.135 Y112.94 E0.0441
G1 X122.095 Y113.229 E0.05671
G1 X122.126 Y113.686 E0.07655
G1 X122.213 Y113.996 E0.09051
G1 X122.424 Y114.403 E0.11036
G1 X122.627 Y114.653 E0.12431
G1 X123.007 Y114.961 E0.14551
G1 X123.484 Y115.169 E0.16807
G1 X123.969 Y115.235 E0.18927
G1 X124.259 Y115.216 E0.20188
G1 X124.544 Y115.156 E0.2145
G1 X124.993 Y114.961 E0.2357
G1 X125.373 Y114.653 E0.2569
G1 X125.576 Y114.403 E0.27086
G1 X125.787 Y113.996 E0.2907
G1 X125.865 Y113.716 E0.30331
G1 X125.905 Y113.427 E0.31593
G1 X125.874 Y112.97 E0.33577
G1 X125.787 Y112.66 E0.34973
G1 X125.576 Y112.254 E0.36957
G1 X125.373 Y112.004 E0.38353
G1 X124.993 Y111.695 E0.40473
G1 X124.544 Y111.5 E0.42593
G1 X124.229 Y111.434 E0.43989
G1 X123.771 Y111.434 E0.45974
G1 X123.456 Y111.5 E0.47369
G1 X123.007 Y111.695 E0.49489
G1 X122.632 Y112 E0.51582
G1 X122.998 Y112.374 F9000
;TYPE:External perimeter
G1 F1200
G1 X122.862 Y112.541 E0.52513
G1 X122.701 Y112.852 E0.54034
G1 X122.646 Y113.047 E0.54908
G1 X122.619 Y113.247 E0.55783
G1 X122.642 Y113.597 E0.57303
G1 X122.701 Y113.804 E0.58235
G1 X122.862 Y114.115 E0.59755
G1 X122.998 Y114.282 E0.60687
G1 X123.28 Y114.512 E0.62264
G1 X123.626 Y114.662 E0.63899
G1 X123.987 Y114.712 E0.65477
G1 X124.188 Y114.698 E0.66352
G1 X124.386 Y114.657 E0.67226
G1 X124.72 Y114.512 E0.68804
G1 X125.002 Y114.282 E0.70382
G1 X125.138 Y114.115 E0.71313
G1 X125.299 Y113.804 E0.72834
G1 X125.354 Y113.609 E0.73708
G1 X125.381 Y113.409 E0.74583
G1 X125.358 Y113.059 E0.76103
G1 X125.299 Y112.852 E0.77035
G1 X125.138 Y112.541 E0.78555
G1 X125.002 Y112.374 E0.79487
G1 X124.72 Y112.144 E0.81065
G1 X124.386 Y111.999 E0.82642
G1 X124.175 Y111.955 E0.83574
G1 X123.825 Y111.955 E0.85094
G1 X123.614 Y111.999 E0.86026
G1 X123.28 Y112.144 E0.87603
G1 X123.044 Y112.336 E0.88921
;WIPE_START
G1 X122.608 Y112.284 F9000
;WIPE_END
G92 E0
G1 E-1.4 F3600
;WIPE_START
G1 F7200
G1 X122.513 Y112.779 E-1.6393
G1 X122.45 Y113.006 E-1.75146
G1 X122.418 Y113.24 E-1.86363
G1 X122.433 Y113.463 E-1.97
;WIPE_END
G1 E-2 F3600
; acceleration to travel
M204 S1500
G1 X123.673 Y105.228 F9000
; decel to extrusion
M204 S500
G1 X123.825 Y104.222
; end travel
G1 E0 F2400
;TYPE:Internal perimeter
G1 F1200
G1 X124.229 Y104.222 E0.01752
G1 X124.544 Y104.156 E0.03148
G1 X124.993 Y103.961 E0.05268
G1 X125.373 Y103.653 E0.07388
G1 X125.576 Y103.403 E0.08784
G1 X125.787 Y102.996 E0.10769
G1 X125.865 Y102.716 E0.1203
G1 X125.905 Y102.427 E0.13291
G1 X125.874 Y101.97 E0.15276
G1 X125.787 Y101.66 E0.16672
G1 X125.576 Y101.254 E0.18656
G1 X125.373 Y101.004 E0.20052
G1 X124.993 Y100.695 E0.22172
G1 X124.544 Y100.5 E0.24292
G1 X124.229 Y100.434 E0.25688
G1 X123.771 Y100.434 E0.27672
G1 X123.456 Y100.5 E0.29068
G1 X123.007 Y100.695 E0.31188
G1 X122.627 Y101.004 E0.33308
G1 X122.424 Y101.254 E0.34704
G1 X122.213 Y101.66 E0.36688
G1 X122.135 Y101.94 E0.3795
G1 X122.095 Y102.229 E0.39211
G1 X122.126 Y102.686 E0.41195
G1 X122.213 Y102.996 E0.42591
G1 X122.424 Y103.403 E0.44576
G1 X122.627 Y103.653 E0.45972
G1 X123.007 Y103.961 E0.48092
G1 X123.456 Y104.156 E0.50212
G1 X123.765 Y104.221 E0.5158
G1 X123.825 Y103.701 F9000
;TYPE:External perimeter
G1 F1200
G1 X124.175 Y103.701 E0.531
G1 X124.386 Y103.657 E0.54032
G1 X124.72 Y103.512 E0.55609
G1 X125.002 Y103.282 E0.57187
G1 X125.138 Y103.115 E0.58119
G1 X125.299 Y102.804 E0.59639
G1 X125.354 Y102.609 E0.60514
G1 X125.381 Y102.409 E0.61388
G1 X125.358 Y102.059 E0.62909
G1 X125.299 Y101.852 E0.6384
G1 X125.138 Y101.541 E0.6536
G1 X125.002 Y101.374 E0.66292
G1 X124.72 Y101.144 E0.6787
G1 X124.386 Y100.999 E0.69447
G1 X124.175 Y100.955 E0.70379
G1 X123.825 Y100.955 E0.71899
G1 X123.614 Y100.999 E0.72831
G1 X123.28 Y101.144 E0.74409
G1 X122.998 Y101.374 E0.75986
G1 X122.862 Y101.541 E0.76918
G1 X122.701 Y101.852 E0.78438
G1 X122.646 Y102.047 E0.79313
G1 X122.619 Y102.247 E0.80188
G1 X122.642 Y102.597 E0.81708
G1 X122.701 Y102.804 E0.8264
G1 X122.862 Y103.115 E0.8416
G1 X122.998 Y103.282 E0.85091
G1 X123.28 Y103.512 E0.86669
G1 X123.614 Y103.657 E0.88247
G1 X123.766 Y103.689 E0.88918
;WIPE_START
G1 X124 Y104.06 F9000
;WIPE_END
G92 E0
G1 E-1.4 F3600
;WIPE_START
G1 F7200
G1 X124.447 Y103.849 E-1.63458
G1 X124.825 Y103.684 E-1.83035
G1 X125.053 Y103.499 E-1.97
;WIPE_END
G1 E-2 F3600
; acceleration to travel
M204 S1500
G1 X109.768 Y102.551 F9000
; decel to extrusion
M204 S500
G1 X107.901 Y102.436
; end travel
G1 E0 F2400
;TYPE:Internal perimeter
G1 F1200
G1 X107.901 Y102.167 E0.01164
G1 X107.808 Y101.719 E0.03148
G1 X107.692 Y101.452 E0.04409
G1 X107.54 Y101.203 E0.05671
G1 X107.228 Y100.868 E0.07655
G1 X106.965 Y100.682 E0.09051
G1 X106.544 Y100.5 E0.11036
G1 X106.229 Y100.434 E0.12431
G1 X105.771 Y100.434 E0.14416
G1 X105.456 Y100.5 E0.15812
G1 X105.007 Y100.695 E0.17932
G1 X104.627 Y101.004 E0.20052
G1 X104.424 Y101.254 E0.21448
G1 X104.213 Y101.66 E0.23432
G1 X104.135 Y101.94 E0.24693
G1 X104.095 Y102.229 E0.25955
G1 X104.126 Y102.686 E0.27939
G1 X104.213 Y102.996 E0.29335
G1 X104.424 Y103.403 E0.31319
G1 X104.627 Y103.653 E0.32715
G1 X105.007 Y103.961 E0.34835
G1 X105.456 Y104.156 E0.36955
G1 X105.771 Y104.222 E0.38351
G1 X106.229 Y104.222 E0.40336
G1 X106.544 Y104.156 E0.41732
G1 X106.993 Y103.961 E0.43852
G1 X107.373 Y103.653 E0.45972
G1 X107.576 Y103.403 E0.47368
G1 X107.801 Y102.968 E0.49488
G1 X107.899 Y102.495 E0.5158
G1 X107.38 Y102.436 F9000
;TYPE:External perimeter
G1 F1200
G1 X107.38 Y102.221 E0.52511
G1 X107.308 Y101.877 E0.54032
G1 X107.228 Y101.692 E0.54906
G1 X107.123 Y101.519 E0.55781
G1 X106.883 Y101.263 E0.57301
G1 X106.708 Y101.139 E0.58233
G1 X106.386 Y100.999 E0.59753
G1 X106.175 Y100.955 E0.60685
G1 X105.825 Y100.955 E0.62205
G1 X105.614 Y100.999 E0.63137
G1 X105.28 Y101.144 E0.64714
G1 X104.998 Y101.374 E0.66292
G1 X104.862 Y101.541 E0.67224
G1 X104.701 Y101.852 E0.68744
G1 X104.646 Y102.047 E0.69619
G1 X104.619 Y102.247 E0.70494
G1 X104.642 Y102.597 E0.72014
G1 X104.701 Y102.804 E0.72945
G1 X104.862 Y103.115 E0.74466
G1 X104.998 Y103.282 E0.75397
G1 X105.28 Y103.512 E0.76975
G1 X105.614 Y103.657 E0.78553
G1 X105.825 Y103.701 E0.79484
G1 X106.175 Y103.701 E0.81005
G1 X106.386 Y103.657 E0.81936
G1 X106.72 Y103.512 E0.83514
G1 X107.002 Y103.282 E0.85091
G1 X107.138 Y103.115 E0.86023
G1 X107.306 Y102.792 E0.87601
G1 X107.367 Y102.494 E0.88918
;WIPE_START
G1 X107.739 Y102.26 F9000
;WIPE_END
G92 E0
G1 E-1.4 F3600
;WIPE_START
G1 F7200
G1 X107.5 Y101.816 E-1.6393
G1 X107.406 Y101.6 E-1.75146
G1 X107.283 Y101.398 E-1.86362
G1 X107.13 Y101.234 E-1.97
;WIPE_END
G1 E-2 F3600
; acceleration to travel
M204 S1500
G1 X106.374 Y110.334 F9000
; decel to extrusion
M204 S500
G1 X106.281 Y111.445
; end travel
G1 E0 F2400
;TYPE:Internal perimeter
G1 F1200
G1 X106.229 Y111.434 E0.00232
G1 X105.771 Y111.434 E0.02217
G1 X105.456 Y111.5 E0.03612
G1 X105.007 Y111.695 E0.05732
G1 X104.627 Y112.004 E0.07853
G1 X104.424 Y112.254 E0.09248
G1 X104.213 Y112.66 E0.11233
G1 X104.135 Y112.94 E0.12494
G1 X104.095 Y113.229 E0.13755
G1 X104.126 Y113.686 E0.1574
G1 X104.213 Y113.996 E0.17136
G1 X104.424 Y114.403 E0.1912
G1 X104.627 Y114.653 E0.20516
G1 X105.007 Y114.961 E0.22636
G1 X105.484 Y115.169 E0.24892
G1 X105.969 Y115.235 E0.27012
G1 X106.259 Y115.216 E0.28273
G1 X106.544 Y115.156 E0.29534
G1 X106.993 Y114.961 E0.31654
G1 X107.373 Y114.653 E0.33774
G1 X107.576 Y114.403 E0.3517
G1 X107.801 Y113.968 E0.3729
G1 X107.901 Y113.489 E0.3941
G1 X107.901 Y113.167 E0.40806
G1 X107.808 Y112.719 E0.42791
G1 X107.692 Y112.452 E0.44052
G1 X107.54 Y112.203 E0.45313
G1 X107.228 Y111.868 E0.47298
G1 X106.965 Y111.682 E0.48693
G1 X106.544 Y111.5 E0.50678
G1 X106.34 Y111.457 E0.51582
G1 X106.175 Y111.955 F9000
;TYPE:External perimeter
G1 F1200
G1 X105.825 Y111.955 E0.53102
G1 X105.614 Y111.999 E0.54034
G1 X105.28 Y112.144 E0.55611
G1 X104.998 Y112.374 E0.57189
G1 X104.862 Y112.541 E0.5812
G1 X104.701 Y112.852 E0.59641
G1 X104.646 Y113.047 E0.60515
G1 X104.619 Y113.247 E0.6139
G1 X104.642 Y113.597 E0.6291
G1 X104.701 Y113.804 E0.63842
G1 X104.862 Y114.115 E0.65362
G1 X104.998 Y114.282 E0.66294
G1 X105.28 Y114.512 E0.67872
G1 X105.626 Y114.662 E0.69507
G1 X105.987 Y114.712 E0.71084
G1 X106.188 Y114.698 E0.71959
G1 X106.386 Y114.657 E0.72834
G1 X106.72 Y114.512 E0.74411
G1 X107.002 Y114.282 E0.75989
G1 X107.138 Y114.115 E0.76921
G1 X107.306 Y113.792 E0.78498
G1 X107.38 Y113.436 E0.80076
G1 X107.38 Y113.221 E0.81007
G1 X107.308 Y112.877 E0.82528
G1 X107.228 Y112.692 E0.83402
G1 X107.123 Y112.519 E0.84277
G1 X106.883 Y112.263 E0.85797
G1 X106.708 Y112.139 E0.86729
G1 X106.386 Y111.999 E0.88249
G1 X106.234 Y111.968 E0.88921
;WIPE_START
G1 X106 Y111.596 F9000
;WIPE_END
G92 E0
G1 E-1.4 F3600
;WIPE_START
G1 F7200
G1 X105.553 Y111.808 E-1.63458
G1 X105.175 Y111.972 E-1.83035
G1 X104.947 Y112.157 E-1.97
;WIPE_END
G1 E-2 F3600
; acceleration to travel
M204 S1500
G1 X113.297 Y138.327 F9000
; decel to extrusion
M204 S500
G1 X114.318 Y141.524
; end travel
G1 E0 F2400
;TYPE:Internal perimeter
G1 F1200
G1 X114.042 Y141.622 E0.01268
G1 X113.75 Y141.773 E0.0269
G1 X113.482 Y141.962 E0.04113
G1 X113.242 Y142.186 E0.05535
G1 X113.035 Y142.441 E0.06957
G1 X112.864 Y142.722 E0.0838
G1 X112.734 Y143.023 E0.09802
G1 X112.645 Y143.339 E0.11224
G1 X112.6 Y143.664 E0.12647
G1 X112.6 Y143.992 E0.14069
G1 X112.645 Y144.317 E0.15491
G1 X112.734 Y144.634 E0.16914
G1 X112.864 Y144.935 E0.18336
G1 X113.035 Y145.215 E0.19758
G1 X113.242 Y145.47 E0.21181
G1 X113.482 Y145.694 E0.22603
G1 X113.75 Y145.883 E0.24025
G1 X114.042 Y146.034 E0.25448
G1 X114.351 Y146.144 E0.2687
G1 X114.672 Y146.211 E0.28292
G1 X115 Y146.233 E0.29715
G1 X115.328 Y146.211 E0.31137
G1 X115.649 Y146.144 E0.32559
G1 X115.958 Y146.034 E0.33982
G1 X116.25 Y145.883 E0.35404
G1 X116.518 Y145.694 E0.36826
G1 X116.758 Y145.47 E0.38249
G1 X116.965 Y145.215 E0.39671
G1 X117.136 Y144.935 E0.41093
G1 X117.266 Y144.634 E0.42516
G1 X117.355 Y144.317 E0.43938
G1 X117.4 Y143.992 E0.4536
G1 X117.4 Y143.664 E0.46783
G1 X117.355 Y143.339 E0.48205
G1 X117.266 Y143.023 E0.49627
G1 X117.136 Y142.722 E0.5105
G1 X116.965 Y142.441 E0.52472
G1 X116.758 Y142.186 E0.53894
G1 X116.518 Y141.962 E0.55317
G1 X116.25 Y141.773 E0.56739
G1 X115.958 Y141.622 E0.58161
G1 X115.649 Y141.512 E0.59584
G1 X115.328 Y141.445 E0.61006
G1 X115 Y141.423 E0.62428
G1 X114.672 Y141.445 E0.63851
G1 X114.375 Y141.507 E0.65167
G1 X114.492 Y142.015 F9000
;TYPE:External perimeter
G1 F1200
G1 X114.25 Y142.101 E0.66281
G1 X114.022 Y142.219 E0.67394
G1 X113.812 Y142.368 E0.68508
G1 X113.624 Y142.543 E0.69621
G1 X113.462 Y142.742 E0.70735
G1 X113.328 Y142.962 E0.71848
G1 X113.226 Y143.198 E0.72962
G1 X113.156 Y143.445 E0.74075
G1 X113.121 Y143.7 E0.75189
G1 X113.121 Y143.957 E0.76302
G1 X113.156 Y144.211 E0.77416
G1 X113.226 Y144.459 E0.78529
G1 X113.328 Y144.694 E0.79642
G1 X113.462 Y144.914 E0.80756
G1 X113.624 Y145.113 E0.81869
G1 X113.812 Y145.289 E0.82983
G1 X114.022 Y145.437 E0.84096
G1 X114.25 Y145.555 E0.8521
G1 X114.492 Y145.641 E0.86323
G1 X114.744 Y145.693 E0.87437
G1 X115 Y145.711 E0.8855
G1 X115.256 Y145.693 E0.89664
G1 X115.508 Y145.641 E0.90777
G1 X115.75 Y145.555 E0.91891
G1 X115.978 Y145.437 E0.93004
G1 X116.188 Y145.289 E0.94118
G1 X116.376 Y145.113 E0.95231
G1 X116.538 Y144.914 E0.96345
G1 X116.672 Y144.694 E0.97458
G1 X116.774 Y144.459 E0.98571
G1 X116.844 Y144.211 E0.99685
G1 X116.879 Y143.957 E1.00798
G1 X116.879 Y143.7 E1.01912
G1 X116.844 Y143.445 E1.03025
G1 X116.774 Y143.198 E1.04139
G1 X116.672 Y142.962 E1.05252
G1 X116.538 Y142.742 E1.06366
G1 X116.376 Y142.543 E1.07479
G1 X116.188 Y142.368 E1.08593
G1 X115.978 Y142.219 E1.09706
G1 X115.75 Y142.101 E1.1082
G1 X115.508 Y142.015 E1.11933
G1 X115.256 Y141.963 E1.13047
G1 X115 Y141.945 E1.1416
G1 X114.744 Y141.963 E1.15274
G1 X114.551 Y142.003 E1.16127
;WIPE_START
G1 X114.2 Y141.742 F9000
;WIPE_END
G92 E0
G1 E-1.4 F3600
;WIPE_START
G1 F7200
G1 X113.918 Y142.048 E-1.59772
G1 X113.685 Y142.212 E-1.73279
G1 X113.477 Y142.406 E-1.86785
G1 X113.342 Y142.573 E-1.97
;WIPE_END
G1 E-2 F3600
; acceleration to travel
M204 S1500
G1 X88.176 Y97.383 F9000
; decel to extrusion
M204 S500
G1 X85.102 Y91.863
; end travel
G1 E0 F2400
;TYPE:Internal perimeter
G1 F1200
G1 X85.341 Y91.694 E0.01268
G1 X85.581 Y91.47 E0.0269
G1 X85.788 Y91.215 E0.04113
G1 X85.959 Y90.935 E0.05535
G1 X86.089 Y90.634 E0.06957
G1 X86.178 Y90.317 E0.0838
G1 X86.223 Y89.992 E0.09802
G1 X86.223 Y89.664 E0.11224
G1 X86.178 Y89.339 E0.12647
G1 X86.089 Y89.023 E0.14069
G1 X85.959 Y88.722 E0.15491
G1 X85.788 Y88.441 E0.16914
G1 X85.581 Y88.186 E0.18336
G1 X85.341 Y87.962 E0.19758
G1 X85.073 Y87.773 E0.21181
G1 X84.781 Y87.622 E0.22603
G1 X84.472 Y87.512 E0.24025
G1 X84.151 Y87.445 E0.25448
G1 X83.823 Y87.423 E0.2687
G1 X83.496 Y87.445 E0.28292
