; generated by SuperSlicer 2.4 on 2023-11-15 at 06:36:07 UTC

; 

; external perimeters extrusion width = 0.42mm
; perimeters extrusion width = 0.46mm
; infill extrusion width = 0.44mm
; solid infill extrusion width = 0.46mm
; top infill extrusion width = 0.44mm
; first layer extrusion width = 0.56mm

; object:{"name":"Foot","id":"Foot.STL id:0 copy 0","object_center":[115.000000,112.500000,0.000000],"boundingbox_center":[115.000000,112.500000,8.000000],"boundingbox_size":[88.000000,87.980682,16.000000]}
; Total objects to print: 1
M486 T1
; plater:{"center":[115.000000,112.500000,0.000000],"boundingbox_center":[115.000000,112.500000,8.000000],"boundingbox_size":[88.000000,87.980682,16.000000]}

;TYPE:Custom
G90 ; use absolute coordinates
M83 ; extruder relative mode
M140 S60 ; set final bed temp
M104 S150 ; set temporary nozzle temp to prevent oozing during homing and auto bed leveling
G4 S10 ; allow partial nozzle warmup
G28 ; home all axis
G1 Z50 F240
G1 X2 Y10 F3000
M104 S205 ; set final nozzle temp
M190 S60 ; wait for bed temp to stabilize
M109 S205 ; wait for nozzle temp to stabilize
G1 Z0.28 F240
G92 E0
G1 Y140 E10 F1500 ; prime the nozzle
G1 X2.3 F5000
G92 E0
G1 Y10 E10 F1200 ; prime the nozzle
G92 E0
M107
G21 ; set units to millimeters
G90 ; use absolute coordinates
M82 ; use absolute distances for extrusion
G92 E0
; Filament gcode
;_TOOLCHANGE 0
M107
;LAYER_CHANGE
;Z:0.2
;HEIGHT:0.2
;BEFORE_LAYER_CHANGE
;0.2


G1 E-2 F3600
G1 Z0.2 F9000
;AFTER_LAYER_CHANGE
;0.2
G92 E0
M204 S500
G1 X71.239 Y69.603
G1 E2 F2400
;TYPE:Skirt
;WIDTH:0.48
G1 F1200
G1 X70.238 Y70.843 E2.05794
G1 X69.391 Y72.197 E2.11598
G1 X68.577 Y74.006 E2.18807
G1 X68.125 Y75.536 E2.24607
G1 X67.907 Y76.724 E2.28995
G1 X67.781 Y78.51 E2.355
G1 X67.783 Y112.605 E3.59414
G1 X67.871 Y115.402 E3.69585
G1 X68.126 Y118.189 E3.79755
G1 X68.544 Y120.956 E3.89925
G1 X69.081 Y123.508 E3.99403
G1 X69.869 Y126.391 E4.10266
G1 X70.705 Y128.861 E4.19743
G1 X71.751 Y131.457 E4.29914
G1 X73.037 Y134.155 E4.40777
G1 X74.295 Y136.439 E4.50254
G1 X75.785 Y138.808 E4.60425
G1 X77.527 Y141.237 E4.71288
G1 X79.17 Y143.262 E4.80765
G1 X81.055 Y145.33 E4.90936
G1 X83.2 Y147.412 E5.01799
G1 X85.323 Y149.235 E5.11969
G1 X87.396 Y150.817 E5.21447
G1 X89.875 Y152.487 E5.3231
G1 X92.287 Y153.905 E5.4248
G1 X94.78 Y155.178 E5.52651
G1 X97.343 Y156.301 E5.62821
G1 X99.787 Y157.209 E5.72298
G1 X102.462 Y158.032 E5.82469
G1 X105.181 Y158.695 E5.92639
G1 X108.123 Y159.223 E6.03502
G1 X110.902 Y159.549 E6.13673
G1 X113.696 Y159.709 E6.23843
G1 X116.304 Y159.709 E6.3332
G1 X119.098 Y159.549 E6.43491
G1 X122.066 Y159.195 E6.54354
G1 X124.632 Y158.734 E6.63831
G1 X127.354 Y158.082 E6.74002
G1 X130.032 Y157.27 E6.84172
G1 X132.657 Y156.301 E6.94342
G1 X135.393 Y155.096 E7.05206
G1 X137.88 Y153.813 E7.15376
G1 X140.125 Y152.487 E7.24853
G1 X142.604 Y150.817 E7.35717
G1 X144.825 Y149.115 E7.45887
G1 X146.941 Y147.284 E7.56057
G1 X148.812 Y145.467 E7.65535
G1 X150.705 Y143.406 E7.75705
G1 X152.589 Y141.085 E7.86568
G1 X154.215 Y138.808 E7.96739
G1 X155.705 Y136.439 E8.06909
G1 X157.051 Y133.986 E8.17079
G1 X158.249 Y131.457 E8.2725
G1 X159.295 Y128.861 E8.3742
G1 X160.186 Y126.209 E8.4759
G1 X160.919 Y123.508 E8.57761
G1 X161.489 Y120.768 E8.67931
G1 X161.897 Y117.999 E8.78101
G1 X162.14 Y115.212 E8.88272
G1 X162.217 Y112.605 E8.97749
G1 X162.213 Y78.315 E10.22369
G1 X162.14 Y77.11 E10.26758
G1 X161.875 Y75.536 E10.32557
G1 X161.285 Y73.643 E10.39766
G1 X160.609 Y72.197 E10.45565
G1 X159.984 Y71.164 E10.49954
G1 X158.737 Y69.577 E10.57291
G1 X157.616 Y68.491 E10.62961
G1 X156.666 Y67.746 E10.6735
G1 X155.312 Y66.901 E10.73149
G1 X153.907 Y66.241 E10.78792
G1 X151.973 Y65.634 E10.86157
G1 X150.786 Y65.417 E10.90545
G1 X149.216 Y65.297 E10.96268
G1 X80.971 Y65.292 E13.44289
G1 X79.598 Y65.37 E13.4929
G1 X77.649 Y65.727 E13.56489
G1 X76.137 Y66.223 E13.62275
G1 X74.751 Y66.869 E13.67829
G1 X73.666 Y67.518 E13.72425
G1 X72.384 Y68.491 E13.78275
G1 X71.282 Y69.561 E13.83856
G92 E0
G1 E-1.4 F3600
;WIPE_START
G1 F7200
G1 X70.524 Y70.491 E-1.97
;WIPE_END
G1 E-2 F3600
; printing object Foot.STL id:0 copy 0
M486 S0
; acceleration to travel
M204 S1500
G1 X83.949 Y82.612 F9000
; decel to extrusion
M204 S500
G1 X85.589 Y84.092
; end travel
G1 E0 F2400
;TYPE:Internal perimeter
;WIDTH:0.564
G1 F1200
G1 X85.41 Y84.269 E0.01091
G1 X83.712 Y86.163 E0.12114
G1 X82.134 Y88.159 E0.23138
G1 X80.684 Y90.25 E0.34161
G1 X79.366 Y92.426 E0.45185
G1 X78.187 Y94.68 E0.56208
G1 X77.15 Y97.004 E0.67232
G1 X76.259 Y99.387 E0.78255
G1 X75.518 Y101.821 E0.89279
G1 X74.93 Y104.296 E1.00302
G1 X74.497 Y106.803 E1.11325
G1 X74.22 Y109.332 E1.22349
G1 X74.101 Y111.874 E1.33372
G1 X74.141 Y114.417 E1.44396
G1 X74.339 Y116.954 E1.55419
G1 X74.694 Y119.473 E1.66443
G1 X75.204 Y121.966 E1.77466
G1 X75.869 Y124.421 E1.88489
G1 X76.686 Y126.831 E1.99513
G1 X77.65 Y129.185 E2.10536
G1 X78.759 Y131.475 E2.2156
G1 X80.008 Y133.692 E2.32583
G1 X81.393 Y135.826 E2.43607
G1 X82.907 Y137.87 E2.5463
G1 X84.546 Y139.816 E2.65654
G1 X86.303 Y141.657 E2.76677
G1 X88.17 Y143.385 E2.877
G1 X90.142 Y144.993 E2.98724
G1 X92.209 Y146.475 E3.09747
G1 X94.365 Y147.827 E3.20771
G1 X96.6 Y149.041 E3.31794
G1 X98.907 Y150.114 E3.42818
G1 X101.276 Y151.042 E3.53841
G1 X103.698 Y151.821 E3.64865
G1 X106.164 Y152.447 E3.75888
G1 X106.681 Y152.545 E3.78166
G1 X108.664 Y152.919 E3.86912
G1 X111.189 Y153.235 E3.97935
G1 X113.728 Y153.393 E4.08958
G1 X116.272 Y153.393 E4.19982
G1 X118.811 Y153.235 E4.31005
G1 X121.336 Y152.919 E4.42029
G1 X123.836 Y152.447 E4.53052
G1 X126.302 Y151.821 E4.64076
G1 X128.724 Y151.042 E4.75099
G1 X131.093 Y150.114 E4.86122
G1 X133.4 Y149.041 E4.97146
G1 X135.635 Y147.827 E5.08169
G1 X137.791 Y146.475 E5.19193
G1 X139.858 Y144.993 E5.30216
G1 X141.83 Y143.385 E5.4124
G1 X143.697 Y141.657 E5.52263
G1 X145.454 Y139.816 E5.63287
G1 X147.093 Y137.87 E5.7431
G1 X148.607 Y135.826 E5.85333
G1 X149.992 Y133.692 E5.96357
G1 X151.241 Y131.475 E6.0738
G1 X152.35 Y129.185 E6.18404
G1 X153.314 Y126.831 E6.29427
G1 X154.131 Y124.421 E6.40451
G1 X154.796 Y121.966 E6.51474
G1 X155.306 Y119.473 E6.62498
G1 X155.661 Y116.954 E6.73521
G1 X155.859 Y114.417 E6.84544
G1 X155.899 Y111.874 E6.95568
G1 X155.78 Y109.332 E7.06591
G1 X155.503 Y106.803 E7.17615
G1 X155.07 Y104.296 E7.28638
G1 X154.482 Y101.821 E7.39662
G1 X153.741 Y99.387 E7.50685
G1 X152.85 Y97.004 E7.61708
G1 X151.813 Y94.68 E7.72732
G1 X150.634 Y92.426 E7.83755
G1 X149.316 Y90.25 E7.94779
G1 X147.866 Y88.159 E8.05802
G1 X146.288 Y86.163 E8.16826
G1 X144.59 Y84.269 E8.27849
G1 X142.777 Y82.484 E8.38873
G1 X140.857 Y80.815 E8.49896
G1 X138.836 Y79.269 E8.60919
G1 X136.724 Y77.852 E8.71943
G1 X134.527 Y76.568 E8.82966
G1 X132.255 Y75.424 E8.9399
G1 X129.916 Y74.423 E9.05013
G1 X127.519 Y73.569 E9.16037
G1 X125.074 Y72.866 E9.2706
G1 X122.59 Y72.316 E9.38084
G1 X120.076 Y71.922 E9.49107
G1 X117.543 Y71.685 E9.6013
G1 X115 Y71.606 E9.71154
G1 X114.475 Y71.622 E9.73432
G1 X112.457 Y71.685 E9.82177
G1 X109.924 Y71.922 E9.93201
G1 X107.41 Y72.316 E10.04224
G1 X104.926 Y72.866 E10.15248
G1 X102.481 Y73.569 E10.26271
G1 X100.084 Y74.423 E10.37295
G1 X97.745 Y75.424 E10.48318
G1 X95.473 Y76.568 E10.59341
G1 X93.276 Y77.852 E10.70365
G1 X91.164 Y79.269 E10.81388
G1 X89.143 Y80.815 E10.92412
G1 X87.223 Y82.484 E11.03435
G1 X85.632 Y84.05 E11.13108
G1 X85.955 Y84.464 F9000
;TYPE:External perimeter
G1 F1200
G1 X85.787 Y84.629 E11.14128
G1 X84.11 Y86.499 E11.25011
G1 X82.553 Y88.47 E11.35894
G1 X81.121 Y90.534 E11.46777
G1 X79.821 Y92.682 E11.5766
G1 X78.656 Y94.908 E11.68543
G1 X77.632 Y97.201 E11.79426
G1 X76.752 Y99.554 E11.90309
G1 X76.021 Y101.957 E12.01192
G1 X75.44 Y104.401 E12.12075
G1 X75.013 Y106.876 E12.22958
G1 X74.74 Y109.373 E12.33841
G1 X74.623 Y111.882 E12.44724
G1 X74.662 Y114.393 E12.55607
G1 X74.857 Y116.897 E12.6649
G1 X75.207 Y119.384 E12.77373
G1 X75.712 Y121.845 E12.88256
G1 X76.368 Y124.27 E12.99138
G1 X77.174 Y126.649 E13.10021
G1 X78.126 Y128.973 E13.20904
G1 X79.221 Y131.233 E13.31787
G1 X80.454 Y133.422 E13.4267
G1 X81.821 Y135.529 E13.53553
G1 X83.316 Y137.547 E13.64436
G1 X84.934 Y139.468 E13.75319
G1 X86.668 Y141.285 E13.86202
G1 X88.512 Y142.991 E13.97085
G1 X90.458 Y144.579 E14.07968
G1 X92.5 Y146.043 E14.18851
G1 X94.628 Y147.377 E14.29734
G1 X96.835 Y148.576 E14.40617
G1 X99.112 Y149.635 E14.515
G1 X101.451 Y150.551 E14.62383
G1 X103.842 Y151.32 E14.73266
G1 X106.277 Y151.938 E14.84149
G1 X106.777 Y152.033 E14.86356
G1 X108.745 Y152.404 E14.95031
G1 X111.237 Y152.716 E15.05914
G1 X113.744 Y152.872 E15.16797
G1 X116.256 Y152.872 E15.2768
G1 X118.763 Y152.716 E15.38563
G1 X121.255 Y152.404 E15.49446
G1 X123.723 Y151.938 E15.60329
G1 X126.158 Y151.32 E15.71212
G1 X128.549 Y150.551 E15.82095
G1 X130.888 Y149.635 E15.92978
G1 X133.165 Y148.576 E16.03861
G1 X135.372 Y147.377 E16.14744
G1 X137.5 Y146.043 E16.25627
G1 X139.542 Y144.579 E16.3651
G1 X141.488 Y142.991 E16.47393
G1 X143.332 Y141.285 E16.58276
G1 X145.066 Y139.468 E16.69159
G1 X146.684 Y137.547 E16.80041
G1 X148.179 Y135.529 E16.90925
G1 X149.546 Y133.422 E17.01807
G1 X150.779 Y131.233 E17.1269
G1 X151.874 Y128.973 E17.23573
G1 X152.826 Y126.649 E17.34456
G1 X153.632 Y124.27 E17.45339
G1 X154.288 Y121.845 E17.56222
G1 X154.793 Y119.384 E17.67105
G1 X155.143 Y116.897 E17.77988
G1 X155.338 Y114.393 E17.88871
G1 X155.377 Y111.882 E17.99754
G1 X155.26 Y109.373 E18.10637
G1 X154.987 Y106.876 E18.2152
G1 X154.56 Y104.401 E18.32403
G1 X153.979 Y101.957 E18.43286
G1 X153.248 Y99.554 E18.54169
G1 X152.368 Y97.201 E18.65052
G1 X151.344 Y94.908 E18.75934
G1 X150.179 Y92.682 E18.86817
G1 X148.879 Y90.534 E18.977
G1 X147.447 Y88.47 E19.08583
G1 X145.89 Y86.499 E19.19466
G1 X144.213 Y84.629 E19.30349
G1 X142.423 Y82.867 E19.41232
G1 X140.527 Y81.219 E19.52115
G1 X138.532 Y79.693 E19.62998
G1 X136.447 Y78.293 E19.73881
G1 X134.278 Y77.026 E19.84764
G1 X132.035 Y75.896 E19.95647
G1 X129.725 Y74.908 E20.0653
G1 X127.359 Y74.065 E20.17413
G1 X124.945 Y73.371 E20.28296
G1 X122.493 Y72.829 E20.39179
G1 X120.011 Y72.44 E20.50062
G1 X117.511 Y72.206 E20.60945
G1 X115 Y72.127 E20.71828
G1 X114.491 Y72.143 E20.74035
G1 X112.489 Y72.206 E20.8271
G1 X109.989 Y72.44 E20.93593
G1 X107.507 Y72.829 E21.04476
G1 X105.055 Y73.371 E21.15359
G1 X102.641 Y74.065 E21.26242
G1 X100.275 Y74.908 E21.37125
G1 X97.965 Y75.896 E21.48008
G1 X95.722 Y77.026 E21.58891
G1 X93.553 Y78.293 E21.69774
G1 X91.468 Y79.693 E21.80657
G1 X89.473 Y81.219 E21.9154
G1 X87.577 Y82.867 E22.02423
G1 X85.998 Y84.422 E22.12025
;WIPE_START
G1 X85.57 Y84.357 F9000
;WIPE_END
G92 E0
G1 E-1.4 F3600
;WIPE_START
G1 F7200
G1 X84.819 Y85.294 E-1.97
;WIPE_END
G1 E-2 F3600
; acceleration to travel
M204 S1500
G1 X73.309 Y84.554 F9000
; decel to extrusion
M204 S500
G1 X71.903 Y84.464
; end travel
G1 E0 F2400
;TYPE:Internal perimeter
G1 F1200
G1 X71.903 Y78.537 E0.25679
G1 X71.971 Y77.413 E0.30557
G1 X72.169 Y76.333 E0.35315
G1 X72.496 Y75.284 E0.40074
G1 X72.947 Y74.283 E0.44833
G1 X73.516 Y73.342 E0.49599
G1 X74.192 Y72.478 E0.5435
G1 X74.969 Y71.702 E0.59109
G1 X75.833 Y71.024 E0.63868
G1 X76.773 Y70.456 E0.68628
G1 X77.763 Y70.01 E0.7333
G1 X78.832 Y69.677 E0.78181
G1 X79.906 Y69.48 E0.82911
G1 X81.027 Y69.413 E0.8778
G1 X83.978 Y69.413 E1.00567
G1 X148.979 Y69.413 E3.82201
G1 X150.096 Y69.481 E3.87051
G1 X151.176 Y69.679 E3.91808
G1 X152.237 Y70.01 E3.96623
G1 X153.227 Y70.456 E4.01327
G1 X154.167 Y71.024 E4.06086
G1 X155.031 Y71.702 E4.10845
G1 X155.801 Y72.471 E4.15559
G1 X156.485 Y73.343 E4.20364
G1 X157.053 Y74.283 E4.25121
G1 X157.504 Y75.284 E4.2988
G1 X157.831 Y76.333 E4.34639
G1 X158.029 Y77.413 E4.39397
G1 X158.097 Y78.537 E4.44275
G1 X158.097 Y112.496 E5.91414
G1 X158.021 Y115.063 E6.02538
G1 X157.794 Y117.607 E6.13605
G1 X157.417 Y120.133 E6.24672
G1 X156.891 Y122.632 E6.35739
G1 X156.218 Y125.096 E6.46805
G1 X155.4 Y127.516 E6.57872
G1 X154.44 Y129.883 E6.68939
G1 X153.341 Y132.189 E6.80006
G1 X152.108 Y134.426 E6.91072
G1 X150.745 Y136.585 E7.02139
G1 X149.255 Y138.661 E7.13206
G1 X147.646 Y140.644 E7.24273
G1 X145.922 Y142.529 E7.35339
G1 X144.089 Y144.308 E7.46406
G1 X142.155 Y145.975 E7.57473
G1 X140.124 Y147.525 E7.6854
G1 X138.006 Y148.952 E7.79607
G1 X135.807 Y150.251 E7.90673
G1 X133.534 Y151.417 E8.0174
G1 X131.197 Y152.447 E8.12807
G1 X128.803 Y153.336 E8.23874
G1 X126.36 Y154.082 E8.3494
G1 X123.877 Y154.682 E8.46007
G1 X121.363 Y155.134 E8.57074
G1 X118.827 Y155.436 E8.68141
G1 X116.277 Y155.587 E8.79207
G1 X113.723 Y155.587 E8.90274
G1 X111.173 Y155.436 E9.01341
G1 X108.637 Y155.134 E9.12408
G1 X106.123 Y154.682 E9.23475
G1 X103.64 Y154.082 E9.34541
G1 X101.197 Y153.336 E9.45608
G1 X98.803 Y152.447 E9.56675
G1 X96.466 Y151.417 E9.67742
G1 X94.193 Y150.251 E9.78808
G1 X91.994 Y148.952 E9.89875
G1 X89.876 Y147.525 E10.00942
G1 X87.845 Y145.975 E10.12009
G1 X85.911 Y144.308 E10.23075
G1 X84.078 Y142.529 E10.34142
G1 X82.354 Y140.644 E10.45209
G1 X80.745 Y138.661 E10.56276
G1 X79.255 Y136.585 E10.67342
G1 X77.892 Y134.426 E10.78409
G1 X76.659 Y132.189 E10.89476
G1 X75.56 Y129.883 E11.00543
G1 X74.6 Y127.516 E11.1161
G1 X73.782 Y125.096 E11.22676
G1 X73.109 Y122.632 E11.33743
G1 X72.583 Y120.133 E11.4481
G1 X72.206 Y117.607 E11.55877
G1 X71.979 Y115.063 E11.66943
G1 X71.903 Y112.496 E11.78068
G1 X71.903 Y84.524 E12.99268
G1 X71.382 Y84.464 F9000
;TYPE:External perimeter
G1 F1200
G1 X71.382 Y78.521 E13.25015
G1 X71.453 Y77.35 E13.30097
G1 X71.662 Y76.208 E13.35129
G1 X72.008 Y75.099 E13.40161
G1 X72.484 Y74.04 E13.45193
G1 X73.086 Y73.045 E13.50232
G1 X73.801 Y72.132 E13.55257
G1 X74.623 Y71.311 E13.60289
G1 X75.537 Y70.595 E13.65321
G1 X76.531 Y69.994 E13.70353
G1 X77.578 Y69.522 E13.75328
G1 X78.707 Y69.17 E13.80453
G1 X79.843 Y68.962 E13.85457
G1 X81.012 Y68.892 E13.9053
G1 X83.978 Y68.892 E14.03385
G1 X148.995 Y68.892 E16.85088
G1 X150.159 Y68.962 E16.90142
G1 X151.301 Y69.172 E16.95173
G1 X152.422 Y69.522 E17.00262
G1 X153.469 Y69.994 E17.05238
G1 X154.463 Y70.595 E17.1027
G1 X155.377 Y71.311 E17.15302
G1 X156.191 Y72.124 E17.20287
G1 X156.915 Y73.047 E17.25366
G1 X157.516 Y74.04 E17.30397
G1 X157.992 Y75.099 E17.35429
G1 X158.338 Y76.208 E17.40461
G1 X158.547 Y77.35 E17.45493
G1 X158.618 Y78.521 E17.50575
G1 X158.618 Y112.504 E18.97816
G1 X158.541 Y115.094 E19.09041
G1 X158.312 Y117.668 E19.20241
G1 X157.93 Y120.225 E19.31442
G1 X157.398 Y122.755 E19.42643
G1 X156.716 Y125.249 E19.53843
G1 X155.888 Y127.697 E19.65044
G1 X154.917 Y130.093 E19.76244
G1 X153.805 Y132.427 E19.87445
G1 X152.557 Y134.691 E19.98646
G1 X151.177 Y136.877 E20.09846
G1 X149.67 Y138.977 E20.21047
G1 X148.041 Y140.984 E20.32248
G1 X146.296 Y142.892 E20.43448
G1 X144.441 Y144.692 E20.54649
G1 X142.483 Y146.38 E20.6585
G1 X140.428 Y147.949 E20.7705
G1 X138.284 Y149.393 E20.88251
G1 X136.058 Y150.707 E20.99451
G1 X133.759 Y151.888 E21.10652
G1 X131.393 Y152.93 E21.21853
G1 X128.969 Y153.83 E21.33053
G1 X126.497 Y154.585 E21.44254
G1 X123.984 Y155.192 E21.55455
G1 X121.44 Y155.649 E21.66655
G1 X118.873 Y155.955 E21.77856
G1 X116.293 Y156.108 E21.89057
G1 X113.707 Y156.108 E22.00257
G1 X111.127 Y155.955 E22.11458
G1 X108.56 Y155.649 E22.22658
G1 X106.016 Y155.192 E22.33859
G1 X103.503 Y154.585 E22.4506
G1 X101.031 Y153.83 E22.5626
G1 X98.607 Y152.93 E22.67461
G1 X96.241 Y151.888 E22.78662
G1 X93.942 Y150.707 E22.89862
G1 X91.716 Y149.393 E23.01063
G1 X89.572 Y147.949 E23.12263
G1 X87.517 Y146.38 E23.23464
G1 X85.559 Y144.692 E23.34665
G1 X83.704 Y142.892 E23.45865
G1 X81.959 Y140.984 E23.57066
G1 X80.33 Y138.977 E23.68267
G1 X78.823 Y136.877 E23.79467
G1 X77.443 Y134.691 E23.90668
G1 X76.195 Y132.427 E24.01868
G1 X75.083 Y130.093 E24.13069
G1 X74.112 Y127.697 E24.2427
G1 X73.284 Y125.249 E24.35471
G1 X72.602 Y122.755 E24.46671
G1 X72.07 Y120.225 E24.57872
G1 X71.688 Y117.668 E24.69072
G1 X71.459 Y115.094 E24.80273
G1 X71.382 Y112.504 E24.91498
G1 X71.382 Y84.524 E26.12731
;WIPE_START
G1 X71.728 Y84.264 F9000
;WIPE_END
G92 E0
G1 E-1.4 F3600
;WIPE_START
G1 F7200
G1 X71.698 Y83.064 E-1.97
;WIPE_END
G1 E-2 F3600
; acceleration to travel
M204 S1500
