; generated by SuperSlicer 2.4 on 2023-11-03 at 21:30:52 UTC

; 

; external perimeters extrusion width = 0.42mm
; perimeters extrusion width = 0.46mm
; infill extrusion width = 0.44mm
; solid infill extrusion width = 0.46mm
; top infill extrusion width = 0.44mm
; first layer extrusion width = 0.56mm

; object:{"name":"MotorStand","id":"MotorStand.STL id:0 copy 0","object_center":[115.000000,112.500000,0.000000],"boundingbox_center":[115.000000,112.500000,30.000000],"boundingbox_size":[78.784622,81.141777,60.000000]}
; Total objects to print: 1
M486 T1
; plater:{"center":[115.000000,112.500000,0.000000],"boundingbox_center":[115.000000,112.500000,30.000000],"boundingbox_size":[78.784622,81.141777,60.000000]}

;TYPE:Custom
G90 ; use absolute coordinates
M83 ; extruder relative mode
M140 S60 ; set final bed temp
M104 S150 ; set temporary nozzle temp to prevent oozing during homing and auto bed leveling
G4 S10 ; allow partial nozzle warmup
G28 ; home all axis
G1 Z50 F240
G1 X2 Y10 F3000
M104 S205 ; set final nozzle temp
M190 S60 ; wait for bed temp to stabilize
M109 S205 ; wait for nozzle temp to stabilize
G1 Z0.28 F240
G92 E0
G1 Y140 E10 F1500 ; prime the nozzle
G1 X2.3 F5000
G92 E0
G1 Y10 E10 F1200 ; prime the nozzle
G92 E0
M107
G21 ; set units to millimeters
G90 ; use absolute coordinates
M82 ; use absolute distances for extrusion
G92 E0
; Filament gcode
;_TOOLCHANGE 0
M107
;LAYER_CHANGE
;Z:0.2
;HEIGHT:0.2
;BEFORE_LAYER_CHANGE
;0.2


G1 E-1 F3600
G1 Z0.2 F9000
;AFTER_LAYER_CHANGE
;0.2
G92 E0
M204 S500
G1 X83.002 Y73.544
G1 E1 F2400
;TYPE:Skirt
;WIDTH:0.48
G1 F1200
G1 X81.834 Y74.863 E1.06405
G1 X80.39 Y76.688 E1.14861
G1 X78.944 Y78.744 E1.23997
G1 X77.62 Y80.881 E1.33134
G1 X76.422 Y83.091 E1.4227
G1 X75.354 Y85.367 E1.51407
G1 X74.421 Y87.702 E1.60543
G1 X73.572 Y90.266 E1.7036
G1 X72.926 Y92.695 E1.79496
G1 X72.456 Y94.974 E1.87952
G1 X72.61 Y96.797 E1.94602
G1 X95.078 Y154.243 E4.1878
G1 X96.533 Y155.896 E4.26781
G1 X98.075 Y156.289 E4.32567
G1 X131.925 Y156.289 E5.55587
G1 X133.993 Y155.536 E5.63588
G1 X134.922 Y154.243 E5.69374
G1 X157.39 Y96.797 E7.93552
G1 X157.544 Y94.974 E8.00202
G1 X157.074 Y92.695 E8.08658
G1 X156.428 Y90.266 E8.17794
G1 X155.579 Y87.702 E8.27611
G1 X154.646 Y85.367 E8.36747
G1 X153.578 Y83.091 E8.45884
G1 X152.38 Y80.881 E8.5502
G1 X151.159 Y78.901 E8.63476
G1 X149.721 Y76.838 E8.72613
G1 X148.166 Y74.863 E8.81749
G1 X146.371 Y72.845 E8.91566
G1 X144.726 Y71.2 E9.00022
G1 X142.851 Y69.525 E9.09159
G1 X140.712 Y68.711 E9.17479
G1 X89.288 Y68.711 E11.04367
G1 X87.149 Y69.525 E11.12687
G1 X85.274 Y71.2 E11.21824
G1 X83.501 Y72.982 E11.3096
G1 X83.042 Y73.499 E11.33474
G92 E0
G1 E-0.7 F3600
;WIPE_START
G1 F7200
G1 X82.644 Y73.948 E-0.985
;WIPE_END
G1 E-1 F3600
; printing object MotorStand.STL id:0 copy 0
M486 S0
; acceleration to travel
M204 S1500
G1 X110.653 Y129.559 F9000
; decel to extrusion
M204 S500
G1 X114.075 Y136.353
; end travel
G1 E0 F2400
;TYPE:Internal perimeter
;WIDTH:0.564
G1 F1200
G1 X114.042 Y136.365 E0.00155
G1 X113.75 Y136.516 E0.01577
G1 X113.482 Y136.705 E0.02999
G1 X113.242 Y136.929 E0.04421
G1 X113.035 Y137.184 E0.05844
G1 X112.864 Y137.464 E0.07266
G1 X112.734 Y137.765 E0.08689
G1 X112.645 Y138.082 E0.10111
G1 X112.6 Y138.407 E0.11533
G1 X112.6 Y138.735 E0.12956
G1 X112.645 Y139.06 E0.14378
G1 X112.734 Y139.376 E0.158
G1 X112.864 Y139.677 E0.17222
G1 X113.035 Y139.958 E0.18645
G1 X113.242 Y140.213 E0.20067
G1 X113.482 Y140.437 E0.2149
G1 X113.75 Y140.626 E0.22912
G1 X114.042 Y140.777 E0.24334
G1 X114.351 Y140.887 E0.25757
G1 X114.672 Y140.954 E0.27179
G1 X115 Y140.976 E0.28601
G1 X115.328 Y140.954 E0.30024
G1 X115.649 Y140.887 E0.31446
G1 X115.958 Y140.777 E0.32868
G1 X116.25 Y140.626 E0.3429
G1 X116.518 Y140.437 E0.35713
G1 X116.758 Y140.213 E0.37135
G1 X116.965 Y139.958 E0.38558
G1 X117.136 Y139.677 E0.3998
G1 X117.266 Y139.376 E0.41402
G1 X117.355 Y139.06 E0.42824
G1 X117.4 Y138.735 E0.44247
G1 X117.4 Y138.407 E0.45669
G1 X117.355 Y138.082 E0.47092
G1 X117.266 Y137.765 E0.48514
G1 X117.136 Y137.464 E0.49936
G1 X116.965 Y137.184 E0.51359
G1 X116.758 Y136.929 E0.52781
G1 X116.518 Y136.705 E0.54203
G1 X116.25 Y136.516 E0.55625
G1 X115.958 Y136.365 E0.57048
G1 X115.649 Y136.255 E0.5847
G1 X115.328 Y136.188 E0.59892
G1 X115 Y136.166 E0.61315
G1 X114.672 Y136.188 E0.62737
G1 X114.351 Y136.255 E0.64159
G1 X114.132 Y136.333 E0.65167
G1 X114.25 Y136.844 F9000
;TYPE:External perimeter
G1 F1200
G1 X114.022 Y136.962 E0.66281
G1 X113.812 Y137.11 E0.67394
G1 X113.624 Y137.286 E0.68508
G1 X113.462 Y137.485 E0.69621
G1 X113.328 Y137.705 E0.70735
G1 X113.226 Y137.94 E0.71848
G1 X113.156 Y138.188 E0.72962
G1 X113.121 Y138.442 E0.74075
G1 X113.121 Y138.699 E0.75189
G1 X113.156 Y138.954 E0.76302
G1 X113.226 Y139.201 E0.77416
G1 X113.328 Y139.437 E0.78529
G1 X113.462 Y139.657 E0.79643
G1 X113.624 Y139.856 E0.80756
G1 X113.812 Y140.031 E0.81869
G1 X114.022 Y140.18 E0.82983
G1 X114.25 Y140.298 E0.84096
G1 X114.492 Y140.384 E0.8521
G1 X114.744 Y140.436 E0.86323
G1 X115 Y140.454 E0.87437
G1 X115.256 Y140.436 E0.8855
G1 X115.508 Y140.384 E0.89664
G1 X115.75 Y140.298 E0.90777
G1 X115.978 Y140.18 E0.91891
G1 X116.188 Y140.031 E0.93004
G1 X116.376 Y139.856 E0.94118
G1 X116.538 Y139.657 E0.95231
G1 X116.672 Y139.437 E0.96345
G1 X116.774 Y139.201 E0.97458
G1 X116.844 Y138.954 E0.98571
G1 X116.879 Y138.699 E0.99685
G1 X116.879 Y138.442 E1.00798
G1 X116.844 Y138.188 E1.01912
G1 X116.774 Y137.94 E1.03025
G1 X116.672 Y137.705 E1.04139
G1 X116.538 Y137.485 E1.05252
G1 X116.376 Y137.286 E1.06366
G1 X116.188 Y137.11 E1.07479
G1 X115.978 Y136.962 E1.08593
G1 X115.75 Y136.844 E1.09706
G1 X115.508 Y136.758 E1.1082
G1 X115.256 Y136.706 E1.11933
G1 X115 Y136.688 E1.13047
G1 X114.744 Y136.706 E1.1416
G1 X114.492 Y136.758 E1.15273
G1 X114.306 Y136.824 E1.16127
;WIPE_START
G1 X113.923 Y136.613 F9000
;WIPE_END
G92 E0
G1 E-0.7 F3600
;WIPE_START
G1 F7200
G1 X113.685 Y136.955 E-0.89772
G1 X113.551 Y137.08 E-0.985
;WIPE_END
G1 E-1 F3600
; acceleration to travel
M204 S1500
G1 X88.145 Y92.134 F9000
; decel to extrusion
M204 S500
G1 X85.041 Y86.642
; end travel
G1 E0 F2400
;TYPE:Internal perimeter
G1 F1200
G1 X85.073 Y86.626 E0.00154
G1 X85.341 Y86.437 E0.01577
G1 X85.581 Y86.213 E0.02999
G1 X85.788 Y85.958 E0.04421
G1 X85.959 Y85.677 E0.05844
G1 X86.089 Y85.376 E0.07266
G1 X86.178 Y85.06 E0.08688
G1 X86.223 Y84.735 E0.10111
G1 X86.223 Y84.407 E0.11533
G1 X86.178 Y84.082 E0.12955
G1 X86.089 Y83.765 E0.14378
G1 X85.959 Y83.464 E0.158
G1 X85.788 Y83.184 E0.17222
G1 X85.581 Y82.929 E0.18645
G1 X85.341 Y82.705 E0.20067
G1 X85.073 Y82.516 E0.21489
G1 X84.781 Y82.365 E0.22912
G1 X84.472 Y82.255 E0.24334
G1 X84.151 Y82.188 E0.25756
G1 X83.823 Y82.166 E0.27179
G1 X83.496 Y82.188 E0.28601
G1 X83.174 Y82.255 E0.30023
G1 X82.865 Y82.365 E0.31446
G1 X82.573 Y82.516 E0.32868
G1 X82.305 Y82.705 E0.3429
G1 X82.065 Y82.929 E0.35713
G1 X81.858 Y83.184 E0.37135
G1 X81.688 Y83.464 E0.38557
G1 X81.557 Y83.765 E0.3998
G1 X81.468 Y84.082 E0.41402
G1 X81.424 Y84.407 E0.42824
G1 X81.424 Y84.735 E0.44247
G1 X81.468 Y85.06 E0.45669
G1 X81.557 Y85.376 E0.47091
G1 X81.688 Y85.677 E0.48514
G1 X81.858 Y85.958 E0.49936
G1 X82.065 Y86.213 E0.51358
G1 X82.305 Y86.437 E0.52781
G1 X82.573 Y86.626 E0.54203
G1 X82.865 Y86.777 E0.55625
G1 X83.174 Y86.887 E0.57048
G1 X83.496 Y86.954 E0.5847
G1 X83.823 Y86.976 E0.59892
G1 X84.151 Y86.954 E0.61315
G1 X84.472 Y86.887 E0.62737
G1 X84.781 Y86.777 E0.64159
G1 X84.988 Y86.67 E0.65167
G1 X84.801 Y86.18 F9000
;TYPE:External perimeter
G1 F1200
G1 X85.011 Y86.031 E0.66281
G1 X85.199 Y85.856 E0.67394
G1 X85.361 Y85.657 E0.68508
G1 X85.495 Y85.437 E0.69621
G1 X85.597 Y85.201 E0.70735
G1 X85.667 Y84.954 E0.71848
G1 X85.702 Y84.699 E0.72962
G1 X85.702 Y84.442 E0.74075
G1 X85.667 Y84.188 E0.75189
G1 X85.597 Y83.94 E0.76302
G1 X85.495 Y83.705 E0.77416
G1 X85.361 Y83.485 E0.78529
G1 X85.199 Y83.286 E0.79643
G1 X85.011 Y83.11 E0.80756
G1 X84.801 Y82.962 E0.81869
G1 X84.573 Y82.844 E0.82983
G1 X84.331 Y82.758 E0.84096
G1 X84.079 Y82.706 E0.8521
G1 X83.823 Y82.688 E0.86323
G1 X83.567 Y82.706 E0.87437
G1 X83.315 Y82.758 E0.8855
G1 X83.073 Y82.844 E0.89664
G1 X82.845 Y82.962 E0.90777
G1 X82.635 Y83.11 E0.91891
G1 X82.447 Y83.286 E0.93004
G1 X82.285 Y83.485 E0.94118
G1 X82.151 Y83.705 E0.95231
G1 X82.049 Y83.94 E0.96345
G1 X81.98 Y84.188 E0.97458
G1 X81.945 Y84.442 E0.98571
G1 X81.945 Y84.699 E0.99685
G1 X81.98 Y84.954 E1.00798
G1 X82.049 Y85.201 E1.01912
G1 X82.151 Y85.437 E1.03025
G1 X82.285 Y85.657 E1.04139
G1 X82.447 Y85.856 E1.05252
G1 X82.635 Y86.031 E1.06366
G1 X82.845 Y86.18 E1.07479
G1 X83.073 Y86.298 E1.08593
G1 X83.315 Y86.384 E1.09706
G1 X83.567 Y86.436 E1.1082
G1 X83.823 Y86.454 E1.11933
G1 X84.079 Y86.436 E1.13047
G1 X84.331 Y86.384 E1.1416
G1 X84.573 Y86.298 E1.15273
G1 X84.748 Y86.207 E1.16127
;WIPE_START
G1 X85.157 Y86.364 F9000
;WIPE_END
G92 E0
G1 E-0.7 F3600
;WIPE_START
G1 F7200
G1 X85.346 Y85.993 E-0.89772
G1 X85.462 Y85.85 E-0.985
;WIPE_END
G1 E-1 F3600
; acceleration to travel
M204 S1500
G1 X137.428 Y84.825 F9000
; decel to extrusion
M204 S500
G1 X143.777 Y84.699
; end travel
G1 E0 F2400
;TYPE:Internal perimeter
G1 F1200
G1 X143.777 Y84.735 E0.00154
G1 X143.822 Y85.06 E0.01577
G1 X143.911 Y85.377 E0.03
G1 X144.042 Y85.678 E0.04426
G1 X144.212 Y85.958 E0.05844
G1 X144.419 Y86.213 E0.07266
G1 X144.659 Y86.437 E0.08688
G1 X144.927 Y86.626 E0.10111
G1 X145.219 Y86.777 E0.11533
G1 X145.528 Y86.887 E0.12955
G1 X145.849 Y86.954 E0.14378
G1 X146.177 Y86.976 E0.158
G1 X146.504 Y86.954 E0.17222
G1 X146.826 Y86.887 E0.18645
G1 X147.135 Y86.777 E0.20067
G1 X147.427 Y86.626 E0.21489
G1 X147.695 Y86.437 E0.22912
G1 X147.935 Y86.213 E0.24334
G1 X148.142 Y85.958 E0.25756
G1 X148.312 Y85.677 E0.27179
G1 X148.443 Y85.376 E0.28601
G1 X148.532 Y85.06 E0.30023
G1 X148.576 Y84.735 E0.31446
G1 X148.576 Y84.407 E0.32868
G1 X148.532 Y84.082 E0.3429
G1 X148.443 Y83.765 E0.35713
G1 X148.312 Y83.464 E0.37135
G1 X148.142 Y83.184 E0.38557
G1 X147.935 Y82.929 E0.3998
G1 X147.695 Y82.705 E0.41402
G1 X147.427 Y82.516 E0.42824
G1 X147.135 Y82.365 E0.44247
G1 X146.826 Y82.255 E0.45669
G1 X146.504 Y82.188 E0.47091
G1 X146.177 Y82.166 E0.48514
G1 X145.849 Y82.188 E0.49936
G1 X145.528 Y82.255 E0.51358
G1 X145.219 Y82.365 E0.52781
G1 X144.927 Y82.516 E0.54203
G1 X144.659 Y82.705 E0.55625
G1 X144.419 Y82.929 E0.57048
G1 X144.212 Y83.184 E0.5847
G1 X144.041 Y83.464 E0.59893
G1 X143.911 Y83.765 E0.61315
G1 X143.822 Y84.082 E0.62737
G1 X143.777 Y84.407 E0.64159
G1 X143.777 Y84.639 E0.65167
G1 X144.298 Y84.699 F9000
;TYPE:External perimeter
G1 F1200
G1 X144.333 Y84.954 E0.66281
G1 X144.403 Y85.202 E0.67395
G1 X144.506 Y85.438 E0.68512
G1 X144.639 Y85.657 E0.69621
G1 X144.801 Y85.856 E0.70735
G1 X144.989 Y86.031 E0.71848
G1 X145.199 Y86.18 E0.72962
G1 X145.427 Y86.298 E0.74075
G1 X145.669 Y86.384 E0.75189
G1 X145.921 Y86.436 E0.76302
G1 X146.177 Y86.454 E0.77416
G1 X146.433 Y86.436 E0.78529
G1 X146.685 Y86.384 E0.79642
G1 X146.927 Y86.298 E0.80756
G1 X147.155 Y86.18 E0.81869
G1 X147.365 Y86.031 E0.82983
G1 X147.553 Y85.856 E0.84096
G1 X147.715 Y85.657 E0.8521
G1 X147.849 Y85.437 E0.86323
G1 X147.951 Y85.201 E0.87437
G1 X148.02 Y84.954 E0.8855
G1 X148.055 Y84.699 E0.89664
G1 X148.055 Y84.442 E0.90777
G1 X148.02 Y84.188 E0.91891
G1 X147.951 Y83.94 E0.93004
G1 X147.849 Y83.705 E0.94118
G1 X147.715 Y83.485 E0.95231
G1 X147.553 Y83.286 E0.96345
G1 X147.365 Y83.11 E0.97458
G1 X147.155 Y82.962 E0.98571
G1 X146.927 Y82.844 E0.99685
G1 X146.685 Y82.758 E1.00798
G1 X146.433 Y82.706 E1.01912
G1 X146.177 Y82.688 E1.03025
G1 X145.921 Y82.706 E1.04139
G1 X145.669 Y82.758 E1.05252
G1 X145.427 Y82.844 E1.06366
G1 X145.199 Y82.962 E1.07479
G1 X144.989 Y83.11 E1.08593
G1 X144.801 Y83.286 E1.09706
G1 X144.639 Y83.485 E1.1082
G1 X144.505 Y83.705 E1.11933
G1 X144.403 Y83.94 E1.13047
G1 X144.333 Y84.188 E1.1416
G1 X144.298 Y84.442 E1.15274
G1 X144.298 Y84.639 E1.16127
;WIPE_START
G1 X143.972 Y84.93 F9000
;WIPE_END
G92 E0
G1 E-0.7 F3600
;WIPE_START
G1 F7200
G1 X144.214 Y85.269 E-0.89777
G1 X144.287 Y85.437 E-0.985
;WIPE_END
G1 E-1 F3600
; acceleration to travel
M204 S1500
G1 X141.248 Y74.608 F9000
; decel to extrusion
M204 S500
G1 X140.877 Y73.285
; end travel
G1 E0 F2400
;TYPE:Internal perimeter
G1 F1200
G1 X141.83 Y74.133 E0.05527
G1 X143.438 Y75.741 E0.15381
G1 X144.95 Y77.44 E0.25235
G1 X146.36 Y79.224 E0.35089
G1 X147.665 Y81.087 E0.44942
G1 X148.859 Y83.023 E0.54796
G1 X149.938 Y85.024 E0.6465
G1 X150.899 Y87.086 E0.74504
G1 X151.739 Y89.199 E0.84357
G1 X152.454 Y91.358 E0.94211
G1 X153.043 Y93.555 E1.04065
G1 X153.301 Y94.805 E1.09598
G1 X152.11 Y94.899 E1.14772
G1 X149.885 Y95.237 E1.24522
G1 X147.691 Y95.732 E1.34272
G1 X145.537 Y96.384 E1.44022
G1 X143.435 Y97.189 E1.53772
G1 X141.397 Y98.142 E1.63522
G1 X139.432 Y99.239 E1.73272
G1 X137.551 Y100.474 E1.83022
G1 X135.763 Y101.841 E1.92772
G1 X134.078 Y103.332 E2.02522
G1 X132.504 Y104.94 E2.12271
G1 X131.049 Y106.657 E2.22021
G1 X129.721 Y108.474 E2.31771
G1 X128.527 Y110.381 E2.41521
G1 X127.473 Y112.369 E2.51271
G1 X126.563 Y114.427 E2.61021
G1 X125.804 Y116.545 E2.70771
G1 X125.198 Y118.712 E2.80521
G1 X124.749 Y120.917 E2.90271
G1 X124.633 Y121.817 E2.94199
G1 X124.46 Y123.149 E3.00021
G1 X124.331 Y125.396 E3.0977
G1 X124.363 Y127.646 E3.1952
G1 X124.557 Y129.888 E3.29271
G1 X124.913 Y132.122 E3.39073
G1 X125.423 Y134.301 E3.4877
G1 X126.091 Y136.45 E3.5852
G1 X126.911 Y138.545 E3.6827
G1 X127.847 Y140.508 E3.77692
G1 X131.022 Y149.23 E4.17908
G1 X131.022 Y152.168 E4.30636
G1 X98.978 Y152.168 E5.69472
G1 X98.978 Y149.23 E5.822
G1 X102.153 Y140.508 E6.22416
G1 X103.089 Y138.545 E6.31838
G1 X103.909 Y136.45 E6.41588
G1 X104.577 Y134.301 E6.51338
G1 X105.089 Y132.11 E6.61088
G1 X105.443 Y129.887 E6.70838
G1 X105.637 Y127.646 E6.80588
G1 X105.669 Y125.396 E6.90338
G1 X105.54 Y123.149 E7.00088
G1 X105.311 Y121.383 E7.07803
G1 X105.251 Y120.917 E7.09838
G1 X104.802 Y118.712 E7.19587
G1 X104.196 Y116.545 E7.29337
G1 X103.437 Y114.427 E7.39087
G1 X102.527 Y112.369 E7.48837
G1 X101.473 Y110.381 E7.58587
G1 X100.279 Y108.474 E7.68337
G1 X98.951 Y106.657 E7.78087
G1 X97.496 Y104.94 E7.87837
G1 X95.922 Y103.332 E7.97586
G1 X94.237 Y101.841 E8.07336
G1 X92.449 Y100.474 E8.17086
G1 X90.568 Y99.239 E8.26836
G1 X88.603 Y98.142 E8.36586
G1 X86.565 Y97.189 E8.46336
G1 X84.463 Y96.384 E8.56086
G1 X82.309 Y95.732 E8.65836
G1 X80.115 Y95.237 E8.75586
G1 X77.89 Y94.899 E8.85336
G1 X76.699 Y94.805 E8.9051
G1 X76.957 Y93.555 E8.96043
G1 X77.546 Y91.358 E9.05897
G1 X78.261 Y89.199 E9.15751
G1 X79.101 Y87.086 E9.25604
G1 X80.062 Y85.024 E9.35458
G1 X81.141 Y83.023 E9.45312
G1 X82.335 Y81.087 E9.55166
G1 X83.64 Y79.224 E9.65019
G1 X85.05 Y77.44 E9.74873
G1 X86.562 Y75.741 E9.84727
G1 X88.17 Y74.133 E9.94581
G1 X89.123 Y73.285 E10.00108
G1 X89.755 Y74.206 E10.04946
G1 X91.105 Y75.908 E10.1436
G1 X92.569 Y77.513 E10.23774
G1 X94.141 Y79.013 E10.33188
G1 X95.813 Y80.401 E10.42602
G1 X97.577 Y81.669 E10.52016
G1 X99.423 Y82.811 E10.6142
G1 X101.691 Y84.021 E10.72556
G1 X101.992 Y84.244 E10.74181
G1 X102.271 Y84.51 E10.7585
G1 X102.514 Y84.808 E10.77518
G1 X102.719 Y85.134 E10.79187
G1 X102.882 Y85.483 E10.80856
G1 X103 Y85.85 E10.82524
G1 X103.071 Y86.228 E10.84193
G1 X103.097 Y86.641 E10.85984
G1 X103.097 Y88.1 E10.92308
G1 X103.137 Y88.711 E10.94959
G1 X103.262 Y89.34 E10.97739
G1 X103.468 Y89.948 E11.00519
G1 X103.752 Y90.523 E11.03299
G1 X104.109 Y91.057 E11.06079
G1 X104.532 Y91.539 E11.08859
G1 X105.014 Y91.962 E11.11639
G1 X105.547 Y92.319 E11.14419
G1 X106.123 Y92.603 E11.17199
G1 X106.73 Y92.809 E11.19979
G1 X107.36 Y92.934 E11.22759
G1 X107.97 Y92.974 E11.2541
G1 X122.03 Y92.974 E11.86326
G1 X122.64 Y92.934 E11.88977
G1 X123.27 Y92.809 E11.91757
G1 X123.877 Y92.603 E11.94537
G1 X124.453 Y92.319 E11.97317
G1 X124.986 Y91.962 E12.00097
G1 X125.468 Y91.539 E12.02877
G1 X125.891 Y91.057 E12.05657
G1 X126.248 Y90.523 E12.08437
G1 X126.532 Y89.948 E12.11217
G1 X126.738 Y89.34 E12.13997
G1 X126.863 Y88.711 E12.16777
G1 X126.903 Y88.1 E12.19428
G1 X126.903 Y86.641 E12.25752
G1 X126.929 Y86.228 E12.27543
