; generated by SuperSlicer 2.4 on 2023-11-03 at 01:54:03 UTC

; 

; external perimeters extrusion width = 0.42mm
; perimeters extrusion width = 0.46mm
; infill extrusion width = 0.44mm
; solid infill extrusion width = 0.46mm
; top infill extrusion width = 0.44mm
; first layer extrusion width = 0.56mm

; object:{"name":"MotorStand","id":"MotorStand.STL id:0 copy 0","object_center":[115.000000,112.500000,0.000000],"boundingbox_center":[115.000000,112.500000,30.000000],"boundingbox_size":[78.784622,79.141777,60.000000]}
; Total objects to print: 1
M486 T1
; plater:{"center":[115.000000,112.500000,0.000000],"boundingbox_center":[115.000000,112.500000,30.000000],"boundingbox_size":[78.784622,79.141777,60.000000]}

;TYPE:Custom
G90 ; use absolute coordinates
M83 ; extruder relative mode
M140 S60 ; set final bed temp
M104 S150 ; set temporary nozzle temp to prevent oozing during homing and auto bed leveling
G4 S10 ; allow partial nozzle warmup
G28 ; home all axis
G1 Z50 F240
G1 X2 Y10 F3000
M104 S205 ; set final nozzle temp
M190 S60 ; wait for bed temp to stabilize
M109 S205 ; wait for nozzle temp to stabilize
G1 Z0.28 F240
G92 E0
G1 Y140 E10 F1500 ; prime the nozzle
G1 X2.3 F5000
G92 E0
G1 Y10 E10 F1200 ; prime the nozzle
G92 E0
M107
G21 ; set units to millimeters
G90 ; use absolute coordinates
M82 ; use absolute distances for extrusion
G92 E0
; Filament gcode
;_TOOLCHANGE 0
M107
;LAYER_CHANGE
;Z:0.2
;HEIGHT:0.2
;BEFORE_LAYER_CHANGE
;0.2


G1 E-1 F3600
G1 Z0.2 F9000
;AFTER_LAYER_CHANGE
;0.2
G92 E0
M204 S500
G1 X83.342 Y74.168
G1 E1 F2400
;TYPE:Skirt
;WIDTH:0.48
G1 F1200
G1 X81.834 Y75.863 E1.08247
G1 X80.279 Y77.838 E1.17383
G1 X78.841 Y79.901 E1.2652
G1 X77.526 Y82.043 E1.35656
G1 X76.338 Y84.259 E1.44792
G1 X75.28 Y86.539 E1.53929
G1 X74.357 Y88.878 E1.63065
G1 X73.625 Y91.086 E1.71522
G1 X72.969 Y93.513 E1.80658
G1 X72.456 Y95.974 E1.89794
G1 X72.625 Y97.834 E1.96581
G1 X95.092 Y153.28 E4.14005
G1 X96.533 Y154.896 E4.21872
G1 X98.075 Y155.289 E4.27659
G1 X131.925 Y155.289 E5.50678
G1 X133.963 Y154.561 E5.58545
G1 X134.908 Y153.28 E5.64331
G1 X157.375 Y97.834 E7.81756
G1 X157.544 Y95.974 E7.88542
G1 X157.074 Y93.695 E7.96999
G1 X156.428 Y91.266 E8.06135
G1 X155.579 Y88.702 E8.15951
G1 X154.646 Y86.367 E8.25088
G1 X153.578 Y84.091 E8.34224
G1 X152.38 Y81.881 E8.43361
G1 X151.159 Y79.901 E8.51817
G1 X149.721 Y77.838 E8.60954
G1 X148.166 Y75.863 E8.7009
G1 X146.371 Y73.845 E8.79906
G1 X144.726 Y72.2 E8.88363
G1 X142.851 Y70.525 E8.97499
G1 X140.712 Y69.711 E9.05819
G1 X89.288 Y69.711 E10.92708
G1 X87.149 Y70.525 E11.01028
G1 X85.274 Y72.2 E11.10164
G1 X83.629 Y73.845 E11.18621
G1 X83.382 Y74.123 E11.19973
G92 E0
G1 E-0.7 F3600
;WIPE_START
G1 F7200
G1 X82.983 Y74.571 E-0.985
;WIPE_END
G1 E-1 F3600
; printing object MotorStand.STL id:0 copy 0
M486 S0
; acceleration to travel
M204 S1500
G1 X110.69 Y130.518 F9000
; decel to extrusion
M204 S500
G1 X114.075 Y137.353
; end travel
G1 E0 F2400
;TYPE:Internal perimeter
;WIDTH:0.564
G1 F1200
G1 X114.042 Y137.365 E0.00155
G1 X113.75 Y137.516 E0.01577
G1 X113.482 Y137.705 E0.02999
G1 X113.242 Y137.929 E0.04421
G1 X113.035 Y138.184 E0.05844
G1 X112.864 Y138.464 E0.07266
G1 X112.734 Y138.765 E0.08689
G1 X112.645 Y139.082 E0.10111
G1 X112.6 Y139.407 E0.11533
G1 X112.6 Y139.735 E0.12956
G1 X112.645 Y140.06 E0.14378
G1 X112.734 Y140.376 E0.158
G1 X112.864 Y140.677 E0.17222
G1 X113.035 Y140.958 E0.18645
G1 X113.242 Y141.213 E0.20067
G1 X113.482 Y141.437 E0.2149
G1 X113.75 Y141.626 E0.22912
G1 X114.042 Y141.777 E0.24334
G1 X114.351 Y141.887 E0.25757
G1 X114.672 Y141.954 E0.27179
G1 X115 Y141.976 E0.28601
G1 X115.328 Y141.954 E0.30024
G1 X115.649 Y141.887 E0.31446
G1 X115.958 Y141.777 E0.32868
G1 X116.25 Y141.626 E0.3429
G1 X116.518 Y141.437 E0.35713
G1 X116.758 Y141.213 E0.37135
G1 X116.965 Y140.958 E0.38558
G1 X117.136 Y140.677 E0.3998
G1 X117.266 Y140.376 E0.41402
G1 X117.355 Y140.06 E0.42824
G1 X117.4 Y139.735 E0.44247
G1 X117.4 Y139.407 E0.45669
G1 X117.355 Y139.082 E0.47092
G1 X117.266 Y138.765 E0.48514
G1 X117.136 Y138.464 E0.49936
G1 X116.965 Y138.184 E0.51359
G1 X116.758 Y137.929 E0.52781
G1 X116.518 Y137.705 E0.54203
G1 X116.25 Y137.516 E0.55625
G1 X115.958 Y137.365 E0.57048
G1 X115.649 Y137.255 E0.5847
G1 X115.328 Y137.188 E0.59892
G1 X115 Y137.166 E0.61315
G1 X114.672 Y137.188 E0.62737
G1 X114.351 Y137.255 E0.64159
G1 X114.132 Y137.333 E0.65167
G1 X114.25 Y137.844 F9000
;TYPE:External perimeter
G1 F1200
G1 X114.022 Y137.962 E0.66281
G1 X113.812 Y138.11 E0.67394
G1 X113.624 Y138.286 E0.68508
G1 X113.462 Y138.485 E0.69621
G1 X113.328 Y138.705 E0.70735
G1 X113.226 Y138.94 E0.71848
G1 X113.156 Y139.188 E0.72962
G1 X113.121 Y139.442 E0.74075
G1 X113.121 Y139.699 E0.75189
G1 X113.156 Y139.954 E0.76302
G1 X113.226 Y140.201 E0.77416
G1 X113.328 Y140.437 E0.78529
G1 X113.462 Y140.657 E0.79643
G1 X113.624 Y140.856 E0.80756
G1 X113.812 Y141.031 E0.81869
G1 X114.022 Y141.18 E0.82983
G1 X114.25 Y141.298 E0.84096
G1 X114.492 Y141.384 E0.8521
G1 X114.744 Y141.436 E0.86323
G1 X115 Y141.454 E0.87437
G1 X115.256 Y141.436 E0.8855
G1 X115.508 Y141.384 E0.89664
G1 X115.75 Y141.298 E0.90777
G1 X115.978 Y141.18 E0.91891
G1 X116.188 Y141.031 E0.93004
G1 X116.376 Y140.856 E0.94118
G1 X116.538 Y140.657 E0.95231
G1 X116.672 Y140.437 E0.96345
G1 X116.774 Y140.201 E0.97458
G1 X116.844 Y139.954 E0.98571
G1 X116.879 Y139.699 E0.99685
G1 X116.879 Y139.442 E1.00798
G1 X116.844 Y139.188 E1.01912
G1 X116.774 Y138.94 E1.03025
G1 X116.672 Y138.705 E1.04139
G1 X116.538 Y138.485 E1.05252
G1 X116.376 Y138.286 E1.06366
G1 X116.188 Y138.11 E1.07479
G1 X115.978 Y137.962 E1.08593
G1 X115.75 Y137.844 E1.09706
G1 X115.508 Y137.758 E1.1082
G1 X115.256 Y137.706 E1.11933
G1 X115 Y137.688 E1.13047
G1 X114.744 Y137.706 E1.1416
G1 X114.492 Y137.758 E1.15273
G1 X114.306 Y137.824 E1.16127
;WIPE_START
G1 X113.923 Y137.613 F9000
;WIPE_END
G92 E0
G1 E-0.7 F3600
;WIPE_START
G1 F7200
G1 X113.685 Y137.955 E-0.89772
G1 X113.551 Y138.08 E-0.985
;WIPE_END
G1 E-1 F3600
; acceleration to travel
M204 S1500
G1 X88.145 Y93.134 F9000
; decel to extrusion
M204 S500
G1 X85.041 Y87.642
; end travel
G1 E0 F2400
;TYPE:Internal perimeter
G1 F1200
G1 X85.073 Y87.626 E0.00154
G1 X85.341 Y87.437 E0.01577
G1 X85.581 Y87.213 E0.02999
G1 X85.788 Y86.958 E0.04421
G1 X85.959 Y86.677 E0.05844
G1 X86.089 Y86.376 E0.07266
G1 X86.178 Y86.06 E0.08688
G1 X86.223 Y85.735 E0.10111
G1 X86.223 Y85.407 E0.11533
G1 X86.178 Y85.082 E0.12955
G1 X86.089 Y84.765 E0.14378
G1 X85.959 Y84.464 E0.158
G1 X85.788 Y84.184 E0.17222
G1 X85.581 Y83.929 E0.18645
G1 X85.341 Y83.705 E0.20067
G1 X85.073 Y83.516 E0.21489
G1 X84.781 Y83.365 E0.22912
G1 X84.472 Y83.255 E0.24334
G1 X84.151 Y83.188 E0.25756
G1 X83.823 Y83.166 E0.27179
G1 X83.496 Y83.188 E0.28601
G1 X83.174 Y83.255 E0.30023
G1 X82.865 Y83.365 E0.31446
G1 X82.573 Y83.516 E0.32868
G1 X82.305 Y83.705 E0.3429
G1 X82.065 Y83.929 E0.35713
G1 X81.858 Y84.184 E0.37135
G1 X81.688 Y84.464 E0.38557
G1 X81.557 Y84.765 E0.3998
G1 X81.468 Y85.082 E0.41402
G1 X81.424 Y85.407 E0.42824
G1 X81.424 Y85.735 E0.44247
G1 X81.468 Y86.06 E0.45669
G1 X81.557 Y86.376 E0.47091
G1 X81.688 Y86.677 E0.48514
G1 X81.858 Y86.958 E0.49936
G1 X82.065 Y87.213 E0.51358
G1 X82.305 Y87.437 E0.52781
G1 X82.573 Y87.626 E0.54203
G1 X82.865 Y87.777 E0.55625
G1 X83.174 Y87.887 E0.57048
G1 X83.496 Y87.954 E0.5847
G1 X83.823 Y87.976 E0.59892
G1 X84.151 Y87.954 E0.61315
G1 X84.472 Y87.887 E0.62737
G1 X84.781 Y87.777 E0.64159
G1 X84.988 Y87.67 E0.65167
G1 X84.801 Y87.18 F9000
;TYPE:External perimeter
G1 F1200
G1 X85.011 Y87.031 E0.66281
G1 X85.199 Y86.856 E0.67394
G1 X85.361 Y86.657 E0.68508
G1 X85.495 Y86.437 E0.69621
G1 X85.597 Y86.201 E0.70735
G1 X85.667 Y85.954 E0.71848
G1 X85.702 Y85.699 E0.72962
G1 X85.702 Y85.442 E0.74075
G1 X85.667 Y85.188 E0.75189
G1 X85.597 Y84.94 E0.76302
G1 X85.495 Y84.705 E0.77416
G1 X85.361 Y84.485 E0.78529
G1 X85.199 Y84.286 E0.79643
G1 X85.011 Y84.11 E0.80756
G1 X84.801 Y83.962 E0.81869
G1 X84.573 Y83.844 E0.82983
G1 X84.331 Y83.758 E0.84096
G1 X84.079 Y83.706 E0.8521
G1 X83.823 Y83.688 E0.86323
G1 X83.567 Y83.706 E0.87437
G1 X83.315 Y83.758 E0.8855
G1 X83.073 Y83.844 E0.89664
G1 X82.845 Y83.962 E0.90777
G1 X82.635 Y84.11 E0.91891
G1 X82.447 Y84.286 E0.93004
G1 X82.285 Y84.485 E0.94118
G1 X82.151 Y84.705 E0.95231
G1 X82.049 Y84.94 E0.96345
G1 X81.98 Y85.188 E0.97458
G1 X81.945 Y85.442 E0.98571
G1 X81.945 Y85.699 E0.99685
G1 X81.98 Y85.954 E1.00798
G1 X82.049 Y86.201 E1.01912
G1 X82.151 Y86.437 E1.03025
G1 X82.285 Y86.657 E1.04139
G1 X82.447 Y86.856 E1.05252
G1 X82.635 Y87.031 E1.06366
G1 X82.845 Y87.18 E1.07479
G1 X83.073 Y87.298 E1.08593
G1 X83.315 Y87.384 E1.09706
G1 X83.567 Y87.436 E1.1082
G1 X83.823 Y87.454 E1.11933
G1 X84.079 Y87.436 E1.13047
G1 X84.331 Y87.384 E1.1416
G1 X84.573 Y87.298 E1.15273
G1 X84.748 Y87.207 E1.16127
;WIPE_START
G1 X85.157 Y87.364 F9000
;WIPE_END
G92 E0
G1 E-0.7 F3600
;WIPE_START
G1 F7200
G1 X85.346 Y86.993 E-0.89772
G1 X85.462 Y86.85 E-0.985
;WIPE_END
G1 E-1 F3600
; acceleration to travel
M204 S1500
G1 X137.428 Y85.825 F9000
; decel to extrusion
M204 S500
G1 X143.777 Y85.699
; end travel
G1 E0 F2400
;TYPE:Internal perimeter
G1 F1200
G1 X143.777 Y85.735 E0.00154
G1 X143.822 Y86.06 E0.01577
G1 X143.911 Y86.377 E0.03
G1 X144.042 Y86.678 E0.04426
G1 X144.212 Y86.958 E0.05844
G1 X144.419 Y87.213 E0.07266
G1 X144.659 Y87.437 E0.08688
G1 X144.927 Y87.626 E0.10111
G1 X145.219 Y87.777 E0.11533
G1 X145.528 Y87.887 E0.12955
G1 X145.849 Y87.954 E0.14378
G1 X146.177 Y87.976 E0.158
G1 X146.504 Y87.954 E0.17222
G1 X146.826 Y87.887 E0.18645
G1 X147.135 Y87.777 E0.20067
G1 X147.427 Y87.626 E0.21489
G1 X147.695 Y87.437 E0.22912
G1 X147.935 Y87.213 E0.24334
G1 X148.142 Y86.958 E0.25756
G1 X148.312 Y86.677 E0.27179
G1 X148.443 Y86.376 E0.28601
G1 X148.532 Y86.06 E0.30023
G1 X148.576 Y85.735 E0.31446
G1 X148.576 Y85.407 E0.32868
G1 X148.532 Y85.082 E0.3429
G1 X148.443 Y84.765 E0.35713
G1 X148.312 Y84.464 E0.37135
G1 X148.142 Y84.184 E0.38557
G1 X147.935 Y83.929 E0.3998
G1 X147.695 Y83.705 E0.41402
G1 X147.427 Y83.516 E0.42824
G1 X147.135 Y83.365 E0.44247
G1 X146.826 Y83.255 E0.45669
G1 X146.504 Y83.188 E0.47091
G1 X146.177 Y83.166 E0.48514
G1 X145.849 Y83.188 E0.49936
G1 X145.528 Y83.255 E0.51358
G1 X145.219 Y83.365 E0.52781
G1 X144.927 Y83.516 E0.54203
G1 X144.659 Y83.705 E0.55625
G1 X144.419 Y83.929 E0.57048
G1 X144.212 Y84.184 E0.5847
G1 X144.041 Y84.464 E0.59893
G1 X143.911 Y84.765 E0.61315
G1 X143.822 Y85.082 E0.62737
G1 X143.777 Y85.407 E0.64159
G1 X143.777 Y85.639 E0.65167
G1 X144.298 Y85.699 F9000
;TYPE:External perimeter
G1 F1200
G1 X144.333 Y85.954 E0.66281
G1 X144.403 Y86.202 E0.67395
G1 X144.506 Y86.438 E0.68512
G1 X144.639 Y86.657 E0.69621
G1 X144.801 Y86.856 E0.70735
G1 X144.989 Y87.031 E0.71848
G1 X145.199 Y87.18 E0.72962
G1 X145.427 Y87.298 E0.74075
G1 X145.669 Y87.384 E0.75189
G1 X145.921 Y87.436 E0.76302
G1 X146.177 Y87.454 E0.77416
G1 X146.433 Y87.436 E0.78529
G1 X146.685 Y87.384 E0.79642
G1 X146.927 Y87.298 E0.80756
G1 X147.155 Y87.18 E0.81869
G1 X147.365 Y87.031 E0.82983
G1 X147.553 Y86.856 E0.84096
G1 X147.715 Y86.657 E0.8521
G1 X147.849 Y86.437 E0.86323
G1 X147.951 Y86.201 E0.87437
G1 X148.02 Y85.954 E0.8855
G1 X148.055 Y85.699 E0.89664
G1 X148.055 Y85.442 E0.90777
G1 X148.02 Y85.188 E0.91891
G1 X147.951 Y84.94 E0.93004
G1 X147.849 Y84.705 E0.94118
G1 X147.715 Y84.485 E0.95231
G1 X147.553 Y84.286 E0.96345
G1 X147.365 Y84.11 E0.97458
G1 X147.155 Y83.962 E0.98571
G1 X146.927 Y83.844 E0.99685
G1 X146.685 Y83.758 E1.00798
G1 X146.433 Y83.706 E1.01912
G1 X146.177 Y83.688 E1.03025
G1 X145.921 Y83.706 E1.04139
G1 X145.669 Y83.758 E1.05252
G1 X145.427 Y83.844 E1.06366
G1 X145.199 Y83.962 E1.07479
G1 X144.989 Y84.11 E1.08593
G1 X144.801 Y84.286 E1.09706
G1 X144.639 Y84.485 E1.1082
G1 X144.505 Y84.705 E1.11933
G1 X144.403 Y84.94 E1.13047
G1 X144.333 Y85.188 E1.1416
G1 X144.298 Y85.442 E1.15274
G1 X144.298 Y85.639 E1.16127
;WIPE_START
G1 X143.972 Y85.93 F9000
;WIPE_END
G92 E0
G1 E-0.7 F3600
;WIPE_START
G1 F7200
G1 X144.214 Y86.269 E-0.89777
G1 X144.287 Y86.437 E-0.985
;WIPE_END
G1 E-1 F3600
; acceleration to travel
M204 S1500
G1 X141.247 Y75.607 F9000
; decel to extrusion
M204 S500
G1 X140.876 Y74.284
; end travel
G1 E0 F2400
;TYPE:Internal perimeter
G1 F1200
G1 X141.83 Y75.133 E0.05533
G1 X143.438 Y76.741 E0.15387
G1 X144.95 Y78.44 E0.2524
G1 X146.36 Y80.224 E0.35094
G1 X147.665 Y82.087 E0.44948
G1 X148.859 Y84.023 E0.54802
G1 X149.938 Y86.024 E0.64655
G1 X150.899 Y88.086 E0.74509
G1 X151.739 Y90.199 E0.84363
G1 X152.454 Y92.358 E0.94217
G1 X153.043 Y94.555 E1.0407
G1 X153.301 Y95.805 E1.09603
G1 X152.11 Y95.899 E1.14778
G1 X149.885 Y96.237 E1.24528
G1 X147.691 Y96.732 E1.34278
G1 X145.537 Y97.384 E1.44028
G1 X143.435 Y98.189 E1.53778
G1 X141.397 Y99.142 E1.63527
G1 X139.432 Y100.239 E1.73277
G1 X137.551 Y101.474 E1.83027
G1 X135.763 Y102.841 E1.92777
G1 X134.078 Y104.332 E2.02527
G1 X132.504 Y105.94 E2.12277
G1 X131.049 Y107.657 E2.22027
G1 X129.721 Y109.474 E2.31777
G1 X128.527 Y111.381 E2.41527
G1 X127.473 Y113.369 E2.51277
G1 X126.563 Y115.427 E2.61026
G1 X125.804 Y117.545 E2.70776
G1 X125.198 Y119.712 E2.80526
G1 X124.749 Y121.917 E2.90276
G1 X124.633 Y122.817 E2.94204
G1 X124.46 Y124.149 E3.00026
G1 X124.331 Y126.396 E3.09776
G1 X124.363 Y128.646 E3.19526
G1 X124.557 Y130.888 E3.29276
G1 X124.913 Y133.122 E3.39078
G1 X125.423 Y135.301 E3.48776
G1 X126.091 Y137.45 E3.58525
G1 X126.911 Y139.545 E3.68275
G1 X127.847 Y141.508 E3.77697
G1 X131.022 Y150.23 E4.17913
G1 X131.022 Y151.168 E4.21976
G1 X98.978 Y151.168 E5.60812
G1 X98.978 Y150.23 E5.64875
G1 X102.153 Y141.508 E6.05091
G1 X103.089 Y139.545 E6.14513
G1 X103.909 Y137.45 E6.24262
G1 X104.577 Y135.301 E6.34013
G1 X105.089 Y133.11 E6.43762
G1 X105.443 Y130.887 E6.53512
G1 X105.637 Y128.646 E6.63262
G1 X105.669 Y126.396 E6.73012
G1 X105.54 Y124.149 E6.82762
G1 X105.311 Y122.383 E6.90478
G1 X105.251 Y121.917 E6.92512
G1 X104.802 Y119.712 E7.02262
G1 X104.196 Y117.545 E7.12012
G1 X103.437 Y115.427 E7.21761
G1 X102.527 Y113.369 E7.31511
G1 X101.473 Y111.381 E7.41261
G1 X101.224 Y110.983 E7.43295
G1 X100.279 Y109.474 E7.51011
G1 X98.951 Y107.657 E7.60761
G1 X97.496 Y105.94 E7.70511
G1 X95.922 Y104.332 E7.80261
G1 X94.237 Y102.841 E7.90011
G1 X92.449 Y101.474 E7.99761
G1 X90.568 Y100.239 E8.09511
G1 X88.603 Y99.142 E8.1926
G1 X86.565 Y98.189 E8.2901
G1 X84.463 Y97.384 E8.3876
G1 X82.309 Y96.732 E8.4851
G1 X80.115 Y96.237 E8.5826
G1 X77.89 Y95.899 E8.6801
G1 X76.699 Y95.805 E8.73185
G1 X76.957 Y94.555 E8.78718
G1 X77.546 Y92.358 E8.88571
G1 X78.261 Y90.199 E8.98425
G1 X79.101 Y88.086 E9.08279
G1 X80.062 Y86.024 E9.18133
G1 X81.141 Y84.023 E9.27986
G1 X82.335 Y82.087 E9.3784
G1 X83.64 Y80.224 E9.47694
G1 X85.05 Y78.44 E9.57548
G1 X86.562 Y76.741 E9.67401
G1 X88.17 Y75.133 E9.77255
G1 X89.124 Y74.284 E9.82788
G1 X89.801 Y75.268 E9.87963
G1 X91.206 Y77.027 E9.97714
G1 X92.75 Y78.696 E10.0757
G1 X94.374 Y80.218 E10.17213
G1 X96.122 Y81.636 E10.26962
G1 X97.966 Y82.925 E10.36712
G1 X99.899 Y84.078 E10.46462
G1 X101.909 Y85.089 E10.56212
G1 X103.986 Y85.954 E10.65962
G1 X106.12 Y86.668 E10.75712
G1 X108.3 Y87.227 E10.85461
G1 X110.514 Y87.629 E10.95211
G1 X112.751 Y87.87 E11.04961
G1 X115 Y87.951 E11.14711
G1 X117.249 Y87.87 E11.24461
G1 X119.486 Y87.629 E11.34211
G1 X121.7 Y87.227 E11.43961
G1 X123.88 Y86.668 E11.53711
G1 X126.014 Y85.954 E11.63461
G1 X128.091 Y85.089 E11.73211
G1 X130.101 Y84.078 E11.8296
G1 X132.034 Y82.925 E11.9271
G1 X133.878 Y81.636 E12.0246
G1 X134.243 Y81.34 E12.04494
G1 X135.626 Y80.218 E12.1221
G1 X137.268 Y78.679 E12.2196
G1 X138.794 Y77.026 E12.3171
G1 X140.199 Y75.268 E12.4146
G1 X140.842 Y74.334 E12.46375
G1 X140.781 Y73.502 F9000
;TYPE:External perimeter
G1 F1200
G1 X141.153 Y73.833 E12.48531
G1 X142.187 Y74.754 E12.54532
G1 X143.817 Y76.384 E12.64517
G1 X145.349 Y78.105 E12.74502
G1 X146.778 Y79.913 E12.84487
G1 X148.1 Y81.801 E12.94473
G1 X149.31 Y83.762 E13.04458
G1 X150.404 Y85.79 E13.14443
G1 X151.378 Y87.879 E13.24428
G1 X152.229 Y90.021 E13.34413
G1 X152.953 Y92.208 E13.44398
G1 X153.55 Y94.434 E13.54383
