; generated by SuperSlicer 2.4 on 2023-11-15 at 07:56:15 UTC

; 

; external perimeters extrusion width = 0.42mm
; perimeters extrusion width = 0.46mm
; infill extrusion width = 0.44mm
; solid infill extrusion width = 0.46mm
; top infill extrusion width = 0.44mm
; first layer extrusion width = 0.56mm

; object:{"name":"planet_plate_upper","id":"planet_plate_upper.STL id:0 copy 0","object_center":[115.000000,112.500000,0.000000],"boundingbox_center":[115.000000,112.500000,7.000000],"boundingbox_size":[43.995075,44.000000,14.000000]}
; Total objects to print: 1
M486 T1
; plater:{"center":[115.000000,112.500000,0.000000],"boundingbox_center":[115.000000,112.500000,7.000000],"boundingbox_size":[43.995075,44.000000,14.000000]}

;TYPE:Custom
G90 ; use absolute coordinates
M83 ; extruder relative mode
M140 S60 ; set final bed temp
M104 S150 ; set temporary nozzle temp to prevent oozing during homing and auto bed leveling
G4 S10 ; allow partial nozzle warmup
G28 ; home all axis
G1 Z50 F240
G1 X2 Y10 F3000
M104 S205 ; set final nozzle temp
M190 S60 ; wait for bed temp to stabilize
M109 S205 ; wait for nozzle temp to stabilize
G1 Z0.28 F240
G92 E0
G1 Y140 E10 F1500 ; prime the nozzle
G1 X2.3 F5000
G92 E0
G1 Y10 E10 F1200 ; prime the nozzle
G92 E0
M107
G21 ; set units to millimeters
G90 ; use absolute coordinates
M82 ; use absolute distances for extrusion
G92 E0
; Filament gcode
;_TOOLCHANGE 0
M107
;LAYER_CHANGE
;Z:0.2
;HEIGHT:0.2
;BEFORE_LAYER_CHANGE
;0.2


G1 E-2 F3600
G1 Z0.2 F9000
;AFTER_LAYER_CHANGE
;0.2
G92 E0
M204 S500
G1 X97.863 Y94.967
G1 E2 F2400
;TYPE:Skirt
;WIDTH:0.48
G1 F1200
G1 X96.023 Y96.979 E2.09909
G1 X94.896 Y98.472 E2.16706
G1 X93.456 Y100.797 E2.26646
G1 X92.717 Y102.273 E2.32645
G1 X91.654 Y105.021 E2.43352
G1 X91.247 Y106.425 E2.48665
G1 X90.693 Y109.296 E2.59291
G1 X90.488 Y112.018 E2.69211
G1 X90.589 Y114.761 E2.7919
G1 X90.834 Y116.616 E2.85987
G1 X91.44 Y119.283 E2.95928
G1 X91.949 Y120.853 E3.01926
G1 X93.12 Y123.556 E3.12633
G1 X93.816 Y124.842 E3.17946
G1 X95.457 Y127.301 E3.28691
G1 X97.213 Y129.373 E3.38562
G1 X98.548 Y130.676 E3.45342
G1 X100.667 Y132.391 E3.5525
G1 X102.798 Y133.763 E3.6446
G1 X104.636 Y134.718 E3.71989
G1 X107.167 Y135.732 E3.81897
G1 X109.607 Y136.415 E3.91108
G1 X111.646 Y136.785 E3.98636
G1 X114.382 Y137.009 E4.08615
G1 X117.111 Y136.926 E4.18535
G1 X120.003 Y136.501 E4.29161
G1 X121.424 Y136.158 E4.34474
G1 X124.217 Y135.219 E4.45181
G1 X125.724 Y134.547 E4.5118
G1 X128.112 Y133.213 E4.6112
G1 X129.654 Y132.154 E4.67917
G1 X131.746 Y130.407 E4.77826
G1 X133.504 Y128.581 E4.87036
G1 X134.796 Y126.962 E4.94565
G1 X136.184 Y124.842 E5.03774
G1 X137.422 Y122.413 E5.13683
G1 X138.179 Y120.484 E5.21212
G1 X138.881 Y118.049 E5.30422
G1 X139.348 Y115.363 E5.40331
G1 X139.503 Y113.298 E5.47859
G1 X139.468 Y110.97 E5.5632
G1 X139.251 Y108.91 E5.63849
G1 X138.704 Y106.239 E5.73757
G1 X137.93 Y103.826 E5.82967
G1 X137.116 Y101.921 E5.90496
G1 X135.907 Y99.694 E5.99706
G1 X134.354 Y97.452 E6.09615
G1 X133.015 Y95.872 E6.17143
G1 X131.058 Y93.974 E6.27052
G1 X129.059 Y92.416 E6.36262
G1 X127.313 Y91.301 E6.4379
G1 X124.884 Y90.063 E6.53699
G1 X122.515 Y89.164 E6.62909
G1 X120.518 Y88.613 E6.70438
G1 X117.832 Y88.147 E6.80347
G1 X115.303 Y87.986 E6.89556
G1 X113.232 Y88.048 E6.97085
G1 X110.717 Y88.36 E7.06295
G1 X108.064 Y88.986 E7.16204
G1 X106.103 Y89.656 E7.23732
G1 X103.621 Y90.783 E7.33641
G1 X101.441 Y92.075 E7.42851
G1 X99.765 Y93.293 E7.5038
G1 X97.908 Y94.927 E7.59372
G92 E0
G1 E-1.4 F3600
;WIPE_START
G1 F7200
G1 X97.096 Y95.811 E-1.97
;WIPE_END
G1 E-2 F3600
; printing object planet_plate_upper.STL id:0 copy 0
M486 S0
; acceleration to travel
M204 S1500
G1 X104.993 Y102.492 F9000
; decel to extrusion
M204 S500
G1 X105.957 Y103.308
; end travel
G1 E0 F2400
;TYPE:Internal perimeter
;WIDTH:0.564
G1 F1200
G1 X105.694 Y103.561 E0.01584
G1 X105.005 Y104.339 E0.06086
G1 X104.38 Y105.17 E0.10589
G1 X103.825 Y106.048 E0.15091
G1 X103.342 Y106.968 E0.19594
G1 X102.935 Y107.924 E0.24096
G1 X102.606 Y108.91 E0.28599
G1 X102.357 Y109.919 E0.33101
G1 X102.19 Y110.945 E0.37604
G1 X102.107 Y111.98 E0.42106
G1 X102.107 Y113.02 E0.46609
G1 X102.19 Y114.055 E0.51111
G1 X102.357 Y115.081 E0.55614
G1 X102.606 Y116.09 E0.60116
G1 X102.935 Y117.076 E0.64619
G1 X103.342 Y118.032 E0.69121
G1 X103.825 Y118.952 E0.73626
G1 X104.38 Y119.83 E0.78126
G1 X105.005 Y120.661 E0.82629
G1 X105.694 Y121.439 E0.87131
G1 X106.443 Y122.159 E0.91634
G1 X107.248 Y122.816 E0.96136
G1 X108.103 Y123.406 E1.00639
G1 X109.003 Y123.926 E1.05141
G1 X109.942 Y124.371 E1.09644
G1 X110.914 Y124.74 E1.14146
G1 X111.912 Y125.029 E1.18649
G1 X112.93 Y125.237 E1.23151
G1 X113.962 Y125.362 E1.27654
G1 X115 Y125.404 E1.32156
G1 X116.038 Y125.362 E1.36659
G1 X117.07 Y125.237 E1.41161
G1 X118.088 Y125.029 E1.45664
G1 X119.086 Y124.74 E1.50166
G1 X120.058 Y124.371 E1.54669
G1 X120.997 Y123.926 E1.59171
G1 X121.897 Y123.406 E1.63674
G1 X122.752 Y122.816 E1.68176
G1 X123.557 Y122.159 E1.72679
G1 X124.306 Y121.439 E1.77181
G1 X124.995 Y120.661 E1.81684
G1 X125.62 Y119.83 E1.86186
G1 X126.175 Y118.951 E1.90691
G1 X126.658 Y118.032 E1.95191
G1 X127.065 Y117.076 E1.99694
G1 X127.394 Y116.09 E2.04196
G1 X127.643 Y115.081 E2.08699
G1 X127.81 Y114.055 E2.13201
G1 X127.893 Y113.02 E2.17704
G1 X127.893 Y111.98 E2.22206
G1 X127.81 Y110.945 E2.26709
G1 X127.643 Y109.919 E2.31211
G1 X127.394 Y108.91 E2.35714
G1 X127.065 Y107.924 E2.40216
G1 X126.658 Y106.968 E2.44719
G1 X126.175 Y106.048 E2.49221
G1 X125.62 Y105.17 E2.53724
G1 X124.995 Y104.339 E2.58226
G1 X124.306 Y103.561 E2.62729
G1 X123.557 Y102.841 E2.67231
G1 X122.752 Y102.184 E2.71734
G1 X121.897 Y101.594 E2.76236
G1 X120.997 Y101.074 E2.80739
G1 X120.058 Y100.629 E2.85241
G1 X119.086 Y100.26 E2.89744
G1 X118.088 Y99.971 E2.94246
G1 X117.07 Y99.763 E2.98749
G1 X116.038 Y99.638 E3.03251
G1 X114.999 Y99.596 E3.07756
G1 X114.481 Y99.617 E3.10006
G1 X113.962 Y99.638 E3.12256
G1 X112.93 Y99.763 E3.16759
G1 X111.912 Y99.971 E3.21261
G1 X110.914 Y100.26 E3.25764
G1 X109.942 Y100.629 E3.30266
G1 X109.003 Y101.074 E3.34769
G1 X108.103 Y101.594 E3.39271
G1 X107.248 Y102.184 E3.43774
G1 X106.443 Y102.841 E3.48276
G1 X106.001 Y103.266 E3.50935
G1 X106.318 Y103.684 F9000
;TYPE:External perimeter
G1 F1200
G1 X106.07 Y103.922 E3.52428
G1 X105.409 Y104.669 E3.56748
G1 X104.81 Y105.466 E3.61069
G1 X104.277 Y106.309 E3.65389
G1 X103.813 Y107.192 E3.6971
G1 X103.422 Y108.109 E3.74031
G1 X103.107 Y109.055 E3.78351
G1 X102.868 Y110.023 E3.82672
G1 X102.708 Y111.007 E3.86992
G1 X102.628 Y112.001 E3.91313
G1 X102.628 Y112.999 E3.95633
G1 X102.708 Y113.993 E3.99954
G1 X102.868 Y114.977 E4.04274
G1 X103.107 Y115.945 E4.08595
G1 X103.422 Y116.891 E4.12915
G1 X103.813 Y117.808 E4.17236
G1 X104.277 Y118.692 E4.21559
G1 X104.81 Y119.534 E4.25877
G1 X105.409 Y120.331 E4.30197
G1 X106.07 Y121.078 E4.34518
G1 X106.789 Y121.768 E4.38839
G1 X107.561 Y122.399 E4.43159
G1 X108.382 Y122.965 E4.4748
G1 X109.246 Y123.464 E4.518
G1 X110.147 Y123.891 E4.56121
G1 X111.079 Y124.245 E4.60441
G1 X112.037 Y124.522 E4.64762
G1 X113.014 Y124.722 E4.69082
G1 X114.004 Y124.842 E4.73403
G1 X115 Y124.882 E4.77723
G1 X115.996 Y124.842 E4.82044
G1 X116.986 Y124.722 E4.86364
G1 X117.963 Y124.522 E4.90685
G1 X118.921 Y124.245 E4.95005
G1 X119.853 Y123.891 E4.99326
G1 X120.754 Y123.464 E5.03647
G1 X121.618 Y122.965 E5.07967
G1 X122.439 Y122.399 E5.12288
G1 X123.211 Y121.768 E5.16608
G1 X123.93 Y121.078 E5.20929
G1 X124.591 Y120.331 E5.25249
G1 X125.19 Y119.534 E5.2957
G1 X125.724 Y118.691 E5.33893
G1 X126.187 Y117.808 E5.38211
G1 X126.578 Y116.891 E5.42531
G1 X126.893 Y115.945 E5.46852
G1 X127.132 Y114.977 E5.51172
G1 X127.292 Y113.993 E5.55493
G1 X127.372 Y112.999 E5.59814
G1 X127.372 Y112.001 E5.64134
G1 X127.292 Y111.007 E5.68455
G1 X127.132 Y110.023 E5.72775
G1 X126.893 Y109.055 E5.77096
G1 X126.578 Y108.109 E5.81416
G1 X126.187 Y107.192 E5.85737
G1 X125.723 Y106.309 E5.90057
G1 X125.19 Y105.466 E5.94378
G1 X124.591 Y104.669 E5.98698
G1 X123.93 Y103.922 E6.03019
G1 X123.211 Y103.232 E6.07339
G1 X122.439 Y102.601 E6.1166
G1 X121.618 Y102.035 E6.1598
G1 X120.754 Y101.536 E6.20301
G1 X119.853 Y101.109 E6.24622
G1 X118.921 Y100.755 E6.28942
G1 X117.963 Y100.478 E6.33263
G1 X116.986 Y100.278 E6.37583
G1 X115.996 Y100.158 E6.41904
G1 X114.999 Y100.118 E6.46226
G1 X114.502 Y100.138 E6.48386
G1 X114.004 Y100.158 E6.50545
G1 X113.014 Y100.278 E6.54865
G1 X112.037 Y100.478 E6.59186
G1 X111.079 Y100.755 E6.63506
G1 X110.147 Y101.109 E6.67827
G1 X109.246 Y101.536 E6.72147
G1 X108.382 Y102.035 E6.76468
G1 X107.561 Y102.601 E6.80789
G1 X106.789 Y103.232 E6.85109
G1 X106.362 Y103.642 E6.87677
;WIPE_START
G1 X105.934 Y103.573 F9000
;WIPE_END
G92 E0
G1 E-1.4 F3600
;WIPE_START
G1 F7200
G1 X105.254 Y104.542 E-1.96272
G1 X105.244 Y104.555 E-1.97
;WIPE_END
G1 E-2 F3600
; acceleration to travel
M204 S1500
G1 X112.351 Y97.924 F9000
; decel to extrusion
M204 S500
G1 X113.22 Y97.114
; end travel
G1 E0 F2400
;TYPE:Internal perimeter
G1 F1200
G1 X113.242 Y97.142 E0.00154
G1 X113.482 Y97.366 E0.01577
G1 X113.75 Y97.555 E0.02999
G1 X114.042 Y97.706 E0.04421
G1 X114.351 Y97.816 E0.05844
G1 X114.672 Y97.883 E0.07266
G1 X115 Y97.905 E0.08688
G1 X115.328 Y97.883 E0.10111
G1 X115.649 Y97.816 E0.11533
G1 X115.958 Y97.706 E0.12955
G1 X116.25 Y97.555 E0.14378
G1 X116.518 Y97.366 E0.158
G1 X116.758 Y97.142 E0.17222
G1 X116.965 Y96.887 E0.18645
G1 X117.136 Y96.607 E0.20067
G1 X117.266 Y96.305 E0.21489
G1 X117.355 Y95.989 E0.22912
G1 X117.4 Y95.664 E0.24334
G1 X117.4 Y95.336 E0.25756
G1 X117.355 Y95.011 E0.27179
G1 X117.266 Y94.695 E0.28601
G1 X117.136 Y94.393 E0.30023
G1 X116.965 Y94.113 E0.31446
G1 X116.758 Y93.858 E0.32868
G1 X116.518 Y93.634 E0.3429
G1 X116.25 Y93.445 E0.35713
G1 X115.958 Y93.294 E0.37135
G1 X115.649 Y93.184 E0.38557
G1 X115.328 Y93.117 E0.3998
G1 X115 Y93.095 E0.41402
G1 X114.672 Y93.117 E0.42824
G1 X114.351 Y93.184 E0.44247
G1 X114.042 Y93.294 E0.45669
G1 X113.75 Y93.445 E0.47091
G1 X113.482 Y93.634 E0.48514
G1 X113.242 Y93.858 E0.49936
G1 X113.035 Y94.113 E0.51358
G1 X112.864 Y94.393 E0.52781
G1 X112.734 Y94.695 E0.54203
G1 X112.645 Y95.011 E0.55625
G1 X112.6 Y95.336 E0.57048
G1 X112.6 Y95.664 E0.5847
G1 X112.645 Y95.989 E0.59892
G1 X112.734 Y96.306 E0.61315
G1 X112.865 Y96.607 E0.6274
G1 X113.035 Y96.887 E0.6416
G1 X113.182 Y97.067 E0.65167
G1 X113.624 Y96.785 F9000
;TYPE:External perimeter
G1 F1200
G1 X113.812 Y96.961 E0.66281
G1 X114.022 Y97.109 E0.67394
G1 X114.25 Y97.227 E0.68508
G1 X114.492 Y97.313 E0.69621
G1 X114.744 Y97.365 E0.70735
G1 X115 Y97.383 E0.71848
G1 X115.256 Y97.365 E0.72962
G1 X115.508 Y97.313 E0.74075
G1 X115.75 Y97.227 E0.75189
G1 X115.978 Y97.109 E0.76302
G1 X116.188 Y96.961 E0.77416
G1 X116.376 Y96.785 E0.78529
G1 X116.538 Y96.586 E0.79642
G1 X116.672 Y96.366 E0.80756
G1 X116.774 Y96.131 E0.81869
G1 X116.844 Y95.883 E0.82983
G1 X116.879 Y95.628 E0.84096
G1 X116.879 Y95.372 E0.8521
G1 X116.844 Y95.117 E0.86323
G1 X116.774 Y94.869 E0.87437
G1 X116.672 Y94.634 E0.8855
G1 X116.538 Y94.414 E0.89664
G1 X116.376 Y94.215 E0.90777
G1 X116.188 Y94.039 E0.91891
G1 X115.978 Y93.891 E0.93004
G1 X115.75 Y93.773 E0.94118
G1 X115.508 Y93.687 E0.95231
G1 X115.256 Y93.635 E0.96344
G1 X115 Y93.617 E0.97458
G1 X114.744 Y93.635 E0.98571
G1 X114.492 Y93.687 E0.99685
G1 X114.25 Y93.773 E1.00798
G1 X114.022 Y93.891 E1.01912
G1 X113.812 Y94.039 E1.03025
G1 X113.624 Y94.215 E1.04139
G1 X113.462 Y94.414 E1.05252
G1 X113.328 Y94.634 E1.06366
G1 X113.226 Y94.869 E1.07479
G1 X113.156 Y95.117 E1.08593
G1 X113.121 Y95.372 E1.09706
G1 X113.121 Y95.628 E1.1082
G1 X113.156 Y95.883 E1.11933
G1 X113.226 Y96.131 E1.13047
G1 X113.328 Y96.367 E1.14162
G1 X113.462 Y96.586 E1.15274
G1 X113.586 Y96.739 E1.16127
;WIPE_START
G1 X113.516 Y97.17 F9000
;WIPE_END
G92 E0
G1 E-1.4 F3600
;WIPE_START
G1 F7200
G1 X113.918 Y97.28 E-1.59772
G1 X114.17 Y97.411 E-1.73278
G1 X114.438 Y97.506 E-1.86785
G1 X114.648 Y97.55 E-1.97
;WIPE_END
G1 E-2 F3600
; acceleration to travel
M204 S1500
G1 X102.928 Y116.601 F9000
; decel to extrusion
M204 S500
G1 X101.496 Y118.929
; end travel
G1 E0 F2400
;TYPE:Internal perimeter
G1 F1200
G1 X101.236 Y118.794 E0.01268
G1 X100.926 Y118.684 E0.0269
G1 X100.605 Y118.617 E0.04113
G1 X100.278 Y118.595 E0.05535
G1 X99.95 Y118.617 E0.06957
G1 X99.629 Y118.684 E0.0838
G1 X99.319 Y118.794 E0.09802
G1 X99.028 Y118.945 E0.11224
G1 X98.76 Y119.134 E0.12647
G1 X98.52 Y119.358 E0.14069
G1 X98.313 Y119.613 E0.15491
G1 X98.142 Y119.893 E0.16914
G1 X98.011 Y120.195 E0.18336
G1 X97.923 Y120.511 E0.19758
G1 X97.878 Y120.836 E0.21181
G1 X97.878 Y121.164 E0.22603
G1 X97.923 Y121.489 E0.24025
G1 X98.011 Y121.805 E0.25448
G1 X98.142 Y122.107 E0.2687
G1 X98.313 Y122.387 E0.28292
G1 X98.52 Y122.642 E0.29715
G1 X98.76 Y122.866 E0.31137
G1 X99.028 Y123.055 E0.32559
G1 X99.319 Y123.206 E0.33982
G1 X99.629 Y123.316 E0.35404
G1 X99.95 Y123.383 E0.36826
G1 X100.278 Y123.405 E0.38249
G1 X100.605 Y123.383 E0.39671
G1 X100.926 Y123.316 E0.41093
G1 X101.236 Y123.206 E0.42516
G1 X101.527 Y123.055 E0.43938
G1 X101.795 Y122.866 E0.4536
G1 X102.035 Y122.642 E0.46783
G1 X102.243 Y122.387 E0.48205
G1 X102.413 Y122.107 E0.49627
G1 X102.544 Y121.805 E0.5105
G1 X102.632 Y121.489 E0.52472
G1 X102.677 Y121.164 E0.53894
G1 X102.677 Y120.836 E0.55317
G1 X102.632 Y120.511 E0.56739
G1 X102.544 Y120.195 E0.58161
G1 X102.413 Y119.893 E0.59584
G1 X102.243 Y119.613 E0.61006
G1 X102.035 Y119.358 E0.62428
G1 X101.795 Y119.134 E0.63851
G1 X101.547 Y118.959 E0.65167
G1 X101.256 Y119.391 F9000
;TYPE:External perimeter
G1 F1200
G1 X101.028 Y119.273 E0.66281
G1 X100.786 Y119.187 E0.67394
G1 X100.534 Y119.135 E0.68508
G1 X100.278 Y119.117 E0.69621
G1 X100.021 Y119.135 E0.70735
G1 X99.77 Y119.187 E0.71848
G1 X99.527 Y119.273 E0.72962
G1 X99.299 Y119.391 E0.74075
G1 X99.089 Y119.539 E0.75189
G1 X98.901 Y119.715 E0.76302
G1 X98.739 Y119.914 E0.77416
G1 X98.606 Y120.134 E0.78529
G1 X98.503 Y120.369 E0.79642
G1 X98.434 Y120.617 E0.80756
G1 X98.399 Y120.872 E0.81869
G1 X98.399 Y121.128 E0.82983
G1 X98.434 Y121.383 E0.84096
G1 X98.503 Y121.631 E0.8521
G1 X98.606 Y121.866 E0.86323
G1 X98.739 Y122.086 E0.87437
G1 X98.901 Y122.285 E0.8855
G1 X99.089 Y122.461 E0.89664
G1 X99.299 Y122.609 E0.90777
G1 X99.527 Y122.727 E0.91891
G1 X99.77 Y122.813 E0.93004
G1 X100.021 Y122.865 E0.94118
G1 X100.278 Y122.883 E0.95231
G1 X100.534 Y122.865 E0.96344
G1 X100.786 Y122.813 E0.97458
G1 X101.028 Y122.727 E0.98571
G1 X101.256 Y122.609 E0.99685
G1 X101.466 Y122.461 E1.00798
G1 X101.654 Y122.285 E1.01912
G1 X101.816 Y122.086 E1.03025
G1 X101.949 Y121.866 E1.04139
G1 X102.052 Y121.631 E1.05252
G1 X102.121 Y121.383 E1.06366
G1 X102.156 Y121.128 E1.07479
G1 X102.156 Y120.872 E1.08593
G1 X102.121 Y120.617 E1.09706
G1 X102.052 Y120.369 E1.1082
G1 X101.949 Y120.134 E1.11933
G1 X101.816 Y119.914 E1.13047
G1 X101.654 Y119.715 E1.1416
G1 X101.466 Y119.539 E1.15273
G1 X101.305 Y119.426 E1.16127
;WIPE_START
G1 X101.256 Y118.991 F9000
;WIPE_END
G92 E0
G1 E-1.4 F3600
;WIPE_START
G1 F7200
G1 X100.84 Y118.994 E-1.59772
G1 X100.561 Y118.936 E-1.73278
G1 X100.278 Y118.917 E-1.86784
G1 X100.063 Y118.931 E-1.97
;WIPE_END
G1 E-2 F3600
; acceleration to travel
M204 S1500
G1 X124.355 Y120.66 F9000
; decel to extrusion
M204 S500
G1 X127.323 Y120.872
; end travel
G1 E0 F2400
;TYPE:Internal perimeter
G1 F1200
G1 X127.323 Y121.164 E0.01268
G1 X127.368 Y121.489 E0.0269
G1 X127.456 Y121.805 E0.04113
G1 X127.587 Y122.107 E0.05535
G1 X127.757 Y122.387 E0.06957
G1 X127.965 Y122.642 E0.0838
G1 X128.205 Y122.866 E0.09802
G1 X128.473 Y123.055 E0.11224
G1 X128.764 Y123.206 E0.12647
G1 X129.074 Y123.316 E0.14069
G1 X129.395 Y123.383 E0.15491
G1 X129.722 Y123.405 E0.16914
G1 X130.05 Y123.383 E0.18336
G1 X130.371 Y123.316 E0.19758
G1 X130.681 Y123.206 E0.21181
G1 X130.972 Y123.055 E0.22603
G1 X131.24 Y122.866 E0.24025
G1 X131.48 Y122.642 E0.25448
G1 X131.687 Y122.387 E0.2687
G1 X131.858 Y122.107 E0.28292
G1 X131.989 Y121.805 E0.29715
G1 X132.077 Y121.489 E0.31137
G1 X132.122 Y121.164 E0.32559
G1 X132.122 Y120.836 E0.33982
G1 X132.077 Y120.511 E0.35404
