; generated by SuperSlicer 2.4 on 2023-10-31 at 23:54:13 UTC

; 

; external perimeters extrusion width = 0.42mm
; perimeters extrusion width = 0.46mm
; infill extrusion width = 0.44mm
; solid infill extrusion width = 0.46mm
; top infill extrusion width = 0.44mm
; first layer extrusion width = 0.56mm

; object:{"name":"planet_plate_upper","id":"planet_plate_upper.STL id:0 copy 0","object_center":[115.000000,112.500000,0.000000],"boundingbox_center":[115.000000,112.500000,6.500000],"boundingbox_size":[43.980679,44.000000,13.000000]}
; Total objects to print: 1
M486 T1
; plater:{"center":[115.000000,112.500000,0.000000],"boundingbox_center":[115.000000,112.500000,6.500000],"boundingbox_size":[43.980679,44.000000,13.000000]}

;TYPE:Custom
G90 ; use absolute coordinates
M83 ; extruder relative mode
M140 S60 ; set final bed temp
M104 S150 ; set temporary nozzle temp to prevent oozing during homing and auto bed leveling
G4 S10 ; allow partial nozzle warmup
G28 ; home all axis
G1 Z50 F240
G1 X2 Y10 F3000
M104 S205 ; set final nozzle temp
M190 S60 ; wait for bed temp to stabilize
M109 S205 ; wait for nozzle temp to stabilize
G1 Z0.28 F240
G92 E0
G1 Y140 E10 F1500 ; prime the nozzle
G1 X2.3 F5000
G92 E0
G1 Y10 E10 F1200 ; prime the nozzle
G92 E0
M107
G21 ; set units to millimeters
G90 ; use absolute coordinates
M82 ; use absolute distances for extrusion
G92 E0
; Filament gcode
;_TOOLCHANGE 0
M107
;LAYER_CHANGE
;Z:0.2
;HEIGHT:0.2
;BEFORE_LAYER_CHANGE
;0.2


G1 E-1 F3600
G1 Z0.2 F9000
;AFTER_LAYER_CHANGE
;0.2
G92 E0
M204 S500
G1 X97.346 Y94.503
G1 E1 F2400
;TYPE:Skirt
;WIDTH:0.48
G1 F1200
G1 X96.33 Y95.549 E1.05302
G1 X94.567 Y97.721 E1.15468
G1 X93.626 Y99.119 E1.21593
G1 X92.193 Y101.741 E1.32451
G1 X91.081 Y104.514 E1.4331
G1 X90.343 Y107.212 E1.53476
G1 X90.045 Y108.871 E1.59601
G1 X89.791 Y111.848 E1.7046
G1 X89.874 Y114.644 E1.80626
G1 X90.304 Y117.601 E1.91485
G1 X90.7 Y119.239 E1.97609
G1 X91.596 Y121.889 E2.07776
G1 X92.828 Y124.511 E2.18307
G1 X93.727 Y126.042 E2.24759
G1 X95.358 Y128.315 E2.34925
G1 X96.458 Y129.592 E2.4105
G1 X98.465 Y131.54 E2.51216
G1 X100.833 Y133.362 E2.62075
G1 X103.4 Y134.891 E2.72934
G1 X104.922 Y135.616 E2.79058
G1 X107.544 Y136.59 E2.89225
G1 X109.17 Y137.034 E2.95349
G1 X112.112 Y137.551 E3.06208
G1 X114.905 Y137.717 E3.16374
G1 X117.888 Y137.551 E3.27233
G1 X119.555 Y137.303 E3.33357
G1 X122.274 Y136.646 E3.43524
G1 X123.87 Y136.106 E3.49649
G1 X126.6 Y134.891 E3.60507
G1 X129.008 Y133.469 E3.70674
G1 X130.378 Y132.486 E3.76798
G1 X132.497 Y130.66 E3.86965
G1 X133.67 Y129.451 E3.93089
G1 X135.433 Y127.279 E4.03256
G1 X136.374 Y125.881 E4.0938
G1 X137.807 Y123.259 E4.20239
G1 X138.919 Y120.486 E4.31097
G1 X139.657 Y117.788 E4.41264
G1 X139.955 Y116.129 E4.47388
G1 X140.209 Y113.152 E4.58247
G1 X140.126 Y110.356 E4.68414
G1 X139.696 Y107.399 E4.79272
G1 X139.3 Y105.761 E4.85397
G1 X138.404 Y103.111 E4.95563
G1 X137.725 Y101.569 E5.01688
G1 X136.374 Y99.119 E5.11854
G1 X134.642 Y96.685 E5.22713
G1 X133.542 Y95.408 E5.28837
G1 X131.535 Y93.46 E5.39004
G1 X129.167 Y91.638 E5.49862
G1 X127.742 Y90.738 E5.55987
G1 X125.253 Y89.461 E5.66153
G1 X123.691 Y88.828 E5.72278
G1 X120.83 Y87.966 E5.83137
G1 X118.077 Y87.471 E5.93303
G1 X115.25 Y87.286 E6.036
G1 X113.411 Y87.333 E6.10286
G1 X110.633 Y87.664 E6.20452
G1 X108.984 Y88.011 E6.26577
G1 X106.13 Y88.894 E6.37436
G1 X103.4 Y90.109 E6.48294
G1 X100.992 Y91.531 E6.58461
G1 X99.622 Y92.514 E6.64585
G1 X97.503 Y94.34 E6.74752
G1 X97.388 Y94.459 E6.75356
G92 E0
G1 E-0.7 F3600
;WIPE_START
G1 F7200
G1 X96.97 Y94.89 E-0.985
;WIPE_END
G1 E-1 F3600
; printing object planet_plate_upper.STL id:0 copy 0
M486 S0
; acceleration to travel
M204 S1500
G1 X104.946 Y102.423 F9000
; decel to extrusion
M204 S500
G1 X105.921 Y103.343
; end travel
G1 E0 F2400
;TYPE:Internal perimeter
;WIDTH:0.564
G1 F1200
G1 X105.694 Y103.561 E0.01363
G1 X105.005 Y104.339 E0.05865
G1 X104.38 Y105.17 E0.10368
G1 X103.825 Y106.048 E0.1487
G1 X103.342 Y106.968 E0.19373
G1 X102.935 Y107.924 E0.23875
G1 X102.606 Y108.91 E0.28378
G1 X102.357 Y109.919 E0.3288
G1 X102.19 Y110.945 E0.37383
G1 X102.107 Y111.98 E0.41885
G1 X102.107 Y113.02 E0.46388
G1 X102.19 Y114.055 E0.5089
G1 X102.357 Y115.081 E0.55393
G1 X102.606 Y116.09 E0.59895
G1 X102.935 Y117.076 E0.64398
G1 X103.342 Y118.032 E0.689
G1 X103.825 Y118.953 E0.73406
G1 X104.38 Y119.83 E0.77905
G1 X105.005 Y120.661 E0.82408
G1 X105.694 Y121.439 E0.8691
G1 X106.443 Y122.159 E0.91413
G1 X107.248 Y122.816 E0.95915
G1 X108.103 Y123.406 E1.00418
G1 X109.003 Y123.926 E1.0492
G1 X109.942 Y124.371 E1.09423
G1 X110.914 Y124.74 E1.13925
G1 X111.912 Y125.029 E1.18428
G1 X112.93 Y125.237 E1.2293
G1 X113.962 Y125.362 E1.27433
G1 X115 Y125.404 E1.31935
G1 X116.038 Y125.362 E1.36438
G1 X117.07 Y125.237 E1.4094
G1 X118.088 Y125.029 E1.45443
G1 X119.086 Y124.74 E1.49945
G1 X120.058 Y124.371 E1.54448
G1 X120.997 Y123.926 E1.5895
G1 X121.897 Y123.406 E1.63453
G1 X122.752 Y122.816 E1.67955
G1 X123.557 Y122.159 E1.72458
G1 X124.306 Y121.439 E1.7696
G1 X124.995 Y120.661 E1.81463
G1 X125.62 Y119.83 E1.85965
G1 X126.175 Y118.951 E1.90471
G1 X126.658 Y118.032 E1.9497
G1 X127.065 Y117.076 E1.99473
G1 X127.394 Y116.09 E2.03975
G1 X127.643 Y115.081 E2.08478
G1 X127.81 Y114.055 E2.1298
G1 X127.893 Y113.02 E2.17483
G1 X127.893 Y111.98 E2.21985
G1 X127.81 Y110.945 E2.26488
G1 X127.643 Y109.919 E2.3099
G1 X127.394 Y108.91 E2.35493
G1 X127.065 Y107.924 E2.39995
G1 X126.658 Y106.968 E2.44498
G1 X126.175 Y106.048 E2.49
G1 X125.62 Y105.17 E2.53503
G1 X124.995 Y104.339 E2.58005
G1 X124.306 Y103.561 E2.62508
G1 X123.557 Y102.841 E2.6701
G1 X122.752 Y102.184 E2.71513
G1 X121.897 Y101.594 E2.76015
G1 X120.997 Y101.074 E2.80518
G1 X120.058 Y100.629 E2.8502
G1 X119.086 Y100.26 E2.89523
G1 X118.088 Y99.971 E2.94025
G1 X117.07 Y99.763 E2.98528
G1 X116.038 Y99.638 E3.0303
G1 X114.999 Y99.596 E3.07536
G1 X114.48 Y99.617 E3.09786
G1 X113.962 Y99.638 E3.12035
G1 X112.93 Y99.763 E3.16538
G1 X111.912 Y99.971 E3.2104
G1 X110.914 Y100.26 E3.25543
G1 X109.942 Y100.629 E3.30045
G1 X109.003 Y101.074 E3.34548
G1 X108.103 Y101.594 E3.3905
G1 X107.248 Y102.184 E3.43553
G1 X106.443 Y102.841 E3.48055
G1 X105.964 Y103.302 E3.50935
G1 X106.282 Y103.719 F9000
;TYPE:External perimeter
G1 F1200
G1 X106.07 Y103.922 E3.52207
G1 X105.409 Y104.669 E3.56527
G1 X104.81 Y105.466 E3.60848
G1 X104.277 Y106.309 E3.65169
G1 X103.813 Y107.192 E3.69489
G1 X103.422 Y108.109 E3.7381
G1 X103.107 Y109.055 E3.7813
G1 X102.868 Y110.023 E3.82451
G1 X102.708 Y111.007 E3.86771
G1 X102.628 Y112.001 E3.91092
G1 X102.628 Y112.999 E3.95412
G1 X102.708 Y113.993 E3.99733
G1 X102.868 Y114.977 E4.04053
G1 X103.107 Y115.945 E4.08374
G1 X103.422 Y116.891 E4.12694
G1 X103.813 Y117.808 E4.17015
G1 X104.277 Y118.692 E4.21339
G1 X104.81 Y119.534 E4.25656
G1 X105.409 Y120.331 E4.29977
G1 X106.07 Y121.078 E4.34297
G1 X106.789 Y121.768 E4.38618
G1 X107.561 Y122.399 E4.42938
G1 X108.382 Y122.965 E4.47259
G1 X109.246 Y123.464 E4.51579
G1 X110.147 Y123.891 E4.559
G1 X111.079 Y124.245 E4.6022
G1 X112.037 Y124.522 E4.64541
G1 X113.014 Y124.722 E4.68861
G1 X114.004 Y124.842 E4.73182
G1 X115 Y124.882 E4.77503
G1 X115.996 Y124.842 E4.81823
G1 X116.986 Y124.722 E4.86144
G1 X117.963 Y124.522 E4.90464
G1 X118.921 Y124.245 E4.94785
G1 X119.853 Y123.891 E4.99105
G1 X120.754 Y123.464 E5.03426
G1 X121.618 Y122.965 E5.07746
G1 X122.439 Y122.399 E5.12067
G1 X123.211 Y121.768 E5.16387
G1 X123.93 Y121.078 E5.20708
G1 X124.591 Y120.331 E5.25028
G1 X125.19 Y119.534 E5.29349
G1 X125.724 Y118.69 E5.33673
G1 X126.187 Y117.808 E5.3799
G1 X126.578 Y116.891 E5.42311
G1 X126.893 Y115.945 E5.46631
G1 X127.132 Y114.977 E5.50952
G1 X127.292 Y113.993 E5.55272
G1 X127.372 Y112.999 E5.59593
G1 X127.372 Y112.001 E5.63913
G1 X127.292 Y111.007 E5.68234
G1 X127.132 Y110.023 E5.72554
G1 X126.893 Y109.055 E5.76875
G1 X126.578 Y108.109 E5.81195
G1 X126.187 Y107.192 E5.85516
G1 X125.723 Y106.309 E5.89836
G1 X125.19 Y105.466 E5.94157
G1 X124.591 Y104.669 E5.98478
G1 X123.93 Y103.922 E6.02798
G1 X123.211 Y103.232 E6.07119
G1 X122.439 Y102.601 E6.11439
G1 X121.618 Y102.035 E6.1576
G1 X120.754 Y101.536 E6.2008
G1 X119.853 Y101.109 E6.24401
G1 X118.921 Y100.755 E6.28721
G1 X117.963 Y100.478 E6.33042
G1 X116.986 Y100.278 E6.37362
G1 X115.996 Y100.158 E6.41683
G1 X114.999 Y100.118 E6.46007
G1 X114.501 Y100.138 E6.48165
G1 X114.004 Y100.158 E6.50324
G1 X113.014 Y100.278 E6.54645
G1 X112.037 Y100.478 E6.58965
G1 X111.079 Y100.755 E6.63286
G1 X110.147 Y101.109 E6.67606
G1 X109.246 Y101.536 E6.71927
G1 X108.382 Y102.035 E6.76247
G1 X107.561 Y102.601 E6.80568
G1 X106.789 Y103.232 E6.84888
G1 X106.325 Y103.678 E6.87677
;WIPE_START
G1 X105.897 Y103.608 F9000
;WIPE_END
G92 E0
G1 E-0.7 F3600
;WIPE_START
G1 F7200
G1 X105.557 Y104.102 E-0.985
;WIPE_END
G1 E-1 F3600
; acceleration to travel
M204 S1500
G1 X112.385 Y97.875 F9000
; decel to extrusion
M204 S500
G1 X113.22 Y97.114
; end travel
G1 E0 F2400
;TYPE:Internal perimeter
G1 F1200
G1 X113.242 Y97.142 E0.00154
G1 X113.482 Y97.366 E0.01577
G1 X113.75 Y97.555 E0.02999
G1 X114.042 Y97.706 E0.04421
G1 X114.351 Y97.816 E0.05844
G1 X114.672 Y97.883 E0.07266
G1 X115 Y97.905 E0.08688
G1 X115.328 Y97.883 E0.10111
G1 X115.649 Y97.816 E0.11533
G1 X115.958 Y97.706 E0.12955
G1 X116.25 Y97.555 E0.14378
G1 X116.518 Y97.366 E0.158
G1 X116.758 Y97.142 E0.17222
G1 X116.965 Y96.887 E0.18645
G1 X117.136 Y96.607 E0.20067
G1 X117.266 Y96.305 E0.21489
G1 X117.355 Y95.989 E0.22912
G1 X117.4 Y95.664 E0.24334
G1 X117.4 Y95.336 E0.25756
G1 X117.355 Y95.011 E0.27179
G1 X117.266 Y94.695 E0.28601
G1 X117.136 Y94.393 E0.30023
G1 X116.965 Y94.113 E0.31446
G1 X116.758 Y93.858 E0.32868
G1 X116.518 Y93.634 E0.3429
G1 X116.25 Y93.445 E0.35713
G1 X115.958 Y93.294 E0.37135
G1 X115.649 Y93.184 E0.38557
G1 X115.328 Y93.117 E0.3998
G1 X115 Y93.095 E0.41402
G1 X114.672 Y93.117 E0.42824
G1 X114.351 Y93.184 E0.44247
G1 X114.042 Y93.294 E0.45669
G1 X113.75 Y93.445 E0.47091
G1 X113.482 Y93.634 E0.48514
G1 X113.242 Y93.858 E0.49936
G1 X113.035 Y94.113 E0.51358
G1 X112.864 Y94.393 E0.52781
G1 X112.734 Y94.695 E0.54203
G1 X112.645 Y95.011 E0.55625
G1 X112.6 Y95.336 E0.57048
G1 X112.6 Y95.664 E0.5847
G1 X112.645 Y95.989 E0.59892
G1 X112.734 Y96.306 E0.61315
G1 X112.865 Y96.607 E0.6274
G1 X113.035 Y96.887 E0.6416
G1 X113.182 Y97.067 E0.65167
G1 X113.624 Y96.785 F9000
;TYPE:External perimeter
G1 F1200
G1 X113.812 Y96.961 E0.66281
G1 X114.022 Y97.109 E0.67394
G1 X114.25 Y97.227 E0.68508
G1 X114.492 Y97.313 E0.69621
G1 X114.744 Y97.365 E0.70735
G1 X115 Y97.383 E0.71848
G1 X115.256 Y97.365 E0.72962
G1 X115.508 Y97.313 E0.74075
G1 X115.75 Y97.227 E0.75189
G1 X115.978 Y97.109 E0.76302
G1 X116.188 Y96.961 E0.77416
G1 X116.376 Y96.785 E0.78529
G1 X116.538 Y96.586 E0.79642
G1 X116.672 Y96.366 E0.80756
G1 X116.774 Y96.131 E0.81869
G1 X116.844 Y95.883 E0.82983
G1 X116.879 Y95.628 E0.84096
G1 X116.879 Y95.372 E0.8521
G1 X116.844 Y95.117 E0.86323
G1 X116.774 Y94.869 E0.87437
G1 X116.672 Y94.634 E0.8855
G1 X116.538 Y94.414 E0.89664
G1 X116.376 Y94.215 E0.90777
G1 X116.188 Y94.039 E0.91891
G1 X115.978 Y93.891 E0.93004
G1 X115.75 Y93.773 E0.94118
G1 X115.508 Y93.687 E0.95231
G1 X115.256 Y93.635 E0.96344
G1 X115 Y93.617 E0.97458
G1 X114.744 Y93.635 E0.98571
G1 X114.492 Y93.687 E0.99685
G1 X114.25 Y93.773 E1.00798
G1 X114.022 Y93.891 E1.01912
G1 X113.812 Y94.039 E1.03025
G1 X113.624 Y94.215 E1.04139
G1 X113.462 Y94.414 E1.05252
G1 X113.328 Y94.634 E1.06366
G1 X113.226 Y94.869 E1.07479
G1 X113.156 Y95.117 E1.08593
G1 X113.121 Y95.372 E1.09706
G1 X113.121 Y95.628 E1.1082
G1 X113.156 Y95.883 E1.11933
G1 X113.226 Y96.131 E1.13047
G1 X113.328 Y96.367 E1.14163
G1 X113.462 Y96.586 E1.15274
G1 X113.586 Y96.739 E1.16127
;WIPE_START
G1 X113.516 Y97.17 F9000
;WIPE_END
G92 E0
G1 E-0.7 F3600
;WIPE_START
G1 F7200
G1 X113.918 Y97.28 E-0.89772
G1 X114.081 Y97.365 E-0.985
;WIPE_END
G1 E-1 F3600
; acceleration to travel
M204 S1500
G1 X102.895 Y101.819 F9000
; decel to extrusion
M204 S500
G1 X101.529 Y102.363
; end travel
G1 E0 F2400
;TYPE:Internal perimeter
G1 F1200
G1 X101.377 Y102.113 E0.01268
G1 X101.169 Y101.858 E0.0269
G1 X100.929 Y101.634 E0.04113
G1 X100.661 Y101.445 E0.05535
G1 X100.37 Y101.294 E0.06957
G1 X100.06 Y101.184 E0.0838
G1 X99.739 Y101.117 E0.09802
G1 X99.412 Y101.095 E0.11224
G1 X99.084 Y101.117 E0.12647
G1 X98.763 Y101.184 E0.14069
G1 X98.453 Y101.294 E0.15491
G1 X98.162 Y101.445 E0.16914
G1 X97.894 Y101.634 E0.18336
G1 X97.654 Y101.858 E0.19758
G1 X97.447 Y102.113 E0.21181
G1 X97.276 Y102.393 E0.22603
G1 X97.145 Y102.695 E0.24025
G1 X97.057 Y103.011 E0.25448
G1 X97.012 Y103.336 E0.2687
G1 X97.012 Y103.664 E0.28292
G1 X97.057 Y103.989 E0.29715
G1 X97.145 Y104.305 E0.31137
G1 X97.276 Y104.607 E0.32559
G1 X97.447 Y104.887 E0.33982
G1 X97.654 Y105.142 E0.35404
G1 X97.894 Y105.366 E0.36826
G1 X98.162 Y105.555 E0.38249
G1 X98.453 Y105.706 E0.39671
G1 X98.763 Y105.816 E0.41093
G1 X99.084 Y105.883 E0.42516
G1 X99.412 Y105.905 E0.43938
G1 X99.739 Y105.883 E0.4536
G1 X100.06 Y105.816 E0.46783
G1 X100.37 Y105.706 E0.48205
G1 X100.661 Y105.555 E0.49627
G1 X100.929 Y105.366 E0.5105
G1 X101.169 Y105.142 E0.52472
G1 X101.377 Y104.887 E0.53894
G1 X101.547 Y104.607 E0.55317
G1 X101.678 Y104.305 E0.56739
G1 X101.766 Y103.989 E0.58161
G1 X101.811 Y103.664 E0.59584
G1 X101.811 Y103.336 E0.61006
G1 X101.766 Y103.011 E0.62428
G1 X101.678 Y102.695 E0.63851
G1 X101.557 Y102.416 E0.65167
G1 X101.083 Y102.634 F9000
;TYPE:External perimeter
G1 F1200
G1 X100.95 Y102.414 E0.66281
G1 X100.788 Y102.215 E0.67394
G1 X100.6 Y102.039 E0.68508
G1 X100.39 Y101.891 E0.69621
G1 X100.162 Y101.773 E0.70735
G1 X99.92 Y101.687 E0.71848
G1 X99.668 Y101.635 E0.72962
G1 X99.412 Y101.617 E0.74075
G1 X99.155 Y101.635 E0.75189
G1 X98.904 Y101.687 E0.76302
G1 X98.661 Y101.773 E0.77416
G1 X98.433 Y101.891 E0.78529
G1 X98.223 Y102.039 E0.79642
G1 X98.035 Y102.215 E0.80756
G1 X97.873 Y102.414 E0.81869
G1 X97.74 Y102.634 E0.82983
G1 X97.637 Y102.869 E0.84096
G1 X97.568 Y103.117 E0.8521
G1 X97.533 Y103.372 E0.86323
G1 X97.533 Y103.628 E0.87437
G1 X97.568 Y103.883 E0.8855
G1 X97.637 Y104.131 E0.89664
G1 X97.74 Y104.366 E0.90777
G1 X97.873 Y104.586 E0.91891
G1 X98.035 Y104.785 E0.93004
G1 X98.223 Y104.961 E0.94118
G1 X98.433 Y105.109 E0.95231
G1 X98.661 Y105.227 E0.96344
G1 X98.904 Y105.313 E0.97458
G1 X99.155 Y105.365 E0.98571
G1 X99.412 Y105.383 E0.99685
G1 X99.668 Y105.365 E1.00798
G1 X99.92 Y105.313 E1.01912
G1 X100.162 Y105.227 E1.03025
G1 X100.39 Y105.109 E1.04139
G1 X100.6 Y104.961 E1.05252
G1 X100.788 Y104.785 E1.06366
G1 X100.95 Y104.586 E1.07479
G1 X101.083 Y104.366 E1.08593
G1 X101.186 Y104.131 E1.09706
G1 X101.255 Y103.883 E1.1082
G1 X101.29 Y103.628 E1.11933
G1 X101.29 Y103.372 E1.13047
G1 X101.255 Y103.117 E1.1416
G1 X101.186 Y102.869 E1.15273
G1 X101.107 Y102.689 E1.16127
;WIPE_START
G1 X101.291 Y102.292 F9000
;WIPE_END
G92 E0
G1 E-0.7 F3600
;WIPE_START
G1 F7200
G1 X100.934 Y102.078 E-0.89772
G1 X100.8 Y101.953 E-0.985
;WIPE_END
G1 E-1 F3600
; acceleration to travel
M204 S1500
G1 X100.366 Y116.785 F9000
; decel to extrusion
M204 S500
G1 X100.313 Y118.597
; end travel
G1 E0 F2400
;TYPE:Internal perimeter
G1 F1200
G1 X100.278 Y118.595 E0.00154
G1 X99.95 Y118.617 E0.01577
G1 X99.629 Y118.684 E0.02999
G1 X99.319 Y118.794 E0.04421
G1 X99.028 Y118.945 E0.05844
G1 X98.76 Y119.134 E0.07266
G1 X98.52 Y119.358 E0.08688
G1 X98.313 Y119.613 E0.10111
G1 X98.142 Y119.893 E0.11533
G1 X98.011 Y120.195 E0.12955
G1 X97.923 Y120.511 E0.14378
G1 X97.878 Y120.836 E0.158
G1 X97.878 Y121.164 E0.17222
G1 X97.923 Y121.489 E0.18645
G1 X98.011 Y121.805 E0.20067
G1 X98.142 Y122.107 E0.21489
G1 X98.313 Y122.387 E0.22912
G1 X98.52 Y122.642 E0.24334
G1 X98.76 Y122.866 E0.25756
G1 X99.028 Y123.055 E0.27179
G1 X99.319 Y123.206 E0.28601
G1 X99.629 Y123.316 E0.30023
G1 X99.95 Y123.383 E0.31446
G1 X100.278 Y123.405 E0.32868
G1 X100.605 Y123.383 E0.3429
G1 X100.926 Y123.316 E0.35713
G1 X101.236 Y123.206 E0.37135
G1 X101.527 Y123.055 E0.38557
G1 X101.795 Y122.866 E0.3998
G1 X102.035 Y122.642 E0.41402
G1 X102.243 Y122.387 E0.42824
G1 X102.413 Y122.107 E0.44247
