; generated by SuperSlicer 2.4 on 2023-11-02 at 02:19:49 UTC

; 

; external perimeters extrusion width = 0.42mm
; perimeters extrusion width = 0.46mm
; infill extrusion width = 0.44mm
; solid infill extrusion width = 0.46mm
; top infill extrusion width = 0.44mm
; first layer extrusion width = 0.56mm

; object:{"name":"planet_plate","id":"planet_plate.STL id:0 copy 0","object_center":[115.000000,112.500000,0.000000],"boundingbox_center":[115.000000,112.500000,2.500000],"boundingbox_size":[79.400330,72.101830,5.000000]}
; Total objects to print: 1
M486 T1
; plater:{"center":[115.000000,112.500000,0.000000],"boundingbox_center":[115.000000,112.500000,2.500000],"boundingbox_size":[79.400330,72.101830,5.000000]}

;TYPE:Custom
G90 ; use absolute coordinates
M83 ; extruder relative mode
M140 S60 ; set final bed temp
M104 S150 ; set temporary nozzle temp to prevent oozing during homing and auto bed leveling
G4 S10 ; allow partial nozzle warmup
G28 ; home all axis
G1 Z50 F240
G1 X2 Y10 F3000
M104 S205 ; set final nozzle temp
M190 S60 ; wait for bed temp to stabilize
M109 S205 ; wait for nozzle temp to stabilize
G1 Z0.28 F240
G92 E0
G1 Y140 E10 F1500 ; prime the nozzle
G1 X2.3 F5000
G92 E0
G1 Y10 E10 F1200 ; prime the nozzle
G92 E0
M107
G21 ; set units to millimeters
G90 ; use absolute coordinates
M82 ; use absolute distances for extrusion
G92 E0
; Filament gcode
;_TOOLCHANGE 0
M107
;LAYER_CHANGE
;Z:0.2
;HEIGHT:0.2
;BEFORE_LAYER_CHANGE
;0.2


G1 E-1 F3600
G1 Z0.2 F9000
;AFTER_LAYER_CHANGE
;0.2
G92 E0
M204 S500
G1 X83.372 Y79.099
G1 E1 F2400
;TYPE:Skirt
;WIDTH:0.48
G1 F1200
G1 X81.743 Y80.952 E1.08964
G1 X80.223 Y82.894 E1.17927
G1 X78.917 Y84.766 E1.26223
G1 X77.619 Y86.863 E1.35187
G1 X76.442 Y89.031 E1.4415
G1 X75.373 Y91.302 E1.53276
G1 X74.47 Y93.549 E1.62077
G1 X73.68 Y95.886 E1.71041
G1 X73.025 Y98.264 E1.80004
G1 X72.506 Y100.675 E1.88968
G1 X72.126 Y103.112 E1.97931
G1 X72.092 Y103.909 E2.00831
G1 X72.166 Y104.558 E2.03207
G1 X72.399 Y105.312 E2.06073
G1 X96.161 Y146.562 E3.79085
G1 X96.504 Y147.064 E3.81295
G1 X97.107 Y147.693 E3.84459
G1 X98.136 Y148.333 E3.88866
G1 X100.574 Y149.289 E3.98382
G1 X102.921 Y150.046 E4.07346
G1 X105.308 Y150.668 E4.16309
G1 X107.727 Y151.152 E4.25273
G1 X110.169 Y151.497 E4.34236
G1 X112.626 Y151.703 E4.432
G1 X115.092 Y151.768 E4.52164
G1 X117.557 Y151.693 E4.61127
G1 X120.014 Y151.476 E4.70091
G1 X122.273 Y151.152 E4.78387
G1 X124.692 Y150.668 E4.8735
G1 X127.079 Y150.046 E4.96314
G1 X129.426 Y149.289 E5.05277
G1 X131.761 Y148.386 E5.14377
G1 X132.434 Y148.031 E5.17141
G1 X133.116 Y147.49 E5.20305
G1 X133.767 Y146.677 E5.2409
G1 X157.396 Y105.755 E6.95826
G1 X157.78 Y104.77 E6.9967
G1 X157.911 Y103.638 E7.0381
G1 X157.527 Y100.856 E7.1402
G1 X156.975 Y98.264 E7.2365
G1 X156.373 Y96.062 E7.31947
G1 X155.594 Y93.722 E7.4091
G1 X154.682 Y91.43 E7.49874
G1 X153.64 Y89.195 E7.58837
G1 X152.473 Y87.022 E7.67801
G1 X151.083 Y84.766 E7.77431
G1 X149.668 Y82.746 E7.86395
G1 X148.257 Y80.952 E7.94691
G1 X146.628 Y79.099 E8.03655
G1 X144.897 Y77.343 E8.12618
G1 X142.928 Y75.569 E8.22249
G1 X140.71 Y73.845 E8.32458
G1 X139.664 Y73.393 E8.36598
G1 X138.619 Y73.233 E8.40443
G1 X91.501 Y73.231 E10.11685
G1 X90.255 Y73.411 E10.16261
G1 X89.526 Y73.713 E10.19128
G1 X88.853 Y74.141 E10.22027
G1 X87.072 Y75.569 E10.30324
G1 X85.103 Y77.343 E10.39954
G1 X83.414 Y79.057 E10.487
G92 E0
G1 E-0.7 F3600
;WIPE_START
G1 F7200
G1 X83.017 Y79.507 E-0.985
;WIPE_END
G1 E-1 F3600
; printing object planet_plate.STL id:0 copy 0
M486 S0
; acceleration to travel
M204 S1500
G1 X110.543 Y120.326 F9000
; decel to extrusion
M204 S500
G1 X113.905 Y125.313
; end travel
G1 E0 F2400
;TYPE:Internal perimeter
;WIDTH:0.564
G1 F1200
G1 X113.641 Y125.596 E0.01679
G1 X113.434 Y125.994 E0.03625
G1 X113.343 Y126.434 E0.0557
G1 X113.374 Y126.892 E0.0756
G1 X113.525 Y127.315 E0.09505
G1 X113.768 Y127.659 E0.1133
G1 X113.978 Y127.856 E0.12578
G1 X114.311 Y128.059 E0.14268
G1 X114.583 Y128.155 E0.15516
G1 X114.969 Y128.208 E0.17206
G1 X115.256 Y128.189 E0.18454
G1 X115.662 Y128.075 E0.20279
G1 X116.022 Y127.856 E0.22104
G1 X116.232 Y127.659 E0.23352
G1 X116.457 Y127.341 E0.25041
G1 X116.572 Y127.077 E0.26289
G1 X116.651 Y126.695 E0.27979
G1 X116.651 Y126.407 E0.29227
G1 X116.572 Y126.025 E0.30916
G1 X116.47 Y125.789 E0.3203
G1 X116.336 Y125.57 E0.33143
G1 X116.049 Y125.262 E0.34968
G1 X115.689 Y125.043 E0.36793
G1 X115.447 Y124.957 E0.37906
G1 X115.195 Y124.905 E0.3902
G1 X114.774 Y124.905 E0.40845
G1 X114.338 Y125.027 E0.42805
G1 X113.946 Y125.269 E0.448
G1 X114.286 Y125.668 F9000
;TYPE:External perimeter
G1 F1200
G1 X114.071 Y125.899 E0.46168
G1 X113.93 Y126.171 E0.47493
G1 X113.868 Y126.47 E0.48818
G1 X113.889 Y126.785 E0.50187
G1 X113.992 Y127.073 E0.51512
G1 X114.162 Y127.315 E0.52795
G1 X114.295 Y127.439 E0.53579
G1 X114.536 Y127.586 E0.54804
G1 X114.707 Y127.646 E0.55588
G1 X114.987 Y127.685 E0.56813
G1 X115.167 Y127.672 E0.57597
G1 X115.452 Y127.592 E0.58879
G1 X115.705 Y127.439 E0.60162
G1 X115.838 Y127.315 E0.60946
G1 X116.001 Y127.084 E0.62171
G1 X116.073 Y126.918 E0.62955
G1 X116.13 Y126.641 E0.6418
G1 X116.13 Y126.46 E0.64964
G1 X116.073 Y126.184 E0.66189
G1 X116.006 Y126.03 E0.66916
G1 X115.919 Y125.886 E0.67643
G1 X115.717 Y125.67 E0.68926
G1 X115.464 Y125.516 E0.70208
G1 X115.306 Y125.46 E0.70935
G1 X115.141 Y125.426 E0.71662
G1 X114.845 Y125.426 E0.72945
G1 X114.548 Y125.509 E0.74285
G1 X114.338 Y125.637 E0.7535
;WIPE_START
G1 X113.906 Y125.543 F9000
;WIPE_END
G92 E0
G1 E-0.7 F3600
;WIPE_START
G1 F7200
G1 X113.74 Y126.103 E-0.97759
G1 X113.737 Y126.118 E-0.985
;WIPE_END
G1 E-1 F3600
; acceleration to travel
M204 S1500
G1 X114.894 Y140.269 F9000
; decel to extrusion
M204 S500
G1 X115.036 Y141.998
; end travel
G1 E0 F2400
;TYPE:Internal perimeter
G1 F1200
G1 X115 Y141.996 E0.00154
G1 X114.652 Y142.02 E0.01666
G1 X114.311 Y142.09 E0.03177
G1 X113.982 Y142.207 E0.04687
G1 X113.672 Y142.368 E0.06199
G1 X113.387 Y142.569 E0.0771
G1 X113.133 Y142.807 E0.09221
G1 X112.912 Y143.077 E0.10732
G1 X112.731 Y143.375 E0.12243
G1 X112.592 Y143.695 E0.13754
G1 X112.498 Y144.031 E0.15265
G1 X112.451 Y144.377 E0.16776
G1 X112.451 Y144.725 E0.18287
G1 X112.498 Y145.071 E0.19798
G1 X112.592 Y145.407 E0.21309
G1 X112.731 Y145.726 E0.2282
G1 X112.912 Y146.024 E0.24331
G1 X113.133 Y146.295 E0.25842
G1 X113.387 Y146.533 E0.27353
G1 X113.672 Y146.734 E0.28864
G1 X113.982 Y146.895 E0.30375
G1 X114.311 Y147.011 E0.31886
G1 X114.652 Y147.082 E0.33397
G1 X115 Y147.106 E0.34908
G1 X115.348 Y147.082 E0.36419
G1 X115.689 Y147.011 E0.3793
G1 X116.018 Y146.895 E0.39441
G1 X116.328 Y146.734 E0.40952
G1 X116.613 Y146.533 E0.42464
G1 X116.867 Y146.295 E0.43974
G1 X117.088 Y146.024 E0.45486
G1 X117.269 Y145.726 E0.46997
G1 X117.408 Y145.407 E0.48508
G1 X117.502 Y145.071 E0.50019
G1 X117.549 Y144.725 E0.5153
G1 X117.549 Y144.377 E0.53041
G1 X117.502 Y144.031 E0.54552
G1 X117.408 Y143.695 E0.56063
G1 X117.269 Y143.375 E0.57574
G1 X117.088 Y143.077 E0.59085
G1 X116.867 Y142.807 E0.60596
G1 X116.613 Y142.569 E0.62107
G1 X116.328 Y142.368 E0.63618
G1 X116.018 Y142.207 E0.65129
G1 X115.689 Y142.09 E0.6664
G1 X115.348 Y142.02 E0.68151
G1 X115.095 Y142.002 E0.69248
G1 X115 Y142.518 F9000
;TYPE:External perimeter
G1 F1200
G1 X114.723 Y142.537 E0.7045
G1 X114.452 Y142.593 E0.71652
G1 X114.19 Y142.686 E0.72854
G1 X113.944 Y142.814 E0.74056
G1 X113.717 Y142.974 E0.75259
G1 X113.514 Y143.163 E0.76461
G1 X113.339 Y143.379 E0.77663
G1 X113.195 Y143.616 E0.78865
G1 X113.084 Y143.87 E0.80067
G1 X113.01 Y144.137 E0.8127
G1 X112.972 Y144.412 E0.82472
G1 X112.972 Y144.69 E0.83674
G1 X113.01 Y144.965 E0.84876
G1 X113.084 Y145.232 E0.86078
G1 X113.195 Y145.486 E0.8728
G1 X113.339 Y145.723 E0.88483
G1 X113.514 Y145.938 E0.89685
G1 X113.717 Y146.128 E0.90887
G1 X113.944 Y146.288 E0.92089
G1 X114.19 Y146.416 E0.93291
G1 X114.452 Y146.508 E0.94493
G1 X114.723 Y146.565 E0.95696
G1 X115 Y146.584 E0.96898
G1 X115.277 Y146.565 E0.981
G1 X115.548 Y146.508 E0.99302
G1 X115.81 Y146.416 E1.00504
G1 X116.056 Y146.288 E1.01706
G1 X116.283 Y146.128 E1.02909
G1 X116.486 Y145.938 E1.04111
G1 X116.661 Y145.723 E1.05313
G1 X116.805 Y145.486 E1.06515
G1 X116.916 Y145.232 E1.07717
G1 X116.99 Y144.965 E1.08919
G1 X117.028 Y144.69 E1.10122
G1 X117.028 Y144.412 E1.11324
G1 X116.99 Y144.137 E1.12526
G1 X116.916 Y143.87 E1.13728
G1 X116.805 Y143.616 E1.1493
G1 X116.661 Y143.379 E1.16133
G1 X116.486 Y143.163 E1.17335
G1 X116.283 Y142.974 E1.18537
G1 X116.056 Y142.814 E1.19739
G1 X115.81 Y142.686 E1.20941
G1 X115.548 Y142.593 E1.22143
G1 X115.277 Y142.537 E1.23346
G1 X115.06 Y142.522 E1.24288
;WIPE_START
G1 X114.792 Y142.176 F9000
;WIPE_END
G92 E0
G1 E-0.7 F3600
;WIPE_START
G1 F7200
G1 X114.397 Y142.4 E-0.91561
G1 X114.26 Y142.449 E-0.985
;WIPE_END
G1 E-1 F3600
; acceleration to travel
M204 S1500
G1 X102.628 Y121.033 F9000
; decel to extrusion
M204 S500
G1 X101.207 Y118.417
; end travel
G1 E0 F2400
;TYPE:Internal perimeter
G1 F1200
G1 X101.468 Y118.205 E0.01457
G1 X101.63 Y118.005 E0.02571
G1 X101.763 Y117.786 E0.03684
G1 X101.894 Y117.418 E0.05374
G1 X101.933 Y117.133 E0.06622
G1 X101.904 Y116.713 E0.08447
G1 X101.753 Y116.286 E0.10407
G1 X101.51 Y115.942 E0.12232
G1 X101.322 Y115.767 E0.13346
G1 X101.112 Y115.619 E0.14459
G1 X100.755 Y115.463 E0.16149
G1 X100.473 Y115.405 E0.17397
G1 X100.083 Y115.405 E0.19086
G1 X99.801 Y115.463 E0.20334
G1 X99.414 Y115.631 E0.22159
G1 X99.063 Y115.917 E0.2412
G1 X98.82 Y116.261 E0.25945
G1 X98.706 Y116.525 E0.27193
G1 X98.626 Y116.907 E0.28882
G1 X98.626 Y117.195 E0.3013
G1 X98.706 Y117.577 E0.3182
G1 X98.82 Y117.841 E0.33068
G1 X99.045 Y118.159 E0.34757
G1 X99.256 Y118.356 E0.36006
G1 X99.589 Y118.559 E0.37695
G1 X99.831 Y118.645 E0.38808
G1 X100.083 Y118.697 E0.39922
G1 X100.504 Y118.697 E0.41747
G1 X100.909 Y118.583 E0.43572
G1 X101.159 Y118.454 E0.44792
G1 X100.878 Y118.013 F9000
;TYPE:External perimeter
G1 F1200
G1 X101.097 Y117.834 E0.46017
G1 X101.203 Y117.704 E0.46744
G1 X101.29 Y117.561 E0.47471
G1 X101.385 Y117.294 E0.48696
G1 X101.41 Y117.115 E0.4948
G1 X101.389 Y116.82 E0.50763
G1 X101.286 Y116.528 E0.52103
G1 X101.115 Y116.287 E0.53385
G1 X100.993 Y116.172 E0.54112
G1 X100.855 Y116.075 E0.54839
G1 X100.596 Y115.963 E0.56064
G1 X100.419 Y115.926 E0.56848
G1 X100.136 Y115.926 E0.58074
G1 X99.959 Y115.963 E0.58857
G1 X99.688 Y116.081 E0.6014
G1 X99.448 Y116.276 E0.6148
G1 X99.277 Y116.518 E0.62763
G1 X99.205 Y116.684 E0.63546
G1 X99.147 Y116.96 E0.64772
G1 X99.147 Y117.141 E0.65555
G1 X99.205 Y117.418 E0.66781
G1 X99.277 Y117.584 E0.67565
G1 X99.44 Y117.815 E0.6879
G1 X99.572 Y117.939 E0.69574
G1 X99.814 Y118.086 E0.70799
G1 X99.972 Y118.142 E0.71526
G1 X100.136 Y118.176 E0.72253
G1 X100.432 Y118.176 E0.73535
G1 X100.717 Y118.096 E0.74818
G1 X100.825 Y118.04 E0.75342
;WIPE_START
G1 X101.241 Y118.181 F9000
;WIPE_END
G92 E0
G1 E-0.7 F3600
;WIPE_START
G1 F7200
G1 X101.367 Y117.82 E-0.88145
G1 X101.472 Y117.647 E-0.9774
G1 X101.477 Y117.632 E-0.985
;WIPE_END
G1 E-1 F3600
; acceleration to travel
M204 S1500
G1 X99.774 Y102.986 F9000
; decel to extrusion
M204 S500
G1 X99.566 Y101.197
; end travel
G1 E0 F2400
;TYPE:Internal perimeter
G1 F1200
G1 X99.638 Y101.197 E0.0031
G1 X100.043 Y101.083 E0.02135
G1 X100.299 Y100.951 E0.03383
G1 X100.602 Y100.705 E0.05073
G1 X100.783 Y100.481 E0.06321
G1 X100.963 Y100.135 E0.0801
G1 X101.032 Y99.888 E0.09124
G1 X101.067 Y99.633 E0.10237
G1 X101.04 Y99.244 E0.11927
G1 X100.963 Y98.967 E0.13175
G1 X100.769 Y98.593 E0.15
G1 X100.481 Y98.285 E0.16825
G1 X100.246 Y98.119 E0.18073
G1 X99.889 Y97.963 E0.19762
G1 X99.607 Y97.905 E0.2101
G1 X99.185 Y97.905 E0.22835
G1 X98.75 Y98.027 E0.24796
G1 X98.39 Y98.246 E0.26621
G1 X98.179 Y98.442 E0.27869
G1 X97.954 Y98.761 E0.29558
G1 X97.84 Y99.025 E0.30806
G1 X97.76 Y99.407 E0.32496
G1 X97.76 Y99.695 E0.33744
G1 X97.84 Y100.077 E0.35433
G1 X97.954 Y100.341 E0.36682
G1 X98.179 Y100.659 E0.38371
G1 X98.39 Y100.856 E0.39619
G1 X98.723 Y101.059 E0.41308
G1 X98.965 Y101.145 E0.42422
G1 X99.217 Y101.197 E0.43535
G1 X99.506 Y101.197 E0.4479
G1 X99.566 Y100.676 F9000
;TYPE:External perimeter
G1 F1200
G1 X99.851 Y100.596 E0.46073
G1 X100.012 Y100.513 E0.46857
G1 X100.231 Y100.334 E0.48082
G1 X100.345 Y100.194 E0.48866
G1 X100.475 Y99.943 E0.50091
G1 X100.521 Y99.781 E0.50818
G1 X100.544 Y99.615 E0.51545
G1 X100.524 Y99.333 E0.5277
G1 X100.475 Y99.159 E0.53554
G1 X100.339 Y98.896 E0.54836
G1 X100.137 Y98.68 E0.56119
G1 X99.989 Y98.575 E0.56903
G1 X99.73 Y98.463 E0.58128
G1 X99.553 Y98.426 E0.58912
G1 X99.257 Y98.426 E0.60195
G1 X98.959 Y98.509 E0.61535
G1 X98.706 Y98.663 E0.62817
G1 X98.574 Y98.787 E0.63601
G1 X98.411 Y99.018 E0.64826
G1 X98.339 Y99.184 E0.6561
G1 X98.281 Y99.46 E0.66835
G1 X98.281 Y99.641 E0.67619
G1 X98.339 Y99.918 E0.68844
G1 X98.411 Y100.084 E0.69628
G1 X98.574 Y100.315 E0.70854
G1 X98.706 Y100.439 E0.71637
G1 X98.948 Y100.586 E0.72863
G1 X99.106 Y100.642 E0.7359
G1 X99.27 Y100.676 E0.74316
G1 X99.506 Y100.676 E0.75339
;WIPE_START
G1 X99.826 Y100.98 F9000
;WIPE_END
G92 E0
G1 E-0.7 F3600
;WIPE_START
G1 F7200
G1 X100.122 Y100.681 E-0.90016
G1 X100.261 Y100.568 E-0.985
;WIPE_END
G1 E-1 F3600
; acceleration to travel
M204 S1500
G1 X102.37 Y102.063 F9000
; decel to extrusion
M204 S500
G1 X102.627 Y102.245
; end travel
G1 E0 F2400
;TYPE:Internal perimeter
G1 F1200
G1 X102.326 Y102.832 E0.02858
G1 X101.82 Y104.123 E0.08864
G1 X101.444 Y105.457 E0.1487
G1 X101.204 Y106.822 E0.20876
G1 X101.1 Y108.204 E0.26882
G1 X101.135 Y109.59 E0.32888
G1 X101.307 Y110.965 E0.38893
G1 X101.615 Y112.317 E0.44899
G1 X102.057 Y113.631 E0.50905
G1 X102.627 Y114.894 E0.56911
G1 X103.32 Y116.095 E0.62917
G1 X104.129 Y117.22 E0.68923
G1 X105.046 Y118.259 E0.74928
G1 X106.063 Y119.202 E0.80934
G1 X107.167 Y120.039 E0.8694
G1 X108.35 Y120.762 E0.92946
G1 X109.599 Y121.363 E0.98952
G1 X110.902 Y121.837 E1.04958
G1 X112.245 Y122.179 E1.10963
G1 X113.616 Y122.386 E1.16969
G1 X115 Y122.455 E1.22975
G1 X116.384 Y122.386 E1.28981
G1 X117.755 Y122.179 E1.34987
G1 X119.098 Y121.837 E1.40993
G1 X120.401 Y121.363 E1.46998
G1 X121.65 Y120.762 E1.53004
G1 X122.833 Y120.039 E1.5901
G1 X123.937 Y119.202 E1.65016
G1 X124.954 Y118.259 E1.71022
G1 X125.871 Y117.22 E1.77028
G1 X126.68 Y116.095 E1.83034
G1 X127.373 Y114.894 E1.89039
G1 X127.943 Y113.631 E1.95045
G1 X128.385 Y112.317 E2.01051
G1 X128.693 Y110.965 E2.07057
G1 X128.865 Y109.59 E2.13063
G1 X128.9 Y108.204 E2.19069
G1 X128.796 Y106.822 E2.25074
G1 X128.556 Y105.457 E2.3108
G1 X128.18 Y104.123 E2.37086
G1 X127.674 Y102.832 E2.43092
G1 X127.041 Y101.599 E2.49098
G1 X126.289 Y100.434 E2.55104
G1 X125.425 Y99.351 E2.61109
G1 X124.457 Y98.358 E2.67115
G1 X123.395 Y97.467 E2.73121
G1 X122.25 Y96.687 E2.79127
G1 X121.033 Y96.024 E2.85133
G1 X119.756 Y95.485 E2.91139
G1 X118.431 Y95.077 E2.97144
G1 X117.072 Y94.802 E3.0315
G1 X115.695 Y94.664 E3.09146
G1 X114.302 Y94.664 E3.15183
G1 X112.928 Y94.802 E3.21168
G1 X111.569 Y95.077 E3.27173
G1 X110.244 Y95.485 E3.33179
G1 X108.967 Y96.024 E3.39185
G1 X107.75 Y96.687 E3.45191
G1 X106.605 Y97.467 E3.51197
G1 X105.543 Y98.358 E3.57203
G1 X104.575 Y99.351 E3.63208
G1 X103.711 Y100.434 E3.69214
G1 X102.959 Y101.599 E3.7522
G1 X102.655 Y102.192 E3.78108
G1 X103.091 Y102.483 F9000
;TYPE:External perimeter
G1 F1200
G1 X102.802 Y103.047 E3.80853
G1 X102.314 Y104.289 E3.86634
G1 X101.953 Y105.573 E3.92414
G1 X101.721 Y106.887 E3.98195
G1 X101.622 Y108.217 E4.03975
G1 X101.655 Y109.551 E4.09756
G1 X101.821 Y110.875 E4.15536
G1 X102.118 Y112.175 E4.21317
G1 X102.543 Y113.44 E4.27097
G1 X103.091 Y114.656 E4.32878
G1 X103.758 Y115.812 E4.38658
G1 X104.537 Y116.895 E4.44439
G1 X105.42 Y117.895 E4.50219
G1 X106.398 Y118.802 E4.56
G1 X107.461 Y119.608 E4.6178
G1 X108.6 Y120.304 E4.6756
G1 X109.802 Y120.883 E4.73341
G1 X111.055 Y121.339 E4.79121
G1 X112.348 Y121.668 E4.84902
G1 X113.668 Y121.867 E4.90682
G1 X115 Y121.933 E4.96463
G1 X116.332 Y121.867 E5.02243
G1 X117.652 Y121.668 E5.08024
G1 X118.945 Y121.339 E5.13804
G1 X120.198 Y120.883 E5.19585
G1 X121.4 Y120.304 E5.25365
G1 X122.539 Y119.608 E5.31146
