; generated by SuperSlicer 2.4 on 2023-10-31 at 13:39:10 UTC

; 

; external perimeters extrusion width = 0.42mm
; perimeters extrusion width = 0.46mm
; infill extrusion width = 0.44mm
; solid infill extrusion width = 0.46mm
; top infill extrusion width = 0.44mm
; first layer extrusion width = 0.56mm

; object:{"name":"planet_plate","id":"planet_plate.STL id:0 copy 0","object_center":[115.000000,112.500000,0.000000],"boundingbox_center":[115.000000,112.500000,2.500000],"boundingbox_size":[78.478615,70.288361,5.000000]}
; Total objects to print: 1
M486 T1
; plater:{"center":[115.000000,112.500000,0.000000],"boundingbox_center":[115.000000,112.500000,2.500000],"boundingbox_size":[78.478615,70.288361,5.000000]}

;TYPE:Custom
G90 ; use absolute coordinates
M83 ; extruder relative mode
M140 S60 ; set final bed temp
M104 S150 ; set temporary nozzle temp to prevent oozing during homing and auto bed leveling
G4 S10 ; allow partial nozzle warmup
G28 ; home all axis
G1 Z50 F240
G1 X2 Y10 F3000
M104 S215 ; set final nozzle temp
M190 S60 ; wait for bed temp to stabilize
M109 S215 ; wait for nozzle temp to stabilize
G1 Z0.28 F240
G92 E0
G1 Y140 E10 F1500 ; prime the nozzle
G1 X2.3 F5000
G92 E0
G1 Y10 E10 F1200 ; prime the nozzle
G92 E0
M107
G21 ; set units to millimeters
G90 ; use absolute coordinates
M82 ; use absolute distances for extrusion
G92 E0
; Filament gcode
;_TOOLCHANGE 0
M107
;LAYER_CHANGE
;Z:0.2
;HEIGHT:0.2
;BEFORE_LAYER_CHANGE
;0.2


G1 E-1 F3600
G1 Z0.2 F9000
;AFTER_LAYER_CHANGE
;0.2
G92 E0
M204 S500
G1 X83.172 Y78.409
G1 E1 F2400
;TYPE:Skirt
;WIDTH:0.48
G1 F1200
G1 X81.631 Y80.18 E1.08533
G1 X80.085 Y82.174 E1.17701
G1 X78.754 Y84.108 E1.26235
G1 X77.529 Y86.111 E1.34768
G1 X76.415 Y88.178 E1.43301
G1 X75.415 Y90.302 E1.51834
G1 X74.531 Y92.478 E1.60367
G1 X73.767 Y94.698 E1.689
G1 X73.125 Y96.956 E1.77433
G1 X72.571 Y99.493 E1.8687
G1 X72.564 Y100.373 E1.90068
G1 X72.695 Y101.113 E1.92798
G1 X72.909 Y101.697 E1.95062
G1 X98.848 Y146.681 E3.8378
G1 X99.452 Y147.488 E3.87443
G1 X100.294 Y148.173 E3.91388
G1 X101.107 Y148.559 E3.94657
G1 X103.487 Y149.3 E4.03717
G1 X105.596 Y149.826 E4.11615
G1 X107.9 Y150.274 E4.20149
G1 X110.226 Y150.597 E4.28682
G1 X112.566 Y150.793 E4.37215
G1 X115.087 Y150.862 E4.46383
G1 X117.434 Y150.793 E4.54916
G1 X119.6 Y150.616 E4.62814
G1 X121.927 Y150.303 E4.71347
G1 X124.234 Y149.864 E4.7988
G1 X126.513 Y149.3 E4.88413
G1 X128.758 Y148.613 E4.96947
G1 X129.457 Y148.315 E4.99708
G1 X130.09 Y147.91 E5.02439
G1 X130.719 Y147.295 E5.05636
G1 X131.104 Y146.763 E5.08022
G1 X156.866 Y102.144 E6.95273
G1 X157.305 Y101.113 E6.99346
G1 X157.451 Y100.116 E7.03008
G1 X157.359 Y99.075 E7.06806
G1 X156.831 Y96.787 E7.15339
G1 X156.18 Y94.531 E7.23873
G1 X155.407 Y92.314 E7.32406
G1 X154.585 Y90.302 E7.40304
G1 X153.585 Y88.178 E7.48837
G1 X152.471 Y86.111 E7.5737
G1 X151.151 Y83.962 E7.66538
G1 X149.811 Y82.033 E7.75071
G1 X148.369 Y80.18 E7.83604
G1 X146.946 Y78.538 E7.91502
G1 X145.318 Y76.846 E8.00035
G1 X143.601 Y75.245 E8.08568
G1 X142.746 Y74.645 E8.12366
G1 X141.732 Y74.258 E8.16311
G1 X140.826 Y74.139 E8.1963
G1 X89.303 Y74.137 E10.06881
G1 X88.521 Y74.206 E10.09736
G1 X87.485 Y74.53 E10.13681
G1 X86.624 Y75.054 E10.17344
G1 X84.806 Y76.723 E10.26313
G1 X83.213 Y78.366 E10.34628
G92 E0
G1 E-0.7 F3600
;WIPE_START
G1 F7200
G1 X82.819 Y78.818 E-0.985
;WIPE_END
G1 E-1 F3600
; printing object planet_plate.STL id:0 copy 0
M486 S0
; acceleration to travel
M204 S1500
G1 X110.357 Y118.733 F9000
; decel to extrusion
M204 S500
G1 X113.721 Y123.61
; end travel
G1 E0 F2400
;TYPE:Internal perimeter
;WIDTH:0.564
G1 F1200
G1 X113.482 Y123.778 E0.01268
G1 X113.242 Y124.003 E0.0269
G1 X113.035 Y124.257 E0.04113
G1 X112.864 Y124.538 E0.05535
G1 X112.734 Y124.839 E0.06957
G1 X112.645 Y125.155 E0.0838
G1 X112.6 Y125.48 E0.09802
G1 X112.6 Y125.808 E0.11224
G1 X112.645 Y126.134 E0.12647
G1 X112.734 Y126.45 E0.14069
G1 X112.864 Y126.751 E0.15491
G1 X113.035 Y127.031 E0.16914
G1 X113.242 Y127.286 E0.18336
G1 X113.482 Y127.51 E0.19758
G1 X113.75 Y127.699 E0.21181
G1 X114.042 Y127.85 E0.22603
G1 X114.351 Y127.96 E0.24025
G1 X114.672 Y128.027 E0.25448
G1 X115 Y128.049 E0.2687
G1 X115.328 Y128.027 E0.28292
G1 X115.649 Y127.96 E0.29715
G1 X115.958 Y127.85 E0.31137
G1 X116.25 Y127.699 E0.32559
G1 X116.518 Y127.51 E0.33982
G1 X116.758 Y127.286 E0.35404
G1 X116.965 Y127.031 E0.36826
G1 X117.136 Y126.751 E0.38249
G1 X117.266 Y126.45 E0.39671
G1 X117.355 Y126.134 E0.41093
G1 X117.4 Y125.808 E0.42516
G1 X117.4 Y125.48 E0.43938
G1 X117.355 Y125.155 E0.4536
G1 X117.266 Y124.839 E0.46783
G1 X117.136 Y124.538 E0.48205
G1 X116.965 Y124.257 E0.49627
G1 X116.758 Y124.003 E0.5105
G1 X116.518 Y123.778 E0.52472
G1 X116.25 Y123.589 E0.53894
G1 X115.958 Y123.438 E0.55317
G1 X115.649 Y123.328 E0.56739
G1 X115.328 Y123.261 E0.58161
G1 X115 Y123.239 E0.59584
G1 X114.672 Y123.261 E0.61006
G1 X114.351 Y123.328 E0.62428
G1 X114.042 Y123.438 E0.63851
G1 X113.772 Y123.578 E0.65167
G1 X114.022 Y124.035 F9000
;TYPE:External perimeter
G1 F1200
G1 X113.812 Y124.184 E0.66281
G1 X113.624 Y124.359 E0.67394
G1 X113.462 Y124.558 E0.68508
G1 X113.328 Y124.778 E0.69621
G1 X113.226 Y125.014 E0.70735
G1 X113.156 Y125.261 E0.71848
G1 X113.121 Y125.516 E0.72962
G1 X113.121 Y125.773 E0.74075
G1 X113.156 Y126.027 E0.75189
G1 X113.226 Y126.275 E0.76302
G1 X113.328 Y126.51 E0.77416
G1 X113.462 Y126.73 E0.78529
G1 X113.624 Y126.929 E0.79642
G1 X113.812 Y127.105 E0.80756
G1 X114.022 Y127.253 E0.81869
G1 X114.25 Y127.371 E0.82983
G1 X114.492 Y127.457 E0.84096
G1 X114.744 Y127.51 E0.8521
G1 X115 Y127.527 E0.86323
G1 X115.256 Y127.51 E0.87437
G1 X115.508 Y127.457 E0.8855
G1 X115.75 Y127.371 E0.89664
G1 X115.978 Y127.253 E0.90777
G1 X116.188 Y127.105 E0.91891
G1 X116.376 Y126.929 E0.93004
G1 X116.538 Y126.73 E0.94118
G1 X116.672 Y126.51 E0.95231
G1 X116.774 Y126.275 E0.96345
G1 X116.844 Y126.027 E0.97458
G1 X116.879 Y125.773 E0.98571
G1 X116.879 Y125.516 E0.99685
G1 X116.844 Y125.261 E1.00798
G1 X116.774 Y125.014 E1.01912
G1 X116.672 Y124.778 E1.03025
G1 X116.538 Y124.558 E1.04139
G1 X116.376 Y124.359 E1.05252
G1 X116.188 Y124.184 E1.06366
G1 X115.978 Y124.035 E1.07479
G1 X115.75 Y123.917 E1.08593
G1 X115.508 Y123.831 E1.09706
G1 X115.256 Y123.779 E1.1082
G1 X115 Y123.761 E1.11933
G1 X114.744 Y123.779 E1.13047
G1 X114.492 Y123.831 E1.1416
G1 X114.25 Y123.917 E1.15274
G1 X114.075 Y124.008 E1.16127
;WIPE_START
G1 X113.667 Y123.851 F9000
;WIPE_END
G92 E0
G1 E-0.7 F3600
;WIPE_START
G1 F7200
G1 X113.477 Y124.222 E-0.89771
G1 X113.361 Y124.365 E-0.985
;WIPE_END
G1 E-1 F3600
; acceleration to travel
M204 S1500
G1 X114.853 Y139.27 F9000
; decel to extrusion
M204 S500
G1 X115.036 Y141.091
; end travel
G1 E0 F2400
;TYPE:Internal perimeter
G1 F1200
G1 X115 Y141.089 E0.00154
G1 X114.652 Y141.113 E0.01666
G1 X114.311 Y141.184 E0.03177
G1 X113.982 Y141.301 E0.04688
G1 X113.672 Y141.461 E0.06199
G1 X113.387 Y141.662 E0.0771
G1 X113.133 Y141.9 E0.09221
G1 X112.912 Y142.171 E0.10732
G1 X112.731 Y142.469 E0.12243
G1 X112.592 Y142.789 E0.13754
G1 X112.498 Y143.124 E0.15265
G1 X112.451 Y143.47 E0.16776
G1 X112.451 Y143.819 E0.18287
G1 X112.498 Y144.164 E0.19798
G1 X112.592 Y144.5 E0.21309
G1 X112.731 Y144.82 E0.2282
G1 X112.912 Y145.118 E0.24331
G1 X113.133 Y145.388 E0.25842
G1 X113.387 Y145.626 E0.27353
G1 X113.672 Y145.827 E0.28864
G1 X113.982 Y145.988 E0.30375
G1 X114.311 Y146.105 E0.31886
G1 X114.652 Y146.176 E0.33397
G1 X115 Y146.199 E0.34908
G1 X115.348 Y146.176 E0.36419
G1 X115.689 Y146.105 E0.3793
G1 X116.018 Y145.988 E0.39441
G1 X116.328 Y145.827 E0.40952
G1 X116.613 Y145.626 E0.42464
G1 X116.867 Y145.388 E0.43975
G1 X117.088 Y145.118 E0.45486
G1 X117.269 Y144.82 E0.46997
G1 X117.408 Y144.5 E0.48508
G1 X117.502 Y144.164 E0.50019
G1 X117.549 Y143.819 E0.5153
G1 X117.549 Y143.47 E0.53041
G1 X117.502 Y143.124 E0.54552
G1 X117.408 Y142.789 E0.56063
G1 X117.269 Y142.469 E0.57574
G1 X117.088 Y142.171 E0.59085
G1 X116.867 Y141.9 E0.60596
G1 X116.613 Y141.662 E0.62107
G1 X116.328 Y141.461 E0.63618
G1 X116.018 Y141.301 E0.65129
G1 X115.689 Y141.184 E0.6664
G1 X115.348 Y141.113 E0.68151
G1 X115.095 Y141.096 E0.69248
G1 X115 Y141.611 F9000
;TYPE:External perimeter
G1 F1200
G1 X114.723 Y141.63 E0.7045
G1 X114.452 Y141.687 E0.71652
G1 X114.19 Y141.78 E0.72854
G1 X113.944 Y141.907 E0.74056
G1 X113.717 Y142.067 E0.75259
G1 X113.514 Y142.257 E0.76461
G1 X113.339 Y142.472 E0.77663
G1 X113.195 Y142.709 E0.78865
G1 X113.084 Y142.963 E0.80067
G1 X113.01 Y143.231 E0.8127
G1 X112.972 Y143.505 E0.82472
G1 X112.972 Y143.783 E0.83674
G1 X113.01 Y144.058 E0.84876
G1 X113.084 Y144.325 E0.86078
G1 X113.195 Y144.579 E0.8728
G1 X113.339 Y144.817 E0.88483
G1 X113.514 Y145.032 E0.89685
G1 X113.717 Y145.221 E0.90887
G1 X113.944 Y145.381 E0.92089
G1 X114.19 Y145.509 E0.93291
G1 X114.452 Y145.602 E0.94493
G1 X114.723 Y145.658 E0.95696
G1 X115 Y145.677 E0.96898
G1 X115.277 Y145.658 E0.981
G1 X115.548 Y145.602 E0.99302
G1 X115.81 Y145.509 E1.00504
G1 X116.056 Y145.381 E1.01706
G1 X116.283 Y145.221 E1.02909
G1 X116.486 Y145.032 E1.04111
G1 X116.661 Y144.817 E1.05313
G1 X116.805 Y144.579 E1.06515
G1 X116.916 Y144.325 E1.07717
G1 X116.99 Y144.058 E1.08919
G1 X117.028 Y143.783 E1.10122
G1 X117.028 Y143.505 E1.11324
G1 X116.99 Y143.231 E1.12526
G1 X116.916 Y142.963 E1.13728
G1 X116.805 Y142.709 E1.1493
G1 X116.661 Y142.472 E1.16133
G1 X116.486 Y142.257 E1.17335
G1 X116.283 Y142.067 E1.18537
G1 X116.056 Y141.907 E1.19739
G1 X115.81 Y141.78 E1.20941
G1 X115.548 Y141.687 E1.22143
G1 X115.277 Y141.63 E1.23346
G1 X115.06 Y141.615 E1.24288
;WIPE_START
G1 X114.792 Y141.27 F9000
;WIPE_END
G92 E0
G1 E-0.7 F3600
;WIPE_START
G1 F7200
G1 X114.397 Y141.494 E-0.91561
G1 X114.26 Y141.543 E-0.985
;WIPE_END
G1 E-1 F3600
; acceleration to travel
M204 S1500
G1 X114.943 Y123.724 F9000
; decel to extrusion
M204 S500
G1 X115.026 Y121.547
; end travel
G1 E0 F2400
;TYPE:Internal perimeter
G1 F1200
G1 X116.384 Y121.479 E0.05893
G1 X117.755 Y121.273 E0.11899
G1 X119.098 Y120.931 E0.17905
G1 X120.401 Y120.457 E0.23911
G1 X121.65 Y119.855 E0.29917
G1 X122.833 Y119.132 E0.35922
G1 X123.937 Y118.295 E0.41928
G1 X124.954 Y117.353 E0.47934
G1 X125.871 Y116.313 E0.5394
G1 X126.68 Y115.188 E0.59946
G1 X127.373 Y113.987 E0.65951
G1 X127.943 Y112.724 E0.71957
G1 X128.385 Y111.41 E0.77963
G1 X128.693 Y110.059 E0.83969
G1 X128.865 Y108.683 E0.89975
G1 X128.9 Y107.298 E0.95981
G1 X128.796 Y105.915 E1.01987
G1 X128.556 Y104.55 E1.07992
G1 X128.18 Y103.216 E1.13998
G1 X127.674 Y101.926 E1.20004
G1 X127.041 Y100.692 E1.2601
G1 X126.289 Y99.528 E1.32016
G1 X125.425 Y98.444 E1.38022
G1 X124.457 Y97.452 E1.44027
G1 X123.395 Y96.561 E1.50033
G1 X122.25 Y95.78 E1.56039
G1 X121.033 Y95.117 E1.62045
G1 X119.756 Y94.579 E1.68051
G1 X118.431 Y94.17 E1.74057
G1 X117.072 Y93.895 E1.80062
G1 X115.695 Y93.758 E1.86058
G1 X114.302 Y93.758 E1.92095
G1 X112.928 Y93.895 E1.9808
G1 X111.569 Y94.17 E2.04086
G1 X110.244 Y94.579 E2.10091
G1 X108.967 Y95.117 E2.16097
G1 X107.75 Y95.78 E2.22103
G1 X106.605 Y96.561 E2.28109
G1 X105.543 Y97.452 E2.34115
G1 X104.575 Y98.444 E2.40121
G1 X103.711 Y99.528 E2.46126
G1 X102.959 Y100.692 E2.52132
G1 X102.326 Y101.926 E2.58138
G1 X101.82 Y103.216 E2.64144
G1 X101.444 Y104.55 E2.7015
G1 X101.204 Y105.915 E2.76156
G1 X101.1 Y107.298 E2.82161
G1 X101.135 Y108.683 E2.88167
G1 X101.307 Y110.059 E2.94173
G1 X101.615 Y111.41 E3.00179
G1 X102.057 Y112.724 E3.06185
G1 X102.627 Y113.987 E3.12191
G1 X103.32 Y115.188 E3.18196
G1 X104.129 Y116.313 E3.24202
G1 X105.046 Y117.353 E3.30208
G1 X106.063 Y118.295 E3.36214
G1 X107.167 Y119.132 E3.4222
G1 X108.35 Y119.855 E3.48226
G1 X109.599 Y120.457 E3.54232
G1 X110.902 Y120.931 E3.60237
G1 X112.245 Y121.273 E3.66243
G1 X113.616 Y121.479 E3.72249
G1 X114.966 Y121.547 E3.78108
G1 X115 Y121.027 F9000
;TYPE:External perimeter
G1 F1200
G1 X116.332 Y120.96 E3.83888
G1 X117.652 Y120.761 E3.89669
G1 X118.945 Y120.432 E3.95449
G1 X120.198 Y119.976 E4.01229
G1 X121.4 Y119.397 E4.0701
G1 X122.539 Y118.701 E4.1279
G1 X123.602 Y117.896 E4.18571
G1 X124.58 Y116.988 E4.24351
G1 X125.463 Y115.988 E4.30132
G1 X126.242 Y114.905 E4.35912
G1 X126.909 Y113.749 E4.41693
G1 X127.457 Y112.533 E4.47473
G1 X127.882 Y111.269 E4.53254
G1 X128.179 Y109.968 E4.59034
G1 X128.345 Y108.644 E4.64815
G1 X128.378 Y107.311 E4.70595
G1 X128.279 Y105.98 E4.76376
G1 X128.047 Y104.666 E4.82156
G1 X127.686 Y103.382 E4.87937
G1 X127.198 Y102.14 E4.93717
G1 X126.59 Y100.953 E4.99498
G1 X125.866 Y99.832 E5.05278
G1 X125.034 Y98.789 E5.11059
G1 X124.102 Y97.834 E5.16839
G1 X123.08 Y96.977 E5.2262
G1 X121.978 Y96.225 E5.284
G1 X120.806 Y95.587 E5.34181
G1 X119.577 Y95.069 E5.39961
G1 X118.302 Y94.676 E5.45742
G1 X116.995 Y94.411 E5.51522
G1 X115.669 Y94.279 E5.57292
G1 X114.328 Y94.279 E5.63103
G1 X113.005 Y94.411 E5.68863
G1 X111.698 Y94.676 E5.74644
G1 X110.423 Y95.069 E5.80424
G1 X109.194 Y95.587 E5.86205
G1 X108.022 Y96.225 E5.91985
G1 X106.92 Y96.977 E5.97766
G1 X105.898 Y97.834 E6.03546
G1 X104.966 Y98.789 E6.09327
G1 X104.134 Y99.832 E6.15107
G1 X103.41 Y100.953 E6.20888
G1 X102.802 Y102.14 E6.26668
G1 X102.314 Y103.382 E6.32449
G1 X101.953 Y104.666 E6.38229
G1 X101.721 Y105.98 E6.4401
G1 X101.622 Y107.311 E6.4979
G1 X101.655 Y108.644 E6.5557
G1 X101.821 Y109.968 E6.61351
G1 X102.118 Y111.269 E6.67131
G1 X102.543 Y112.533 E6.72912
G1 X103.091 Y113.749 E6.78692
G1 X103.758 Y114.905 E6.84473
G1 X104.537 Y115.988 E6.90253
G1 X105.42 Y116.988 E6.96034
G1 X106.398 Y117.896 E7.01814
G1 X107.461 Y118.701 E7.07595
G1 X108.6 Y119.397 E7.13375
G1 X109.802 Y119.976 E7.19156
G1 X111.055 Y120.432 E7.24936
G1 X112.348 Y120.761 E7.30717
G1 X113.668 Y120.96 E7.36497
G1 X114.94 Y121.024 E7.42018
;WIPE_START
G1 X115.206 Y121.37 F9000
;WIPE_END
G92 E0
G1 E-0.7 F3600
;WIPE_START
G1 F7200
G1 X115.796 Y121.261 E-0.985
;WIPE_END
G1 E-1 F3600
; acceleration to travel
M204 S1500
G1 X102.281 Y102.952 F9000
; decel to extrusion
M204 S500
G1 X100.63 Y100.716
; end travel
G1 E0 F2400
;TYPE:Internal perimeter
G1 F1200
G1 X100.661 Y100.699 E0.00154
G1 X100.929 Y100.51 E0.01577
G1 X101.169 Y100.286 E0.02999
G1 X101.376 Y100.031 E0.04421
G1 X101.546 Y99.752 E0.05836
G1 X101.678 Y99.45 E0.07265
G1 X101.766 Y99.134 E0.08688
G1 X101.811 Y98.808 E0.10111
G1 X101.811 Y98.48 E0.11533
G1 X101.766 Y98.155 E0.12955
G1 X101.678 Y97.839 E0.14378
G1 X101.547 Y97.538 E0.158
G1 X101.377 Y97.257 E0.17222
G1 X101.169 Y97.003 E0.18645
G1 X100.929 Y96.778 E0.20067
G1 X100.661 Y96.589 E0.21489
G1 X100.37 Y96.438 E0.22912
G1 X100.06 Y96.328 E0.24334
G1 X99.739 Y96.261 E0.25756
G1 X99.412 Y96.239 E0.27179
G1 X99.084 Y96.261 E0.28601
G1 X98.763 Y96.328 E0.30023
G1 X98.453 Y96.438 E0.31446
G1 X98.162 Y96.589 E0.32868
G1 X97.894 Y96.778 E0.3429
G1 X97.654 Y97.003 E0.35713
G1 X97.447 Y97.257 E0.37135
G1 X97.276 Y97.538 E0.38557
G1 X97.145 Y97.839 E0.3998
G1 X97.057 Y98.155 E0.41402
G1 X97.012 Y98.48 E0.42824
G1 X97.012 Y98.808 E0.44247
G1 X97.057 Y99.134 E0.45669
G1 X97.145 Y99.45 E0.47091
G1 X97.276 Y99.751 E0.48514
G1 X97.447 Y100.031 E0.49936
G1 X97.654 Y100.286 E0.51358
G1 X97.894 Y100.51 E0.52781
G1 X98.162 Y100.699 E0.54203
G1 X98.453 Y100.85 E0.55625
G1 X98.763 Y100.96 E0.57048
G1 X99.084 Y101.027 E0.5847
G1 X99.412 Y101.049 E0.59892
G1 X99.739 Y101.027 E0.61315
G1 X100.06 Y100.96 E0.62737
G1 X100.37 Y100.85 E0.64159
G1 X100.576 Y100.743 E0.65167
G1 X100.39 Y100.253 F9000
;TYPE:External perimeter
G1 F1200
G1 X100.6 Y100.105 E0.66281
G1 X100.788 Y99.929 E0.67394
G1 X100.95 Y99.73 E0.68508
G1 X101.083 Y99.512 E0.69615
G1 X101.186 Y99.275 E0.70734
G1 X101.255 Y99.027 E0.71848
G1 X101.29 Y98.773 E0.72962
G1 X101.29 Y98.516 E0.74075
G1 X101.255 Y98.261 E0.75189
G1 X101.186 Y98.014 E0.76302
G1 X101.083 Y97.778 E0.77415
G1 X100.95 Y97.558 E0.78529
G1 X100.788 Y97.359 E0.79642
G1 X100.6 Y97.184 E0.80756
G1 X100.39 Y97.035 E0.81869
G1 X100.162 Y96.917 E0.82983
G1 X99.92 Y96.831 E0.84096
G1 X99.668 Y96.779 E0.8521
G1 X99.412 Y96.761 E0.86323
G1 X99.155 Y96.779 E0.87437
G1 X98.904 Y96.831 E0.8855
G1 X98.661 Y96.917 E0.89664
G1 X98.433 Y97.035 E0.90777
G1 X98.223 Y97.184 E0.91891
