; generated by SuperSlicer 2.4 on 2024-06-19 at 17:09:09 UTC


;
;

;
;
; TODO: check the size of the extruder and the y-bar clearance. Optimize & test supports.

; external perimeters extrusion width = 0.40mm
; perimeters extrusion width = 0.40mm
; infill extrusion width = 0.40mm
; solid infill extrusion width = 0.40mm
; top infill extrusion width = 0.40mm
; first layer extrusion width = 0.48mm

; object:{"name":"cycloid_stator_2","id":"cycloid_stator_2.STL id:0 copy 0","object_center":[60.000000,60.000000,0.000000],"boundingbox_center":[60.000000,60.000000,2.500000],"boundingbox_size":[80.000000,79.897324,5.000000]}
; plater:{"center":[60.000000,60.000000,0.000000],"boundingbox_center":[60.000000,60.000000,2.500000],"boundingbox_size":[80.000000,79.897324,5.000000]}

;TYPE:Custom
; M190 S0
;M109 S0 ; uncomment to remove set&wait temp gcode added automatically after this start gcode
print_start EXTRUDER=240 BED=90 CHAMBER=50

;G92 E0
;G1 E10 F1500 ; prime the nozzle
M107
G21 ; set units to millimeters
G90 ; use absolute coordinates
M83 ; use relative distances for extrusion
SET_PRESSURE_ADVANCE ADVANCE=0.04
;_TOOLCHANGE 0
M104 S240 ; set temperature
M109 S240 ; set temperature and wait for it to be reached
M190 S90 ; set bed temperature and wait for it to be reached
M107
;LAYER_CHANGE
;Z:0.25
;HEIGHT:0.25
;BEFORE_LAYER_CHANGE
;0.25


G1 Z0.25 F18000
;AFTER_LAYER_CHANGE
;0.25
TIMELAPSE_TAKE_FRAME
G92 E0
G1 E-2 F3000
G1 Z0.65 F18000
M204 S1000
G1 X26.409 Y25.299
G1 Z0.25
G1 E2 F1800
;TYPE:Skirt
;WIDTH:0.52
G1 X23.457 Y28.382 E0.19654
G1 X20.445 Y32.241 E0.22541
G1 X17.84 Y36.385 E0.22541
G1 X15.667 Y40.771 E0.22541
G1 X13.949 Y45.355 E0.22541
G1 X12.704 Y50.089 E0.22541
G1 X11.906 Y55.298 E0.24264
G1 X11.677 Y60.187 E0.22541
G1 X11.944 Y65.075 E0.22541
G1 X12.704 Y69.911 E0.22541
G1 X13.949 Y74.645 E0.22541
G1 X15.667 Y79.229 E0.22541
G1 X17.658 Y83.287 E0.20817
G1 X20.231 Y87.452 E0.22541
G1 X23.212 Y91.334 E0.22541
G1 X26.571 Y94.895 E0.22541
G1 X30.273 Y98.098 E0.22541
G1 X34.28 Y100.91 E0.22541
G1 X38.551 Y103.302 E0.22541
G1 X43.041 Y105.25 E0.22541
G1 X47.706 Y106.733 E0.22541
G1 X52.497 Y107.737 E0.22541
G1 X57.365 Y108.252 E0.22541
G1 X62.26 Y108.27 E0.22541
G1 X67.132 Y107.794 E0.22541
G1 X71.931 Y106.827 E0.22541
G1 X76.607 Y105.38 E0.22541
G1 X81.113 Y103.467 E0.22541
G1 X85.402 Y101.108 E0.22541
G1 X89.431 Y98.327 E0.22541
G1 X93.157 Y95.153 E0.22541
G1 X96.543 Y91.618 E0.22541
G1 X99.555 Y87.759 E0.22541
G1 X102.16 Y83.615 E0.22541
G1 X104.333 Y79.229 E0.22541
G1 X106.051 Y74.645 E0.22541
G1 X107.296 Y69.911 E0.22541
G1 X108.094 Y64.702 E0.24264
G1 X108.323 Y59.813 E0.22541
G1 X108.056 Y54.925 E0.22541
G1 X107.296 Y50.089 E0.22541
G1 X106.051 Y45.355 E0.22541
G1 X104.333 Y40.771 E0.22541
G1 X102.342 Y36.713 E0.20817
G1 X99.769 Y32.548 E0.22541
G1 X96.788 Y28.666 E0.22541
G1 X93.429 Y25.105 E0.22541
G1 X89.727 Y21.902 E0.22541
G1 X85.72 Y19.09 E0.22541
G1 X81.449 Y16.698 E0.22541
G1 X76.959 Y14.75 E0.22541
G1 X72.294 Y13.267 E0.22541
G1 X67.503 Y12.263 E0.22541
G1 X62.635 Y11.748 E0.22541
G1 X57.74 Y11.73 E0.22541
G1 X52.868 Y12.206 E0.22541
G1 X48.069 Y13.173 E0.22541
G1 X43.393 Y14.62 E0.22541
G1 X38.887 Y16.533 E0.22541
G1 X34.598 Y18.892 E0.22541
G1 X30.569 Y21.673 E0.22541
G1 X26.843 Y24.847 E0.22541
G1 X26.451 Y25.256 E0.0261
G1 X26.786 Y25.577 F18000
G1 F1800
G1 X23.795 Y28.703 E0.19923
G1 X20.814 Y32.526 E0.22324
G1 X18.236 Y36.632 E0.22323
G1 X16.086 Y40.977 E0.22323
G1 X14.387 Y45.517 E0.22323
G1 X13.155 Y50.206 E0.22323
G1 X12.372 Y55.321 E0.2383
G1 X12.143 Y60.164 E0.22323
G1 X12.405 Y65.005 E0.22323
G1 X13.155 Y69.794 E0.22324
G1 X14.387 Y74.483 E0.22323
G1 X16.086 Y79.023 E0.22323
G1 X18.236 Y83.368 E0.22323
G1 X20.814 Y87.474 E0.22323
G1 X23.795 Y91.297 E0.22324
G1 X27.147 Y94.799 E0.22323
G1 X30.836 Y97.945 E0.22323
G1 X34.824 Y100.7 E0.22324
G1 X39.071 Y103.039 E0.22323
G1 X43.532 Y104.935 E0.22324
G1 X48.163 Y106.371 E0.22323
G1 X52.915 Y107.33 E0.22323
G1 X57.413 Y107.788 E0.20817
G1 X62.26 Y107.804 E0.22323
G1 X67.085 Y107.33 E0.22324
G1 X71.837 Y106.371 E0.22323
G1 X76.468 Y104.935 E0.22323
G1 X80.929 Y103.039 E0.22324
G1 X85.176 Y100.7 E0.22323
G1 X89.164 Y97.945 E0.22324
G1 X92.853 Y94.799 E0.22323
G1 X96.205 Y91.297 E0.22323
G1 X99.186 Y87.474 E0.22324
G1 X101.764 Y83.368 E0.22323
G1 X103.914 Y79.023 E0.22323
G1 X105.613 Y74.483 E0.22323
G1 X106.845 Y69.794 E0.22323
G1 X107.628 Y64.679 E0.2383
G1 X107.857 Y59.836 E0.22323
G1 X107.595 Y54.995 E0.22323
G1 X106.845 Y50.206 E0.22324
G1 X105.613 Y45.517 E0.22323
G1 X103.914 Y40.977 E0.22323
G1 X101.764 Y36.632 E0.22323
G1 X99.186 Y32.526 E0.22323
G1 X96.205 Y28.703 E0.22324
G1 X92.853 Y25.201 E0.22323
G1 X89.164 Y22.055 E0.22323
G1 X85.176 Y19.3 E0.22324
G1 X80.929 Y16.961 E0.22323
G1 X76.468 Y15.065 E0.22324
G1 X71.837 Y13.629 E0.22323
G1 X67.085 Y12.67 E0.22323
G1 X62.587 Y12.212 E0.20817
G1 X57.74 Y12.196 E0.22323
G1 X52.915 Y12.67 E0.22323
G1 X48.163 Y13.629 E0.22323
G1 X43.532 Y15.065 E0.22323
G1 X39.071 Y16.961 E0.22324
G1 X34.824 Y19.3 E0.22323
G1 X30.836 Y22.055 E0.22324
G1 X27.147 Y25.201 E0.22323
G1 X26.828 Y25.534 E0.02124
G1 E-2 F3000
M204 S1500
G1 Z0.65 F18000
M204 S1000
G1 X29.542 Y28.122
G1 Z0.25
G1 E2 F1800
;WIDTH:0.48
G1 X29.667 Y27.991 E0.0076
G1 X33.043 Y25.1 E0.18712
G1 X36.711 Y22.552 E0.18804
G1 X40.6 Y20.398 E0.18713
G1 X44.705 Y18.639 E0.18804
G1 X48.968 Y17.304 E0.18805
G1 X53.323 Y16.41 E0.18715
G1 X57.767 Y15.958 E0.18805
G1 X62.233 Y15.958 E0.18803
G1 X66.655 Y16.407 E0.18712
G1 X71.01 Y17.298 E0.18711
G1 X75.273 Y18.631 E0.18803
G1 X79.36 Y20.378 E0.18714
G1 X83.269 Y22.54 E0.18804
G1 X86.921 Y25.073 E0.18712
G1 X90.3 Y27.96 E0.18712
G1 X93.38 Y31.182 E0.18765
G1 X96.264 Y34.909 E0.19838
G1 X98.612 Y38.698 E0.18767
G1 X100.573 Y42.724 E0.1885
G1 X102.11 Y46.907 E0.18759
G1 X103.218 Y51.234 E0.18805
G1 X103.884 Y55.652 E0.18808
G1 X104.098 Y60.124 E0.1885
G1 X103.861 Y64.574 E0.18759
G1 X103.177 Y68.966 E0.18714
G1 X102.049 Y73.288 E0.18805
G1 X100.497 Y77.454 E0.18714
G1 X98.524 Y81.461 E0.18804
G1 X96.168 Y85.23 E0.18712
G1 X93.43 Y88.759 E0.18805
G1 X90.349 Y91.994 E0.18805
G1 X86.957 Y94.9 E0.18803
G1 X83.288 Y97.448 E0.18805
G1 X79.381 Y99.612 E0.18805
G1 X75.295 Y101.361 E0.18712
G1 X71.053 Y102.691 E0.18713
G1 X66.678 Y103.59 E0.18805
G1 X62.234 Y104.042 E0.18804
G1 X57.789 Y104.043 E0.18712
G1 X53.345 Y103.593 E0.18802
G1 X48.991 Y102.702 E0.18711
G1 X44.728 Y101.37 E0.18803
G1 X40.64 Y99.622 E0.18714
G1 X36.732 Y97.46 E0.18804
G1 X33.079 Y94.928 E0.18712
G1 X29.7 Y92.04 E0.18712
G1 X26.62 Y88.817 E0.18765
G1 X23.736 Y85.091 E0.19838
G1 X21.388 Y81.302 E0.18767
G1 X19.427 Y77.276 E0.1885
G1 X17.89 Y73.093 E0.18759
G1 X16.782 Y68.766 E0.18805
G1 X16.116 Y64.348 E0.18808
G1 X15.902 Y59.876 E0.1885
G1 X16.139 Y55.426 E0.18759
G1 X16.827 Y51.012 E0.18805
G1 X17.958 Y46.691 E0.18805
G1 X19.511 Y42.526 E0.18714
G1 X21.487 Y38.52 E0.18804
G1 X23.845 Y34.752 E0.18712
G1 X26.584 Y31.224 E0.18805
G1 X29.501 Y28.165 E0.17791
G1 X29.808 Y28.459 F18000
G1 F1800
G1 X29.952 Y28.308 E0.00877
G1 X33.295 Y25.444 E0.1853
G1 X36.928 Y22.92 E0.18623
G1 X40.778 Y20.786 E0.18532
G1 X44.843 Y19.042 E0.18622
G1 X49.064 Y17.719 E0.18623
G1 X53.398 Y16.83 E0.18624
G1 X57.799 Y16.383 E0.18623
G1 X62.201 Y16.383 E0.18531
G1 X66.601 Y16.83 E0.18621
G1 X70.913 Y17.713 E0.1853
G1 X75.135 Y19.034 E0.18622
G1 X79.182 Y20.766 E0.18532
G1 X83.053 Y22.908 E0.18622
G1 X86.669 Y25.417 E0.1853
G1 X90.015 Y28.277 E0.18531
G1 X93.064 Y31.469 E0.18582
G1 X95.908 Y35.143 E0.19559
G1 X98.234 Y38.895 E0.18584
G1 X100.177 Y42.881 E0.18668
G1 X101.7 Y47.023 E0.18577
G1 X102.798 Y51.308 E0.18624
G1 X103.458 Y55.683 E0.18626
G1 X103.672 Y60.112 E0.18669
G1 X103.438 Y64.519 E0.18577
G1 X102.762 Y68.869 E0.18533
G1 X101.645 Y73.15 E0.18623
G1 X100.11 Y77.275 E0.18532
G1 X98.157 Y81.244 E0.18622
G1 X95.824 Y84.977 E0.18531
G1 X93.114 Y88.473 E0.18623
G1 X90.064 Y91.677 E0.18623
G1 X86.705 Y94.556 E0.18621
G1 X83.072 Y97.08 E0.18623
G1 X79.203 Y99.224 E0.18623
G1 X75.157 Y100.958 E0.18531
G1 X70.957 Y102.275 E0.18531
G1 X66.624 Y103.167 E0.18623
G1 X62.223 Y103.616 E0.18623
G1 X57.821 Y103.618 E0.18531
G1 X53.42 Y103.174 E0.18621
G1 X49.108 Y102.292 E0.1853
G1 X44.885 Y100.973 E0.18622
G1 X40.837 Y99.243 E0.18533
G1 X36.966 Y97.104 E0.18623
G1 X33.348 Y94.596 E0.1853
G1 X29.985 Y91.723 E0.18621
G1 X26.936 Y88.531 E0.18582
G1 X24.092 Y84.857 E0.19559
G1 X21.766 Y81.105 E0.18584
G1 X19.823 Y77.119 E0.18668
G1 X18.3 Y72.977 E0.18577
G1 X17.202 Y68.692 E0.18624
G1 X16.542 Y64.317 E0.18626
G1 X16.328 Y59.888 E0.18669
G1 X16.562 Y55.481 E0.18577
G1 X17.242 Y51.11 E0.18624
G1 X18.361 Y46.83 E0.18623
G1 X19.898 Y42.705 E0.18532
G1 X21.854 Y38.737 E0.18622
G1 X24.188 Y35.005 E0.18531
G1 X26.9 Y31.51 E0.18623
G1 X29.767 Y28.502 E0.17493
G1 X30.075 Y28.796 F18000
G1 F1800
G1 X30.238 Y28.625 E0.00993
G1 X33.547 Y25.788 E0.18349
G1 X37.144 Y23.288 E0.18441
G1 X40.956 Y21.173 E0.18351
G1 X44.981 Y19.446 E0.18441
G1 X49.161 Y18.135 E0.18441
G1 X53.452 Y17.253 E0.18442
G1 X57.81 Y16.81 E0.18441
G1 X62.169 Y16.809 E0.18349
G1 X66.527 Y17.25 E0.1844
G1 X70.796 Y18.124 E0.18348
G1 X74.977 Y19.431 E0.1844
G1 X78.985 Y21.144 E0.18351
G1 X82.819 Y23.264 E0.18441
G1 X86.4 Y25.748 E0.18349
G1 X89.73 Y28.594 E0.1844
G1 X92.748 Y31.755 E0.184
G1 X95.551 Y35.377 E0.19281
G1 X97.855 Y39.092 E0.18401
G1 X99.78 Y43.038 E0.18487
G1 X101.289 Y47.139 E0.18396
G1 X102.379 Y51.382 E0.18442
G1 X103.033 Y55.714 E0.18444
G1 X103.245 Y60.101 E0.18487
G1 X103.015 Y64.464 E0.18396
G1 X102.342 Y68.793 E0.18442
G1 X101.236 Y73.032 E0.18442
G1 X99.714 Y77.116 E0.18351
G1 X97.779 Y81.046 E0.18441
G1 X95.469 Y84.742 E0.18349
G1 X92.784 Y88.203 E0.18441
G1 X89.762 Y91.375 E0.18441
G1 X86.453 Y94.212 E0.18349
G1 X82.856 Y96.712 E0.18441
G1 X79.025 Y98.836 E0.18442
G1 X74.999 Y100.562 E0.1844
G1 X70.839 Y101.865 E0.1835
G1 X66.548 Y102.747 E0.18442
G1 X62.19 Y103.19 E0.18441
G1 X57.832 Y103.191 E0.1835
G1 X53.474 Y102.751 E0.1844
G1 X49.204 Y101.876 E0.18348
G1 X45.023 Y100.57 E0.1844
G1 X41.015 Y98.856 E0.18351
G1 X37.181 Y96.736 E0.18441
G1 X33.6 Y94.252 E0.18349
G1 X30.27 Y91.406 E0.1844
G1 X27.252 Y88.245 E0.184
G1 X24.449 Y84.623 E0.19281
G1 X22.145 Y80.908 E0.18401
G1 X20.22 Y76.962 E0.18487
G1 X18.711 Y72.861 E0.18396
G1 X17.621 Y68.618 E0.18442
G1 X16.967 Y64.286 E0.18444
G1 X16.755 Y59.899 E0.18487
G1 X16.985 Y55.536 E0.18396
G1 X17.658 Y51.207 E0.18442
G1 X18.764 Y46.968 E0.18442
G1 X20.286 Y42.884 E0.18351
G1 X22.221 Y38.954 E0.18441
G1 X24.531 Y35.258 E0.18349
G1 X27.216 Y31.797 E0.18441
G1 X30.034 Y28.839 E0.17195
G1 X30.342 Y29.132 F18000
G1 F1800
G1 X30.523 Y28.941 E0.0111
G1 X33.799 Y26.132 E0.18168
G1 X37.36 Y23.655 E0.1826
G1 X41.153 Y21.551 E0.1826
G1 X45.139 Y19.842 E0.18259
G1 X49.278 Y18.545 E0.18259
G1 X53.527 Y17.673 E0.1826
G1 X57.842 Y17.235 E0.1826
G1 X62.158 Y17.235 E0.18168
G1 X66.473 Y17.673 E0.18258
G1 X70.7 Y18.539 E0.18167
G1 X74.84 Y19.834 E0.18259
G1 X78.808 Y21.532 E0.18169
G1 X82.603 Y23.632 E0.1826
G1 X86.149 Y26.092 E0.18168
G1 X89.445 Y28.911 E0.18259
G1 X92.432 Y32.042 E0.18217
G1 X95.195 Y35.611 E0.19003
G1 X97.477 Y39.288 E0.18218
G1 X99.384 Y43.196 E0.18305
G1 X100.879 Y47.256 E0.18214
G1 X101.959 Y51.457 E0.1826
G1 X102.608 Y55.746 E0.18262
G1 X102.819 Y60.089 E0.18305
G1 X102.592 Y64.41 E0.18214
G1 X101.927 Y68.696 E0.1826
G1 X100.832 Y72.893 E0.1826
G1 X99.327 Y76.938 E0.18169
G1 X97.412 Y80.829 E0.18259
G1 X95.125 Y84.489 E0.18168
G1 X92.467 Y87.917 E0.1826
G1 X89.477 Y91.059 E0.1826
G1 X86.201 Y93.868 E0.18168
G1 X82.64 Y96.345 E0.1826
G1 X78.847 Y98.449 E0.1826
G1 X74.861 Y100.158 E0.18259
G1 X70.743 Y101.45 E0.18169
G1 X66.494 Y102.324 E0.1826
G1 X62.179 Y102.764 E0.1826
G1 X57.864 Y102.766 E0.18168
G1 X53.549 Y102.331 E0.18258
G1 X49.321 Y101.466 E0.18167
G1 X45.181 Y100.173 E0.18259
G1 X41.192 Y98.468 E0.1826
G1 X37.397 Y96.368 E0.1826
G1 X33.851 Y93.908 E0.18168
G1 X30.555 Y91.089 E0.18259
G1 X27.568 Y87.958 E0.18217
G1 X24.805 Y84.389 E0.19003
G1 X22.523 Y80.712 E0.18218
G1 X20.616 Y76.804 E0.18305
G1 X19.121 Y72.744 E0.18214
G1 X18.041 Y68.543 E0.1826
G1 X17.392 Y64.254 E0.18262
G1 X17.181 Y59.911 E0.18305
G1 X17.408 Y55.59 E0.18214
G1 X18.073 Y51.304 E0.1826
G1 X19.168 Y47.107 E0.1826
G1 X20.673 Y43.062 E0.18169
G1 X22.588 Y39.171 E0.18259
G1 X24.875 Y35.511 E0.18168
G1 X27.533 Y32.083 E0.1826
G1 X30.3 Y29.176 E0.16897
G1 X30.609 Y29.47 F18000
G1 F1800
G1 X30.825 Y29.243 E0.01317
G1 X34.069 Y26.463 E0.17986
G1 X37.595 Y24.011 E0.18078
G1 X41.35 Y21.929 E0.18078
G1 X45.297 Y20.238 E0.18077
G1 X49.374 Y18.96 E0.17987
G1 X53.581 Y18.096 E0.18078
G1 X57.853 Y17.661 E0.18078
G1 X62.126 Y17.66 E0.17987
G1 X66.398 Y18.092 E0.18077
G1 X70.583 Y18.949 E0.17986
G1 X74.682 Y20.23 E0.18077
G1 X78.63 Y21.92 E0.18079
G1 X82.387 Y24 E0.18078
G1 X85.897 Y26.436 E0.17986
G1 X89.159 Y29.228 E0.18077
G1 X92.116 Y32.328 E0.18035
G1 X94.838 Y35.846 E0.18726
G1 X97.099 Y39.485 E0.18036
G1 X98.988 Y43.353 E0.18123
G1 X100.469 Y47.373 E0.18032
G1 X101.539 Y51.531 E0.18078
G1 X102.182 Y55.778 E0.1808
G1 X102.393 Y60.078 E0.18123
G1 X102.169 Y64.355 E0.18032
G1 X101.512 Y68.599 E0.18078
G1 X100.429 Y72.754 E0.18078
G1 X98.931 Y76.779 E0.18078
G1 X97.034 Y80.631 E0.18078
G1 X94.769 Y84.254 E0.17987
G1 X92.137 Y87.647 E0.18078
G1 X89.175 Y90.757 E0.18078
G1 X85.931 Y93.537 E0.17986
G1 X82.405 Y95.989 E0.18078
G1 X78.65 Y98.071 E0.18078
G1 X74.703 Y99.762 E0.18077
G1 X70.626 Y101.04 E0.17987
G1 X66.419 Y101.904 E0.18078
G1 X62.147 Y102.339 E0.18078
G1 X57.874 Y102.34 E0.17987
G1 X53.602 Y101.908 E0.18077
G1 X49.417 Y101.051 E0.17986
G1 X45.318 Y99.77 E0.18077
G1 X41.37 Y98.08 E0.18079
G1 X37.613 Y96 E0.18078
G1 X34.103 Y93.564 E0.17986
G1 X30.841 Y90.772 E0.18077
G1 X27.884 Y87.672 E0.18035
G1 X25.162 Y84.154 E0.18726
G1 X22.901 Y80.515 E0.18036
G1 X21.012 Y76.647 E0.18123
G1 X19.531 Y72.627 E0.18032
G1 X18.461 Y68.469 E0.18078
G1 X17.818 Y64.222 E0.1808
G1 X17.607 Y59.922 E0.18123
G1 X17.831 Y55.645 E0.18032
G1 X18.488 Y51.401 E0.18078
G1 X19.571 Y47.246 E0.18078
G1 X21.069 Y43.221 E0.18078
G1 X22.966 Y39.369 E0.18078
G1 X25.231 Y35.746 E0.17987
G1 X27.863 Y32.353 E0.18078
G1 X30.568 Y29.513 E0.16508
G1 X30.876 Y29.807 F18000
G1 F1800
G1 X31.11 Y29.56 E0.01434
G1 X34.321 Y26.807 E0.17805
G1 X37.811 Y24.379 E0.17897
G1 X41.528 Y22.317 E0.17896
G1 X45.435 Y20.642 E0.17895
G1 X49.492 Y19.37 E0.17896
G1 X53.656 Y18.516 E0.17897
G1 X57.885 Y18.087 E0.17897
G1 X62.115 Y18.087 E0.17805
G1 X66.344 Y18.516 E0.17896
G1 X70.487 Y19.365 E0.17804
G1 X74.544 Y20.634 E0.17896
G1 X78.452 Y22.307 E0.17897
G1 X82.171 Y24.368 E0.17896
G1 X85.645 Y26.78 E0.17805
G1 X88.874 Y29.545 E0.17896
G1 X91.8 Y32.614 E0.17852
G1 X94.482 Y36.08 E0.18449
G1 X96.72 Y39.682 E0.17853
G1 X98.591 Y43.511 E0.17942
G1 X100.059 Y47.489 E0.17851
G1 X101.119 Y51.606 E0.17896
G1 X101.757 Y55.809 E0.17898
G1 X101.966 Y60.066 E0.17942
G1 X101.746 Y64.301 E0.17851
G1 X101.097 Y68.502 E0.17897
G1 X100.026 Y72.616 E0.17897
G1 X98.544 Y76.601 E0.17897
G1 X96.667 Y80.415 E0.17896
G1 X94.426 Y84.002 E0.17805
G1 X91.821 Y87.361 E0.17897
G1 X88.89 Y90.44 E0.17897
G1 X85.679 Y93.193 E0.17805
G1 X82.189 Y95.621 E0.17897
G1 X78.472 Y97.683 E0.17896
G1 X74.565 Y99.358 E0.17895
G1 X70.508 Y100.63 E0.17896
G1 X66.344 Y101.484 E0.17897
G1 X62.115 Y101.913 E0.17896
G1 X57.885 Y101.913 E0.17805
G1 X53.656 Y101.484 E0.17896
G1 X49.513 Y100.635 E0.17804
G1 X45.456 Y99.366 E0.17896
G1 X41.548 Y97.693 E0.17897
G1 X37.829 Y95.632 E0.17896
G1 X34.355 Y93.22 E0.17805
G1 X31.126 Y90.455 E0.17896
G1 X28.2 Y87.386 E0.17852
G1 X25.518 Y83.92 E0.18449
G1 X23.28 Y80.318 E0.17853
G1 X21.409 Y76.489 E0.17942
G1 X19.941 Y72.511 E0.17851
G1 X18.881 Y68.394 E0.17896
G1 X18.243 Y64.191 E0.17898
G1 X18.034 Y59.934 E0.17942
G1 X18.254 Y55.699 E0.17851
G1 X18.903 Y51.498 E0.17897
G1 X19.974 Y47.384 E0.17897
G1 X21.456 Y43.399 E0.17897
G1 X23.333 Y39.585 E0.17896
G1 X25.574 Y35.998 E0.17805
G1 X28.179 Y32.639 E0.17897
G1 X30.834 Y29.85 E0.1621
G1 X31.142 Y30.143 F18000
G1 F1800
G1 X31.396 Y29.876 E0.0155
G1 X34.59 Y27.137 E0.17714
