; generated by SuperSlicer 2.4 on 2024-06-18 at 17:18:34 UTC


;
;

;
;
; TODO: check the size of the extruder and the y-bar clearance. Optimize & test supports.

; external perimeters extrusion width = 0.40mm
; perimeters extrusion width = 0.40mm
; infill extrusion width = 0.40mm
; solid infill extrusion width = 0.40mm
; top infill extrusion width = 0.40mm
; first layer extrusion width = 0.48mm

; external perimeters extrusion width = 0.40mm
; perimeters extrusion width = 0.40mm
; infill extrusion width = 0.40mm
; solid infill extrusion width = 0.40mm
; top infill extrusion width = 0.40mm
; first layer extrusion width = 0.48mm

; object:{"name":"cycloid_shaft","id":"cycloid_shaft.STL id:0 copy 0","object_center":[63.601053,21.131221,0.000000],"boundingbox_center":[63.601053,21.131221,4.000000],"boundingbox_size":[38.995331,13.981325,8.000000]}
; object:{"name":"cycloidal_disk","id":"cycloidal_disk.STL id:1 copy 0","object_center":[60.001057,69.274250,0.000000],"boundingbox_center":[60.001057,69.274250,2.000000],"boundingbox_size":[72.349564,73.165771,4.000000]}
; plater:{"center":[60.001057,59.998847,0.000000],"boundingbox_center":[60.001057,59.998847,4.000000],"boundingbox_size":[72.349564,91.716577,8.000000]}

;TYPE:Custom
; M190 S0
;M109 S0 ; uncomment to remove set&wait temp gcode added automatically after this start gcode
print_start EXTRUDER=240 BED=90 CHAMBER=50

;G92 E0
;G1 E10 F1500 ; prime the nozzle
M107
G21 ; set units to millimeters
G90 ; use absolute coordinates
M83 ; use relative distances for extrusion
SET_PRESSURE_ADVANCE ADVANCE=0.04
;_TOOLCHANGE 0
M104 S240 ; set temperature
M109 S240 ; set temperature and wait for it to be reached
M190 S90 ; set bed temperature and wait for it to be reached
M107
;LAYER_CHANGE
;Z:0.25
;HEIGHT:0.25
;BEFORE_LAYER_CHANGE
;0.25


G1 Z0.25 F18000
;AFTER_LAYER_CHANGE
;0.25
TIMELAPSE_TAKE_FRAME
G92 E0
G1 E-2 F3000
G1 Z0.65 F18000
M204 S1000
G1 X36.246 Y16.88
G1 Z0.25
G1 E2 F1800
;TYPE:Skirt
;WIDTH:0.52
G1 X23.001 Y45.32 E1.44463
G1 X16.038 Y64.677 E0.9473
G1 X15.597 Y67.014 E0.10951
G1 X15.471 Y69.977 E0.13653
G1 X15.941 Y73.483 E0.16289
G1 X16.691 Y75.946 E0.11856
G1 X22.725 Y92.517 E0.81209
G1 X23.722 Y94.872 E0.11775
G1 X25.269 Y97.406 E0.13672
G1 X27.614 Y100.06 E0.16306
G1 X29.366 Y101.498 E0.10439
G1 X30.961 Y102.541 E0.08771
G1 X46.207 Y111.329 E0.81034
G1 X48.372 Y112.509 E0.11355
G1 X51.69 Y113.675 E0.16193
G1 X54.398 Y114.136 E0.12651
G1 X56.738 Y114.211 E0.10779
G1 X59.848 Y113.853 E0.14415
G1 X77.38 Y110.76 E0.8198
G1 X80.258 Y110.022 E0.13681
G1 X82.976 Y108.833 E0.13658
G1 X85.464 Y107.23 E0.1363
G1 X87.645 Y105.273 E0.13491
G1 X100.455 Y90.066 E0.91562
G1 X102.313 Y87.254 E0.1552
G1 X103.304 Y85.099 E0.10924
G1 X104.109 Y82.381 E0.13052
G1 X104.427 Y80.405 E0.09218
G1 X104.537 Y77.98 E0.11176
G1 X104.536 Y59.568 E0.84784
G1 X104.122 Y56.205 E0.15603
G1 X103.421 Y53.749 E0.11758
G1 X90.997 Y16.945 E1.78872
G1 X90.226 Y14.809 E0.10458
G1 X89.153 Y12.807 E0.10458
G1 X87.799 Y10.983 E0.10458
G1 X86.195 Y9.376 E0.10458
G1 X84.374 Y8.019 E0.10458
G1 X82.374 Y6.942 E0.10458
G1 X80.239 Y6.168 E0.10458
G1 X78.014 Y5.713 E0.10458
G1 X75.746 Y5.586 E0.10458
G1 X47.165 Y7.721 E1.31976
G1 X44.866 Y8.279 E0.10895
G1 X44.26 Y8.5 E0.0297
G1 X42.14 Y9.55 E0.10895
G1 X40.235 Y10.953 E0.10895
G1 X38.602 Y12.665 E0.10895
G1 X37.291 Y14.635 E0.10895
G1 X36.271 Y16.826 E0.11128
G1 X36.694 Y17.023 F18000
G1 F1800
G1 X23.425 Y45.514 E1.44726
G1 X16.497 Y64.764 E0.9421
G1 X16.055 Y67.101 E0.10951
G1 X15.937 Y69.989 E0.13309
G1 X16.388 Y73.348 E0.15605
G1 X17.129 Y75.786 E0.11736
G1 X23.163 Y92.358 E0.81209
G1 X24.152 Y94.689 E0.1166
G1 X25.663 Y97.157 E0.13327
G1 X27.91 Y99.699 E0.15624
G1 X29.662 Y101.138 E0.10439
G1 X31.21 Y102.147 E0.08507
G1 X46.44 Y110.925 E0.80945
G1 X48.595 Y112.099 E0.11302
G1 X51.775 Y113.217 E0.15521
G1 X54.413 Y113.67 E0.12326
G1 X56.753 Y113.744 E0.10779
G1 X59.767 Y113.394 E0.13974
G1 X77.272 Y110.307 E0.8185
G1 X80.078 Y109.591 E0.13336
G1 X82.729 Y108.437 E0.13315
G1 X85.158 Y106.878 E0.13288
G1 X87.288 Y104.973 E0.1316
G1 X100.098 Y89.765 E0.91562
G1 X101.889 Y87.059 E0.14943
G1 X102.88 Y84.904 E0.10924
G1 X103.659 Y82.256 E0.1271
G1 X103.961 Y80.382 E0.08738
G1 X104.071 Y77.98 E0.11074
G1 X104.07 Y59.568 E0.84784
G1 X103.774 Y56.84 E0.12635
G1 X102.98 Y53.898 E0.14031
G1 X89.996 Y15.456 E1.86842
G1 X89.019 Y13.481 E0.10145
G1 X87.766 Y11.67 E0.10145
G1 X86.261 Y10.06 E0.10145
G1 X84.145 Y8.426 E0.12311
G1 X82.635 Y7.578 E0.07976
G1 X80.59 Y6.759 E0.10145
G1 X77.98 Y6.178 E0.12311
G1 X75.78 Y6.051 E0.10145
G1 X47.206 Y8.186 E1.31946
G1 X44.457 Y8.922 E0.13104
G1 X42.408 Y9.932 E0.10521
G1 X40.565 Y11.283 E0.10521
G1 X38.984 Y12.933 E0.10521
G1 X37.714 Y14.832 E0.10521
G1 X36.719 Y16.968 E0.10851
G1 E-2 F3000
M204 S1500
G1 Z0.65 F18000
M204 S1000
G1 X40.357 Y18.142
G1 Z0.25
G1 E2 F1800
;WIDTH:0.48
G1 X41.005 Y16.665 E0.06789
G1 X41.925 Y15.286 E0.06977
G1 X43.101 Y14.068 E0.07128
G1 X44.583 Y13.022 E0.07637
G1 X46.092 Y12.333 E0.06984
G1 X47.632 Y11.932 E0.06698
G1 X49.115 Y11.799 E0.06268
G1 X69.633 Y11.799 E0.86378
G1 X69.883 Y11.617 E0.01299
G1 X71.109 Y10.932 E0.05912
G1 X72.646 Y10.326 E0.06957
G1 X74.419 Y9.926 E0.0765
G1 X76.205 Y9.814 E0.07537
G1 X77.83 Y9.959 E0.06867
G1 X79.281 Y10.293 E0.0627
G1 X80.678 Y10.816 E0.06277
G1 X82.197 Y11.647 E0.0729
G1 X83.601 Y12.727 E0.07458
G1 X84.786 Y13.97 E0.07228
G1 X85.776 Y15.389 E0.07285
G1 X86.446 Y16.722 E0.0628
G1 X86.938 Y18.132 E0.06285
G1 X87.263 Y19.783 E0.07088
G1 X87.335 Y21.592 E0.07618
G1 X87.126 Y23.354 E0.07472
G1 X86.738 Y24.797 E0.06289
G1 X86.165 Y26.172 E0.06271
G1 X85.303 Y27.628 E0.07124
G1 X84.251 Y28.92 E0.07015
G1 X83.007 Y30.054 E0.07086
G1 X81.57 Y31.013 E0.07274
G1 X79.965 Y31.758 E0.0745
G1 X78.455 Y32.202 E0.06626
G1 X77.958 Y32.277 E0.02116
G1 X79.699 Y32.845 E0.07709
G1 X81.704 Y33.87 E0.0948
G1 X83.504 Y35.18 E0.0937
G1 X85.057 Y36.731 E0.09244
G1 X86.366 Y38.526 E0.0935
G1 X87.381 Y40.507 E0.09371
G1 X88.057 Y42.417 E0.0853
G1 X88.574 Y44.097 E0.07402
G1 X88.888 Y44.816 E0.03301
G1 X89.161 Y45.249 E0.02155
G1 X89.536 Y45.668 E0.02367
G1 X89.968 Y46.015 E0.02335
G1 X90.959 Y46.593 E0.04826
G1 X92.159 Y47.192 E0.0565
G1 X93.847 Y48.161 E0.0819
G1 X95.711 Y49.61 E0.09939
G1 X97.177 Y51.178 E0.09037
G1 X98.399 Y52.967 E0.09121
G1 X99.45 Y55.225 E0.10486
G1 X100.028 Y57.291 E0.0903
G1 X100.292 Y59.441 E0.09121
G1 X100.203 Y61.789 E0.09891
G1 X99.72 Y64.118 E0.10013
G1 X99.068 Y65.935 E0.08128
G1 X98.369 Y67.56 E0.07446
G1 X98.073 Y68.456 E0.03971
G1 X97.967 Y69.073 E0.02635
G1 X97.962 Y69.197 E0.00524
G1 X98.013 Y69.811 E0.02593
G1 X98.157 Y70.405 E0.02575
G1 X98.683 Y71.737 E0.06029
G1 X99.421 Y73.522 E0.08128
G1 X100.019 Y75.641 E0.09269
G1 X100.303 Y78.143 E0.10601
G1 X100.196 Y80.237 E0.08826
G1 X99.997 Y81.403 E0.04982
G1 X99.461 Y83.3 E0.08296
G1 X98.575 Y85.275 E0.09113
G1 X97.297 Y87.227 E0.09825
G1 X95.765 Y88.898 E0.09544
G1 X93.985 Y90.303 E0.09547
G1 X92.167 Y91.362 E0.08854
G1 X90.483 Y92.219 E0.07956
G1 X89.81 Y92.657 E0.03381
G1 X89.42 Y93.004 E0.02196
G1 X89.065 Y93.446 E0.02389
G1 X88.797 Y93.922 E0.02297
G1 X88.403 Y94.968 E0.04705
G1 X87.806 Y96.925 E0.08615
G1 X87.019 Y98.85 E0.08753
G1 X85.904 Y100.736 E0.09222
G1 X84.419 Y102.522 E0.09781
G1 X82.656 Y104.049 E0.09819
G1 X80.786 Y105.206 E0.09256
G1 X78.71 Y106.079 E0.0948
G1 X76.315 Y106.648 E0.10363
G1 X74.052 Y106.795 E0.09547
G1 X71.851 Y106.597 E0.09306
G1 X68.469 Y105.877 E0.14555
G1 X67.789 Y105.828 E0.02871
G1 X67.303 Y105.869 E0.02055
G1 X66.768 Y106.004 E0.02324
G1 X66.218 Y106.24 E0.02519
G1 X65.038 Y106.956 E0.05809
G1 X63.352 Y108.033 E0.0842
G1 X61.427 Y108.971 E0.09018
G1 X59.13 Y109.674 E0.10109
G1 X56.652 Y109.982 E0.10514
G1 X54.608 Y109.907 E0.08611
G1 X52.604 Y109.545 E0.08573
G1 X50.226 Y108.706 E0.10617
G1 X48.319 Y107.652 E0.09171
G1 X46.613 Y106.333 E0.09078
G1 X45.043 Y104.684 E0.09586
G1 X43.645 Y102.836 E0.09757
G1 X43.003 Y102.08 E0.04174
G1 X42.545 Y101.673 E0.02582
G1 X42.141 Y101.415 E0.02018
G1 X41.633 Y101.195 E0.02331
G1 X40.988 Y101.027 E0.02802
G1 X39.294 Y100.804 E0.07195
G1 X37.392 Y100.514 E0.081
G1 X35.178 Y99.875 E0.097
G1 X33.096 Y98.892 E0.09695
G1 X31.894 Y98.111 E0.06032
G1 X30.234 Y96.713 E0.09137
G1 X28.806 Y95.078 E0.09139
G1 X27.664 Y93.285 E0.0895
G1 X26.671 Y90.957 E0.10653
G1 X26.188 Y89.006 E0.08462
G1 X25.982 Y86.973 E0.08602
G1 X26.097 Y83.246 E0.15697
G1 X26.01 Y82.432 E0.03448
G1 X25.885 Y81.987 E0.01944
G1 X25.652 Y81.487 E0.0232
G1 X25.313 Y80.984 E0.02553
G1 X22.986 Y78.398 E0.14647
G1 X21.629 Y76.456 E0.09974
G1 X20.59 Y74.273 E0.10175
G1 X19.975 Y72.134 E0.09371
G1 X19.701 Y69.904 E0.09459
G1 X19.765 Y67.79 E0.08903
G1 X20.142 Y65.703 E0.0893
G1 X21.024 Y63.251 E0.10971
G1 X22.146 Y61.283 E0.09536
G1 X23.417 Y59.654 E0.08699
G1 X25.094 Y57.847 E0.10376
G1 X25.581 Y57.19 E0.03443
G1 X25.817 Y56.74 E0.02143
G1 X25.991 Y56.213 E0.02334
G1 X26.081 Y55.616 E0.02539
G1 X26.08 Y54.425 E0.05016
G1 X25.975 Y52.34 E0.08788
G1 X26.065 Y50.418 E0.08099
G1 X26.414 Y48.499 E0.08215
G1 X26.909 Y46.931 E0.06922
G1 X27.688 Y45.227 E0.07885
G1 X29.176 Y43.006 E0.11253
G1 X30.755 Y41.358 E0.09612
G1 X32.467 Y40.052 E0.09064
G1 X34.338 Y39.03 E0.08976
G1 X36.566 Y38.238 E0.09951
G1 X38.364 Y37.873 E0.07724
G1 X40.518 Y37.611 E0.09137
G1 X41.45 Y37.42 E0.04004
G1 X41.976 Y37.226 E0.0236
G1 X42.394 Y36.992 E0.02018
G1 X42.835 Y36.642 E0.02369
G1 X43.338 Y36.105 E0.03098
G1 X44.57 Y34.472 E0.08611
G1 X45.968 Y32.845 E0.0903
G1 X47.624 Y31.394 E0.09268
G1 X49.072 Y30.479 E0.0721
G1 X47.653 Y30.353 E0.05994
G1 X45.818 Y29.847 E0.08016
G1 X44.44 Y29.176 E0.06449
G1 X43.194 Y28.292 E0.06433
G1 X42.111 Y27.22 E0.06417
G1 X41.215 Y25.983 E0.06429
G1 X40.415 Y24.302 E0.07837
G1 X39.977 Y22.598 E0.07407
G1 X39.863 Y21.173 E0.06019
G1 X39.977 Y19.687 E0.06272
G1 X40.343 Y18.2 E0.06448
G1 X40.757 Y18.302 F18000
G1 F1800
G1 X40.767 Y18.261 E0.00174
G1 X41.387 Y16.854 E0.06477
G1 X42.268 Y15.539 E0.06662
G1 X43.393 Y14.379 E0.06803
G1 X44.779 Y13.401 E0.07139
G1 X46.218 Y12.741 E0.06668
G1 X47.688 Y12.355 E0.06397
G1 X49.124 Y12.225 E0.06072
G1 X69.773 Y12.225 E0.86926
G1 X70.102 Y11.983 E0.01721
G1 X71.304 Y11.311 E0.05797
G1 X72.756 Y10.738 E0.06571
G1 X74.463 Y10.351 E0.07368
G1 X76.184 Y10.24 E0.07261
G1 X77.749 Y10.378 E0.06612
G1 X79.172 Y10.706 E0.06148
G1 X80.514 Y11.21 E0.06034
G1 X81.951 Y11.996 E0.06894
G1 X83.304 Y13.033 E0.07181
G1 X84.446 Y14.228 E0.06955
G1 X85.402 Y15.595 E0.07024
G1 X86.048 Y16.875 E0.06038
G1 X86.53 Y18.258 E0.06163
G1 X86.838 Y19.818 E0.06693
G1 X86.91 Y21.559 E0.07336
G1 X86.71 Y23.259 E0.07207
G1 X86.339 Y24.646 E0.06045
G1 X85.778 Y25.994 E0.06148
G1 X84.962 Y27.371 E0.06736
G1 X83.93 Y28.638 E0.06881
G1 X82.732 Y29.727 E0.06817
G1 X81.347 Y30.649 E0.07003
G1 X79.829 Y31.354 E0.07045
G1 X78.349 Y31.789 E0.06496
G1 X76.84 Y32.01 E0.06419
G1 X75.237 Y32.014 E0.06749
G1 X73.683 Y31.789 E0.0661
G1 X72.209 Y31.355 E0.06468
G1 X70.822 Y30.725 E0.06411
G1 X69.787 Y30.056 E0.05191
G1 X61.34 Y30.056 E0.3556
G1 X62.187 Y30.391 E0.03837
G1 X63.938 Y31.384 E0.08473
G1 X65.434 Y32.365 E0.07531
G1 X66.304 Y32.831 E0.04155
G1 X66.889 Y33.038 E0.0261
G1 X67.427 Y33.137 E0.02304
G1 X68.057 Y33.152 E0.02654
G1 X68.853 Y33.053 E0.03378
G1 X70.913 Y32.577 E0.089
G1 X72.958 Y32.25 E0.08717
G1 X75.219 Y32.221 E0.09518
G1 X77.472 Y32.568 E0.09598
G1 X79.52 Y33.233 E0.09065
G1 X81.466 Y34.225 E0.09198
G1 X83.239 Y35.515 E0.09229
G1 X84.744 Y37.021 E0.08963
G1 X86.012 Y38.763 E0.0907
G1 X86.995 Y40.688 E0.091
G1 X87.653 Y42.555 E0.08333
G1 X88.174 Y44.246 E0.07449
G1 X88.51 Y45.017 E0.0354
G1 X88.82 Y45.507 E0.02441
G1 X89.242 Y45.978 E0.02663
G1 X89.726 Y46.368 E0.02616
G1 X90.756 Y46.968 E0.05019
G1 X91.953 Y47.565 E0.05629
G1 X93.621 Y48.524 E0.08102
G1 X95.411 Y49.914 E0.09539
G1 X96.854 Y51.457 E0.08897
G1 X98.037 Y53.193 E0.08841
G1 X99.044 Y55.357 E0.10049
G1 X99.613 Y57.39 E0.08889
G1 X99.867 Y59.476 E0.08845
G1 X99.777 Y61.755 E0.09601
G1 X99.314 Y63.988 E0.09602
G1 X98.669 Y65.785 E0.08037
G1 X97.97 Y67.409 E0.07441
G1 X97.658 Y68.352 E0.04184
G1 X97.543 Y69.027 E0.02882
G1 X97.535 Y69.205 E0.00751
G1 X97.59 Y69.879 E0.02849
G1 X97.75 Y70.535 E0.02839
G1 X98.288 Y71.897 E0.06167
G1 X99.022 Y73.673 E0.0809
G1 X99.597 Y75.707 E0.08896
G1 X99.876 Y78.139 E0.10307
G1 X99.771 Y80.203 E0.08699
G1 X99.584 Y81.299 E0.04681
G1 X99.066 Y83.14 E0.08051
G1 X98.193 Y85.085 E0.08976
G1 X96.971 Y86.952 E0.09394
G1 X95.462 Y88.597 E0.09399
G1 X93.733 Y89.959 E0.09267
G1 X91.958 Y90.99 E0.0864
G1 X90.27 Y91.85 E0.07976
G1 X89.55 Y92.317 E0.03612
G1 X89.11 Y92.709 E0.02481
G1 X88.71 Y93.207 E0.02686
G1 X88.41 Y93.741 E0.02582
G1 X87.999 Y94.83 E0.04899
G1 X87.408 Y96.773 E0.08548
G1 X86.63 Y98.674 E0.08647
G1 X85.565 Y100.476 E0.08813
G1 X84.127 Y102.211 E0.09488
G1 X82.39 Y103.715 E0.09673
G1 X80.576 Y104.834 E0.0897
G1 X78.595 Y105.669 E0.0905
G1 X76.234 Y106.229 E0.10212
G1 X74.041 Y106.369 E0.09251
G1 X71.927 Y106.178 E0.08938
G1 X68.529 Y105.454 E0.14625
G1 X67.786 Y105.4 E0.03136
G1 X67.232 Y105.447 E0.02342
G1 X66.63 Y105.599 E0.02613
G1 X66.022 Y105.86 E0.02787
G1 X64.813 Y106.594 E0.05955
G1 X63.133 Y107.667 E0.08389
G1 X61.255 Y108.58 E0.08793
G1 X59.024 Y109.26 E0.09821
G1 X56.65 Y109.556 E0.10068
G1 X54.669 Y109.485 E0.08346
G1 X52.697 Y109.128 E0.08436
G1 X50.416 Y108.324 E0.1018
G1 X48.567 Y107.305 E0.0889
G1 X46.887 Y106.006 E0.0894
G1 X45.376 Y104.417 E0.0923
G1 X43.977 Y102.569 E0.09756
G1 X43.309 Y101.781 E0.04351
G1 X42.803 Y101.331 E0.02851
G1 X42.341 Y101.037 E0.02304
G1 X41.772 Y100.791 E0.02613
G1 X41.07 Y100.608 E0.03051
G1 X39.356 Y100.382 E0.07281
G1 X37.497 Y100.101 E0.07915
G1 X35.313 Y99.471 E0.09569
G1 X33.291 Y98.513 E0.09418
G1 X32.159 Y97.776 E0.05686
G1 X30.521 Y96.397 E0.09013
G1 X29.157 Y94.835 E0.08732
G1 X28.049 Y93.101 E0.08661
G1 X27.07 Y90.806 E0.10506
G1 X26.606 Y88.919 E0.08181
G1 X26.409 Y86.972 E0.08237
G1 X26.524 Y83.23 E0.15761
G1 X26.43 Y82.351 E0.03722
G1 X26.286 Y81.838 E0.0224
G1 X26.024 Y81.277 E0.02607
G1 X25.65 Y80.721 E0.0282
G1 X23.311 Y78.123 E0.14718
G1 X21.989 Y76.226 E0.09734
G1 X20.995 Y74.139 E0.09733
G1 X20.39 Y72.033 E0.09226
G1 X20.126 Y69.869 E0.09177
G1 X20.19 Y67.819 E0.08631
G1 X20.558 Y65.797 E0.08655
G1 X21.419 Y63.413 E0.10669
G1 X22.508 Y61.508 E0.09239
G1 X23.736 Y59.937 E0.08391
G1 X25.422 Y58.12 E0.10437
G1 X25.943 Y57.418 E0.03681
G1 X26.211 Y56.906 E0.0243
G1 X26.407 Y56.312 E0.02633
G1 X26.507 Y55.648 E0.02826
G1 X26.506 Y54.414 E0.05196
G1 X26.401 Y52.329 E0.08788
G1 X26.49 Y50.453 E0.07908
G1 X26.831 Y48.588 E0.07979
G1 X27.302 Y47.096 E0.06588
G1 X28.069 Y45.42 E0.07758
G1 X29.497 Y43.288 E0.10805
G1 X31.027 Y41.686 E0.09326
G1 X32.686 Y40.418 E0.08789
G1 X34.528 Y39.412 E0.08836
G1 X36.665 Y38.653 E0.09548
G1 X38.44 Y38.293 E0.07625
G1 X40.587 Y38.032 E0.09104
G1 X41.567 Y37.831 E0.04212
G1 X42.155 Y37.614 E0.02637
G1 X42.632 Y37.347 E0.02303
G1 X43.125 Y36.957 E0.02646
G1 X43.665 Y36.38 E0.03327
G1 X44.898 Y34.744 E0.08622
G1 X46.26 Y33.156 E0.0881
G1 X47.892 Y31.726 E0.09133
G1 X49.725 Y30.571 E0.0912
G1 X50.924 Y30.056 E0.05491
G1 X49.127 Y30.056 E0.07564
G1 X47.748 Y29.936 E0.05827
G1 X45.95 Y29.441 E0.0785
G1 X44.644 Y28.801 E0.06125
G1 X43.456 Y27.955 E0.0614
G1 X42.424 Y26.929 E0.06123
G1 X41.572 Y25.749 E0.06127
G1 X40.809 Y24.138 E0.07505
G1 X40.395 Y22.511 E0.0707
G1 X40.289 Y21.156 E0.05721
G1 X40.395 Y19.772 E0.05843
G1 X40.742 Y18.36 E0.06121
G1 X41.154 Y18.46 F18000
G1 F1800
G1 X41.164 Y18.416 E0.00193
G1 X41.752 Y17.075 E0.06161
G1 X42.612 Y15.793 E0.065
G1 X43.685 Y14.691 E0.06476
G1 X44.974 Y13.78 E0.06644
G1 X46.379 Y13.136 E0.06507
G1 X47.744 Y12.778 E0.05941
G1 X49.134 Y12.651 E0.05875
G1 X69.914 Y12.651 E0.87478
G1 X70.322 Y12.348 E0.02142
G1 X71.5 Y11.69 E0.05679
G1 X72.867 Y11.15 E0.06187
G1 X74.508 Y10.775 E0.07086
G1 X76.163 Y10.666 E0.06983
G1 X77.697 Y10.801 E0.06481
G1 X79.036 Y11.11 E0.05785
G1 X80.322 Y11.591 E0.05784
G1 X81.732 Y12.362 E0.06761
G1 X83.008 Y13.34 E0.06769
G1 X84.106 Y14.486 E0.06682
G1 X85.029 Y15.801 E0.06762
