; generated by SuperSlicer 2.5.59.12 on 2024-06-20 at 14:32:38 UTC


;
;

;
;
; TODO: check the size of the extruder and the y-bar clearance. Optimize & test supports.

; external perimeters extrusion width = 0.48mm
; perimeters extrusion width = 0.48mm
; infill extrusion width = 0.48mm
; solid infill extrusion width = 0.48mm
; top infill extrusion width = 0.48mm
; first layer extrusion width = 0.48mm

; object:{"name":"cycloid_rotor_2","id":"cycloid_rotor_2.STL id:0 copy 0","object_center":[60.000000,60.000000,0.000000],"boundingbox_center":[60.000000,60.000000,2.500000],"boundingbox_size":[58.238060,59.979164,5.000000]}
EXCLUDE_OBJECT_DEFINE NAME=cycloid_rotor_2_STL_id_0_copy_0 CENTER=60.000000,60.000000 POLYGON=[[30.88,65.15],[30.90,53.98],[31.06,52.46],[31.37,51.05],[31.90,49.62],[32.60,48.28],[33.48,46.96],[39.85,38.22],[40.86,37.05],[41.93,36.07],[43.19,35.19],[44.53,34.50],[46.00,33.93],[56.60,30.50],[58.10,30.16],[59.54,30.01],[61.05,30.05],[62.54,30.29],[64.06,30.70],[73.33,33.72],[75.01,34.30],[76.38,34.94],[77.59,35.70],[78.76,36.67],[79.79,37.77],[80.98,39.35],[86.61,47.09],[87.49,48.43],[88.16,49.74],[88.68,51.23],[88.98,52.71],[89.11,54.24],[89.12,65.25],[89.04,66.84],[88.80,68.30],[88.34,69.80],[87.71,71.17],[86.91,72.49],[80.14,81.80],[79.13,82.97],[78.06,83.95],[76.80,84.82],[75.45,85.51],[73.98,86.08],[63.44,89.49],[61.93,89.83],[60.49,89.99],[58.99,89.95],[57.50,89.72],[55.98,89.31],[45.45,85.87],[44.03,85.27],[42.77,84.55],[41.55,83.62],[40.49,82.55],[39.50,81.32],[32.99,72.34],[32.20,71.01],[31.61,69.69],[31.18,68.22],[30.95,66.73],[30.88,65.15]]
; plater:{"center":[60.000000,60.000000,0.000000],"boundingbox_center":[60.000000,60.000000,2.500000],"boundingbox_size":[58.238060,59.979164,5.000000]}

M107
;TYPE:Custom
; M190 S0
;M109 S0 ; uncomment to remove set&wait temp gcode added automatically after this start gcode
print_start EXTRUDER=260 BED=50 CHAMBER=50

;G92 E0
;G1 E10 F1500 ; prime the nozzle
M107
G21 ; set units to millimeters
G90 ; use absolute coordinates
M83 ; use relative distances for extrusion
SET_PRESSURE_ADVANCE ADVANCE=0.04
M104 S260 ; set temperature
M109 S260 ; set temperature and wait for it to be reached
M190 S50 ; set bed temperature and wait for it to be reached
;LAYER_CHANGE
;Z:0.25
;HEIGHT:0.25
;BEFORE_LAYER_CHANGE
;0.25


G1 Z0.25 F18000
;AFTER_LAYER_CHANGE
;0.25
TIMELAPSE_TAKE_FRAME
G92 E0
G1 E-2.000000 F3000
G1 Z0.65 F18000
M204 S1000
G1 X39.023 Y35.401
G1 Z0.25
G1 E2.000000 F1800
;TYPE:Skirt
;WIDTH:0.48
M107
G1 X40.362 Y34.165 E0.08883
G1 X41.945 Y33.062 E0.09404
G1 X43.612 Y32.207 E0.09134
G1 X45.227 Y31.589 E0.0843
G1 X47.794 Y30.817 E0.13064
G1 X51.059 Y29.809 E0.1666
G1 X53.677 Y28.867 E0.13559
G1 X55.842 Y28.155 E0.11112
G1 X57.599 Y27.749 E0.08789
G1 X59.333 Y27.555 E0.08503
G1 X61.179 Y27.59 E0.09004
G1 X63.006 Y27.867 E0.09004
G1 X64.774 Y28.339 E0.08924
G1 X70.097 Y30.19 E0.27468
G1 X74.024 Y31.346 E0.19954
G1 X75.973 Y32.032 E0.10072
G1 X77.587 Y32.794 E0.08702
G1 X79.108 Y33.758 E0.08775
G1 X80.503 Y34.926 E0.08873
G1 X81.744 Y36.262 E0.08884
G1 X83.022 Y37.956 E0.10343
G1 X85.238 Y41.194 E0.19126
G1 X88.64 Y45.681 E0.27453
G1 X89.582 Y47.126 E0.08404
G1 X90.374 Y48.664 E0.08433
G1 X91.026 Y50.471 E0.09363
G1 X91.416 Y52.325 E0.09237
G1 X91.576 Y54.218 E0.09263
G1 X91.559 Y56.556 E0.11393
G1 X91.471 Y60.005 E0.16818
G1 X91.588 Y65.204 E0.25352
G1 X91.489 Y67.084 E0.09173
G1 X91.181 Y68.931 E0.0913
G1 X90.621 Y70.743 E0.09243
G1 X89.832 Y72.434 E0.09098
G1 X88.898 Y73.95 E0.08681
G1 X87.507 Y75.827 E0.11385
G1 X85.49 Y78.459 E0.16165
G1 X83.388 Y81.512 E0.18068
G1 X82.131 Y83.259 E0.1049
G1 X80.962 Y84.617 E0.08738
G1 X79.68 Y85.803 E0.08512
G1 X77.964 Y86.994 E0.10181
G1 X76.411 Y87.785 E0.08497
G1 X74.791 Y88.407 E0.08456
G1 X72.162 Y89.197 E0.13383
G1 X68.923 Y90.199 E0.16529
G1 X66.372 Y91.117 E0.13212
G1 X64.189 Y91.838 E0.11207
G1 X62.362 Y92.259 E0.09141
G1 X60.498 Y92.454 E0.09136
G1 X58.656 Y92.396 E0.0898
G1 X56.94 Y92.123 E0.0847
G1 X55.273 Y91.677 E0.08413
G1 X52.681 Y90.771 E0.13384
G1 X49.474 Y89.678 E0.16517
G1 X46.861 Y88.918 E0.13261
G1 X44.556 Y88.175 E0.11807
G1 X42.9 Y87.461 E0.08789
G1 X41.336 Y86.554 E0.08817
G1 X39.873 Y85.421 E0.09016
G1 X38.578 Y84.115 E0.08969
G1 X37.468 Y82.729 E0.08656
G1 X34.38 Y78.279 E0.26401
G1 X32.241 Y75.502 E0.17089
G1 X30.981 Y73.771 E0.10433
G1 X30.023 Y72.162 E0.09127
G1 X29.273 Y70.459 E0.09072
G1 X28.764 Y68.685 E0.08999
G1 X28.491 Y66.867 E0.08957
G1 X28.412 Y65.096 E0.08645
G1 X28.481 Y62.371 E0.13286
G1 X28.52 Y58.972 E0.16569
G1 X28.436 Y56.38 E0.12643
G1 X28.435 Y53.96 E0.11794
G1 X28.621 Y52.083 E0.09194
G1 X29.033 Y50.27 E0.09066
G1 X29.677 Y48.551 E0.08945
G1 X30.53 Y46.939 E0.0889
G1 X31.523 Y45.454 E0.0871
G1 X33.254 Y43.204 E0.13837
G1 X35.099 Y40.718 E0.15093
G1 X36.578 Y38.539 E0.12835
G1 X37.853 Y36.764 E0.1065
G1 X38.984 Y35.447 E0.08466
M107
G1 X39.338 Y35.688 F18000
M107
G1 F1800
G1 X40.64 Y34.489 E0.0863
G1 X42.177 Y33.42 E0.09121
G1 X43.776 Y32.601 E0.08758
G1 X45.358 Y31.995 E0.08259
G1 X47.918 Y31.225 E0.13033
G1 X51.195 Y30.213 E0.16716
G1 X53.818 Y29.269 E0.13592
G1 X55.966 Y28.563 E0.11021
G1 X57.683 Y28.168 E0.08587
G1 X59.366 Y27.98 E0.08255
G1 X61.157 Y28.016 E0.08732
G1 X62.93 Y28.287 E0.08742
G1 X64.657 Y28.749 E0.08715
G1 X69.967 Y30.596 E0.27403
G1 X73.898 Y31.754 E0.19978
G1 X75.801 Y32.423 E0.09833
G1 X77.371 Y33.162 E0.08456
G1 X78.845 Y34.094 E0.08503
G1 X80.219 Y35.245 E0.08738
G1 X81.41 Y36.527 E0.08531
G1 X82.672 Y38.201 E0.10217
G1 X84.892 Y41.443 E0.19153
G1 X88.287 Y45.921 E0.27394
G1 X89.208 Y47.331 E0.08207
G1 X89.989 Y48.846 E0.08312
G1 X90.619 Y50.601 E0.09088
G1 X90.996 Y52.4 E0.08957
G1 X91.15 Y54.244 E0.09024
G1 X91.133 Y56.547 E0.11223
G1 X91.044 Y60.004 E0.16859
G1 X91.162 Y65.206 E0.25363
G1 X91.066 Y67.026 E0.08883
G1 X90.769 Y68.819 E0.08862
G1 X90.229 Y70.576 E0.0896
G1 X89.463 Y72.221 E0.08845
G1 X88.55 Y73.704 E0.08487
G1 X87.168 Y75.569 E0.11316
G1 X85.145 Y78.208 E0.16209
G1 X83.039 Y81.268 E0.1811
G1 X81.791 Y83.002 E0.10412
G1 X80.647 Y84.33 E0.08543
G1 X79.401 Y85.479 E0.08262
G1 X77.758 Y86.621 E0.09755
G1 X76.247 Y87.391 E0.08263
G1 X74.646 Y88.006 E0.08363
G1 X72.038 Y88.789 E0.13275
G1 X68.787 Y89.795 E0.16584
G1 X66.231 Y90.715 E0.13246
G1 X64.065 Y91.43 E0.11117
G1 X62.279 Y91.84 E0.08932
G1 X60.496 Y92.027 E0.08738
G1 X58.71 Y91.973 E0.08712
G1 X57.04 Y91.708 E0.08241
G1 X55.391 Y91.267 E0.08321
G1 X52.82 Y90.368 E0.13275
G1 X49.602 Y89.271 E0.16573
G1 X46.983 Y88.51 E0.13294
G1 X44.715 Y87.779 E0.11614
G1 X43.103 Y87.086 E0.08556
G1 X41.585 Y86.208 E0.08547
G1 X40.166 Y85.111 E0.08743
G1 X38.904 Y83.839 E0.08735
G1 X37.814 Y82.479 E0.08494
G1 X34.724 Y78.027 E0.26417
G1 X32.58 Y75.244 E0.17126
G1 X31.332 Y73.528 E0.10343
G1 X30.408 Y71.978 E0.08795
G1 X29.679 Y70.327 E0.08798
G1 X29.184 Y68.607 E0.08725
G1 X28.916 Y66.837 E0.08726
G1 X28.838 Y65.099 E0.08481
G1 X28.907 Y62.379 E0.13264
G1 X28.946 Y58.968 E0.16629
G1 X28.862 Y56.369 E0.12672
G1 X28.861 Y53.971 E0.11692
G1 X29.04 Y52.164 E0.08848
G1 X29.437 Y50.405 E0.08791
G1 X30.06 Y48.738 E0.08674
G1 X30.89 Y47.167 E0.08663
G1 X31.865 Y45.708 E0.08552
G1 X33.594 Y43.461 E0.13821
G1 X35.447 Y40.965 E0.15155
G1 X36.929 Y38.781 E0.12865
G1 X38.193 Y37.021 E0.10564
G1 X39.299 Y35.734 E0.08269
M107
G1 X39.653 Y35.976 F18000
M107
G1 F1800
G1 X40.918 Y34.813 E0.08377
G1 X42.408 Y33.779 E0.08839
G1 X43.939 Y32.995 E0.08384
G1 X45.488 Y32.401 E0.08087
G1 X48.042 Y31.633 E0.13002
G1 X51.33 Y30.618 E0.16771
G1 X53.96 Y29.671 E0.13626
G1 X56.09 Y28.971 E0.1093
G1 X57.766 Y28.586 E0.08384
G1 X59.399 Y28.405 E0.08006
G1 X61.134 Y28.442 E0.0846
G1 X62.853 Y28.707 E0.0848
G1 X64.539 Y29.159 E0.08506
G1 X69.836 Y31.002 E0.27341
G1 X73.772 Y32.161 E0.20001
G1 X75.63 Y32.813 E0.09595
G1 X77.154 Y33.529 E0.08212
G1 X78.583 Y34.43 E0.0823
G1 X79.916 Y35.545 E0.08473
G1 X81.076 Y36.793 E0.08306
G1 X82.323 Y38.445 E0.10092
G1 X84.546 Y41.692 E0.19179
G1 X87.934 Y46.16 E0.27336
G1 X88.845 Y47.554 E0.08116
G1 X89.603 Y49.029 E0.08082
G1 X90.213 Y50.731 E0.08812
G1 X90.576 Y52.474 E0.08678
G1 X90.724 Y54.251 E0.08693
G1 X90.706 Y56.538 E0.11148
G1 X90.618 Y60.003 E0.16899
G1 X90.735 Y65.208 E0.25374
G1 X90.644 Y66.968 E0.08594
G1 X90.357 Y68.708 E0.08595
G1 X89.836 Y70.41 E0.08676
G1 X89.093 Y72.009 E0.08593
G1 X88.202 Y73.457 E0.08291
G1 X86.828 Y75.311 E0.11246
G1 X84.8 Y77.957 E0.16254
G1 X82.689 Y81.025 E0.18153
G1 X81.45 Y82.745 E0.10333
G1 X80.332 Y84.042 E0.08346
G1 X79.123 Y85.156 E0.08013
G1 X77.551 Y86.248 E0.09329
G1 X76.064 Y87.006 E0.08138
G1 X74.501 Y87.605 E0.0816
G1 X71.913 Y88.382 E0.13167
G1 X68.652 Y89.39 E0.16641
G1 X66.089 Y90.313 E0.13279
G1 X63.941 Y91.022 E0.11028
G1 X62.221 Y91.418 E0.086
G1 X60.494 Y91.6 E0.08465
G1 X58.763 Y91.55 E0.08442
G1 X57.118 Y91.289 E0.08121
G1 X55.509 Y90.857 E0.08118
G1 X52.959 Y89.965 E0.13168
G1 X49.73 Y88.864 E0.16629
G1 X47.105 Y88.101 E0.13326
G1 X44.874 Y87.384 E0.11424
G1 X43.305 Y86.71 E0.08323
G1 X41.834 Y85.862 E0.08278
G1 X40.458 Y84.801 E0.08469
G1 X39.229 Y83.564 E0.085
G1 X38.16 Y82.23 E0.08331
G1 X35.068 Y77.776 E0.26432
G1 X32.92 Y74.986 E0.17164
G1 X31.682 Y73.285 E0.10253
G1 X30.781 Y71.771 E0.08588
G1 X30.085 Y70.195 E0.084
G1 X29.603 Y68.529 E0.08452
G1 X29.342 Y66.807 E0.08494
G1 X29.265 Y65.102 E0.08316
G1 X29.334 Y62.387 E0.13241
G1 X29.373 Y58.963 E0.1669
G1 X29.288 Y56.359 E0.127
G1 X29.288 Y53.981 E0.11592
G1 X29.459 Y52.245 E0.08502
G1 X29.842 Y50.541 E0.08517
G1 X30.444 Y48.925 E0.08403
G1 X31.251 Y47.395 E0.08434
G1 X32.208 Y45.963 E0.08395
G1 X33.934 Y43.718 E0.13804
G1 X35.795 Y41.212 E0.15216
G1 X37.281 Y39.023 E0.12895
G1 X38.534 Y37.277 E0.10478
G1 X39.614 Y36.021 E0.08072
M107
G1 X39.968 Y36.264 F18000
M107
G1 F1800
G1 X41.196 Y35.137 E0.08123
G1 X42.639 Y34.138 E0.08556
G1 X44.102 Y33.389 E0.08012
G1 X45.618 Y32.807 E0.07916
G1 X48.166 Y32.041 E0.12971
G1 X51.465 Y31.022 E0.16826
G1 X54.101 Y30.074 E0.13659
G1 X56.214 Y29.379 E0.1084
G1 X57.85 Y29.004 E0.08179
G1 X59.431 Y28.831 E0.07757
G1 X61.11 Y28.868 E0.08187
G1 X62.777 Y29.126 E0.08219
G1 X64.42 Y29.569 E0.08298
G1 X69.706 Y31.408 E0.27279
G1 X73.647 Y32.569 E0.20026
G1 X75.459 Y33.204 E0.09358
G1 X76.939 Y33.897 E0.07967
G1 X78.321 Y34.766 E0.07958
G1 X79.613 Y35.845 E0.08207
G1 X80.743 Y37.058 E0.0808
G1 X81.974 Y38.69 E0.09967
G1 X84.2 Y41.942 E0.19205
G1 X87.582 Y46.4 E0.27277
G1 X88.482 Y47.778 E0.08026
G1 X89.218 Y49.211 E0.07851
G1 X89.807 Y50.86 E0.08536
G1 X90.152 Y52.522 E0.08274
G1 X90.298 Y54.257 E0.08487
G1 X90.28 Y56.529 E0.11073
G1 X90.191 Y60.003 E0.1694
G1 X90.309 Y65.209 E0.25385
G1 X90.219 Y66.934 E0.08419
G1 X89.945 Y68.597 E0.08216
G1 X89.443 Y70.244 E0.08392
G1 X88.723 Y71.796 E0.08339
G1 X87.854 Y73.211 E0.08096
G1 X86.489 Y75.053 E0.11175
G1 X84.455 Y77.707 E0.16299
G1 X82.339 Y80.781 E0.18195
G1 X81.11 Y82.489 E0.10254
G1 X80.017 Y83.754 E0.08149
G1 X78.845 Y84.832 E0.07763
G1 X77.345 Y85.874 E0.08904
G1 X75.88 Y86.621 E0.08014
G1 X74.356 Y87.204 E0.07956
G1 X71.789 Y87.974 E0.13061
G1 X68.517 Y88.986 E0.16696
G1 X65.947 Y89.911 E0.13313
G1 X63.816 Y90.614 E0.10938
G1 X62.163 Y90.995 E0.0827
G1 X60.492 Y91.174 E0.08193
G1 X58.816 Y91.127 E0.0817
G1 X57.196 Y90.869 E0.07999
G1 X55.628 Y90.447 E0.07916
G1 X53.099 Y89.562 E0.13061
G1 X49.859 Y88.458 E0.16685
G1 X47.227 Y87.693 E0.13359
G1 X45.033 Y86.988 E0.11235
G1 X43.507 Y86.335 E0.0809
G1 X42.083 Y85.515 E0.08008
G1 X40.73 Y84.472 E0.0833
G1 X39.555 Y83.288 E0.0813
G1 X38.506 Y81.981 E0.08168
G1 X35.413 Y77.524 E0.26447
G1 X33.259 Y74.728 E0.17202
G1 X32.033 Y73.042 E0.10163
G1 X31.166 Y71.587 E0.08258
G1 X30.49 Y70.063 E0.08126
G1 X30.016 Y68.424 E0.08314
G1 X29.767 Y66.776 E0.08125
G1 X29.691 Y65.106 E0.08151
G1 X29.76 Y62.395 E0.1322
G1 X29.799 Y58.959 E0.16749
G1 X29.715 Y56.349 E0.12729
G1 X29.714 Y53.992 E0.11491
G1 X29.882 Y52.3 E0.08284
G1 X30.247 Y50.676 E0.08116
G1 X30.838 Y49.087 E0.08265
G1 X31.612 Y47.622 E0.08073
G1 X32.55 Y46.217 E0.08237
G1 X34.275 Y43.975 E0.13787
G1 X36.143 Y41.459 E0.15278
G1 X37.632 Y39.265 E0.12925
G1 X38.875 Y37.533 E0.1039
G1 X39.929 Y36.309 E0.07874
M107
G1 X40.283 Y36.551 F18000
M107
G1 F1800
G1 X41.473 Y35.461 E0.07869
G1 X42.846 Y34.511 E0.08138
G1 X44.266 Y33.783 E0.07778
G1 X45.764 Y33.208 E0.07821
G1 X48.291 Y32.449 E0.12862
G1 X51.6 Y31.427 E0.16882
G1 X54.243 Y30.476 E0.13693
G1 X56.338 Y29.788 E0.10747
G1 X57.933 Y29.423 E0.07975
G1 X59.463 Y29.256 E0.07507
G1 X61.086 Y29.294 E0.07913
G1 X62.699 Y29.546 E0.07958
G1 X64.302 Y29.978 E0.08092
G1 X69.576 Y31.814 E0.27218
G1 X73.521 Y32.976 E0.2005
G1 X75.288 Y33.595 E0.09124
G1 X76.723 Y34.265 E0.07723
G1 X78.059 Y35.103 E0.07685
G1 X79.31 Y36.146 E0.07941
G1 X80.409 Y37.324 E0.07853
G1 X81.625 Y38.935 E0.0984
G1 X83.854 Y42.191 E0.19233
G1 X87.229 Y46.639 E0.27217
G1 X88.119 Y48.002 E0.07935
G1 X88.832 Y49.393 E0.07619
G1 X89.4 Y50.989 E0.08259
G1 X89.732 Y52.596 E0.07997
G1 X89.871 Y54.264 E0.08157
G1 X89.854 Y56.52 E0.10998
G1 X89.765 Y60.002 E0.16981
G1 X89.883 Y65.211 E0.25396
G1 X89.796 Y66.877 E0.08133
G1 X89.533 Y68.487 E0.0795
G1 X89.05 Y70.078 E0.08108
G1 X88.354 Y71.584 E0.08085
G1 X87.506 Y72.965 E0.07898
G1 X86.149 Y74.795 E0.11105
G1 X84.11 Y77.456 E0.16344
G1 X81.989 Y80.538 E0.18237
G1 X80.769 Y82.232 E0.10175
G1 X79.703 Y83.466 E0.07951
G1 X78.568 Y84.509 E0.07513
G1 X77.138 Y85.501 E0.08482
G1 X75.717 Y86.227 E0.07778
G1 X74.211 Y86.803 E0.07862
G1 X71.665 Y87.566 E0.12954
G1 X68.382 Y88.581 E0.16753
G1 X65.805 Y89.508 E0.13346
G1 X63.692 Y90.206 E0.10849
G1 X62.105 Y90.573 E0.0794
G1 X60.489 Y90.747 E0.07923
G1 X58.869 Y90.703 E0.07898
G1 X57.296 Y90.455 E0.07766
G1 X55.746 Y90.038 E0.07822
G1 X53.238 Y89.159 E0.12954
G1 X49.987 Y88.051 E0.16742
G1 X47.349 Y87.284 E0.13392
G1 X45.191 Y86.592 E0.11046
G1 X43.708 Y85.959 E0.0786
G1 X42.332 Y85.169 E0.07736
G1 X41.022 Y84.161 E0.08054
G1 X39.88 Y83.013 E0.07896
G1 X38.852 Y81.732 E0.08004
G1 X35.757 Y77.272 E0.26463
G1 X33.599 Y74.47 E0.17239
G1 X32.383 Y72.799 E0.10072
G1 X31.55 Y71.402 E0.07931
G1 X30.896 Y69.93 E0.07853
G1 X30.436 Y68.346 E0.08037
G1 X30.192 Y66.745 E0.07893
G1 X30.117 Y65.109 E0.07986
G1 X30.186 Y62.402 E0.13198
G1 X30.225 Y58.954 E0.16808
G1 X30.141 Y56.338 E0.12759
G1 X30.14 Y54.002 E0.11388
G1 X30.301 Y52.381 E0.07943
G1 X30.651 Y50.811 E0.07841
G1 X31.222 Y49.273 E0.07993
G1 X31.972 Y47.85 E0.07844
G1 X32.892 Y46.471 E0.08078
G1 X34.615 Y44.232 E0.13771
G1 X36.49 Y41.705 E0.15339
G1 X37.983 Y39.506 E0.12955
G1 X39.216 Y37.79 E0.10303
G1 X40.244 Y36.597 E0.07676
M107
G1 X40.598 Y36.839 F18000
M107
G1 F1800
G1 X41.728 Y35.803 E0.07475
G1 X43.053 Y34.883 E0.07862
G1 X44.429 Y34.177 E0.07542
G1 X45.909 Y33.608 E0.07726
G1 X48.415 Y32.856 E0.12753
G1 X51.735 Y31.831 E0.16938
G1 X54.385 Y30.878 E0.13725
G1 X56.461 Y30.196 E0.10656
G1 X58.015 Y29.841 E0.07769
G1 X59.495 Y29.682 E0.07256
G1 X61.062 Y29.72 E0.0764
G1 X62.622 Y29.965 E0.07696
G1 X64.183 Y30.388 E0.07886
G1 X69.445 Y32.22 E0.2716
G1 X73.396 Y33.384 E0.20074
G1 X75.117 Y33.985 E0.0889
G1 X76.508 Y34.634 E0.07481
G1 X77.797 Y35.44 E0.07411
G1 X79.008 Y36.446 E0.07675
G1 X80.075 Y37.59 E0.07625
G1 X81.276 Y39.18 E0.09713
G1 X83.508 Y42.441 E0.19259
G1 X86.876 Y46.879 E0.27159
G1 X87.756 Y48.226 E0.07843
G1 X88.446 Y49.575 E0.07385
G1 X88.993 Y51.118 E0.07982
G1 X89.312 Y52.669 E0.07719
G1 X89.445 Y54.27 E0.0783
G1 X89.428 Y56.511 E0.10923
G1 X89.339 Y60.002 E0.17022
G1 X89.456 Y65.213 E0.25407
G1 X89.371 Y66.843 E0.07959
G1 X89.121 Y68.376 E0.07573
G1 X88.646 Y69.94 E0.07967
G1 X87.984 Y71.371 E0.07688
G1 X87.158 Y72.718 E0.077
G1 X85.81 Y74.537 E0.11034
G1 X83.765 Y77.205 E0.16389
G1 X81.639 Y80.294 E0.18279
G1 X80.429 Y81.975 E0.10095
G1 X79.388 Y83.178 E0.07753
G1 X78.29 Y84.185 E0.07262
G1 X76.931 Y85.128 E0.08063
G1 X75.554 Y85.832 E0.07541
G1 X74.066 Y86.402 E0.07769
G1 X71.541 Y87.158 E0.12846
G1 X68.246 Y88.177 E0.1681
G1 X65.664 Y89.106 E0.13379
G1 X63.568 Y89.798 E0.1076
G1 X62.021 Y90.154 E0.07735
G1 X60.486 Y90.321 E0.07529
G1 X58.922 Y90.28 E0.07626
G1 X57.395 Y90.04 E0.07532
G1 X55.864 Y89.628 E0.07728
