; generated by SuperSlicer 2.5.59.12 on 2024-06-20 at 21:52:25 UTC


;
;

;
;
; TODO: check the size of the extruder and the y-bar clearance. Optimize & test supports.

; external perimeters extrusion width = 0.48mm
; perimeters extrusion width = 0.48mm
; infill extrusion width = 0.48mm
; solid infill extrusion width = 0.48mm
; top infill extrusion width = 0.48mm
; first layer extrusion width = 0.48mm

; object:{"name":"planet_gear_bearing","id":"planet_gear_bearing.STL id:0 copy 0","object_center":[44.078081,75.921919,0.000000],"boundingbox_center":[44.078081,75.921919,3.000000],"boundingbox_size":[25.843838,25.843838,6.000000]}
EXCLUDE_OBJECT_DEFINE NAME=planet_gear_bearing_STL_id_0_copy_0 CENTER=44.078081,75.921919 POLYGON=[[31.16,74.50],[31.23,73.95],[31.96,71.20],[32.18,70.69],[33.60,68.23],[33.93,67.79],[35.95,65.78],[36.39,65.44],[38.85,64.02],[39.36,63.81],[42.11,63.07],[42.66,63.00],[45.50,63.00],[46.05,63.07],[48.80,63.81],[49.31,64.02],[51.77,65.44],[52.21,65.78],[54.22,67.79],[54.56,68.23],[55.98,70.69],[56.19,71.20],[56.93,73.95],[57.00,74.50],[57.00,77.34],[56.93,77.89],[56.19,80.64],[55.98,81.15],[54.56,83.61],[54.22,84.05],[52.21,86.07],[51.77,86.40],[49.31,87.82],[48.80,88.04],[46.05,88.77],[45.50,88.84],[42.66,88.84],[42.11,88.77],[39.36,88.04],[38.85,87.82],[36.39,86.40],[35.95,86.07],[33.93,84.05],[33.60,83.61],[32.18,81.15],[31.96,80.64],[31.23,77.89],[31.16,77.34],[31.16,74.50]]
; plater:{"center":[44.078081,75.921919,0.000000],"boundingbox_center":[44.078081,75.921919,3.000000],"boundingbox_size":[25.843838,25.843838,6.000000]}

M107
;TYPE:Custom
; M190 S0
;M109 S0 ; uncomment to remove set&wait temp gcode added automatically after this start gcode
print_start EXTRUDER=260 BED=50 CHAMBER=50

;G92 E0
;G1 E10 F1500 ; prime the nozzle
M107
G21 ; set units to millimeters
G90 ; use absolute coordinates
M83 ; use relative distances for extrusion
SET_PRESSURE_ADVANCE ADVANCE=0.04
M104 S260 ; set temperature
M109 S260 ; set temperature and wait for it to be reached
M190 S50 ; set bed temperature and wait for it to be reached
;LAYER_CHANGE
;Z:0.25
;HEIGHT:0.25
;BEFORE_LAYER_CHANGE
;0.25


G1 Z0.25 F18000
;AFTER_LAYER_CHANGE
;0.25
TIMELAPSE_TAKE_FRAME
G92 E0
G1 E-4.000000 F3000
G1 Z0.65 F18000
M204 S1000
G1 X34.133 Y61.622
G1 Z0.25
G1 E4.000000 F1800
;TYPE:Skirt
;WIDTH:0.52
M107
G1 X33.295 Y62.215 E0.05477
G1 X30.371 Y65.138 E0.22043
G1 X29.778 Y65.977 E0.05477
G1 X28.315 Y68.51 E0.15596
G1 X27.691 Y70.017 E0.08697
G1 X26.934 Y72.842 E0.15595
G1 X26.761 Y73.855 E0.05477
G1 X26.761 Y77.989 E0.22043
G1 X26.934 Y79.002 E0.05478
G1 X27.691 Y81.827 E0.15595
G1 X28.315 Y83.334 E0.08697
G1 X29.778 Y85.867 E0.15596
G1 X30.371 Y86.705 E0.05477
G1 X33.295 Y89.629 E0.22043
G1 X34.133 Y90.222 E0.05477
G1 X36.666 Y91.685 E0.15596
G1 X38.173 Y92.309 E0.08696
G1 X40.998 Y93.066 E0.15596
G1 X42.011 Y93.239 E0.05477
G1 X46.145 Y93.239 E0.22043
G1 X47.158 Y93.066 E0.05477
G1 X49.983 Y92.309 E0.15596
G1 X51.49 Y91.685 E0.08697
G1 X54.023 Y90.222 E0.15595
G1 X54.862 Y89.629 E0.05477
G1 X57.785 Y86.705 E0.22043
G1 X58.378 Y85.867 E0.05477
G1 X59.841 Y83.334 E0.15596
G1 X60.465 Y81.827 E0.08697
G1 X61.222 Y79.002 E0.15595
G1 X61.395 Y77.989 E0.05478
G1 X61.395 Y73.855 E0.22043
G1 X61.222 Y72.842 E0.05477
G1 X60.465 Y70.017 E0.15595
G1 X59.841 Y68.51 E0.08697
G1 X58.378 Y65.977 E0.15596
G1 X57.785 Y65.138 E0.05477
G1 X54.862 Y62.215 E0.22043
G1 X54.023 Y61.622 E0.05477
G1 X51.49 Y60.159 E0.15596
G1 X49.983 Y59.535 E0.08696
G1 X47.158 Y58.778 E0.15596
G1 X46.145 Y58.605 E0.05477
G1 X42.011 Y58.605 E0.22043
G1 X40.998 Y58.778 E0.05477
G1 X38.173 Y59.535 E0.15596
G1 X36.666 Y60.159 E0.08697
G1 X34.185 Y61.592 E0.15275
M107
G1 X34.366 Y62.026 F18000
M107
G1 F1800
G1 X33.578 Y62.585 E0.05152
G1 X30.741 Y65.422 E0.21394
G1 X30.182 Y66.21 E0.05152
G1 X28.719 Y68.743 E0.15596
G1 X28.142 Y70.138 E0.08048
G1 X27.385 Y72.963 E0.15595
G1 X27.223 Y73.916 E0.05152
G1 X27.223 Y77.928 E0.21394
G1 X27.385 Y78.881 E0.05152
G1 X28.142 Y81.706 E0.15596
G1 X28.719 Y83.101 E0.08047
G1 X30.182 Y85.634 E0.15596
G1 X30.741 Y86.422 E0.05152
G1 X33.578 Y89.259 E0.21394
G1 X34.366 Y89.818 E0.05152
G1 X36.899 Y91.281 E0.15596
G1 X38.294 Y91.858 E0.08047
G1 X41.119 Y92.615 E0.15596
G1 X42.072 Y92.777 E0.05152
G1 X46.084 Y92.777 E0.21394
G1 X47.037 Y92.615 E0.05152
G1 X49.862 Y91.858 E0.15595
G1 X51.257 Y91.281 E0.08048
G1 X53.79 Y89.818 E0.15596
G1 X54.578 Y89.259 E0.05152
G1 X57.415 Y86.422 E0.21394
G1 X57.974 Y85.634 E0.05152
G1 X59.437 Y83.101 E0.15595
G1 X60.015 Y81.706 E0.08048
G1 X60.772 Y78.881 E0.15596
G1 X60.933 Y77.928 E0.05152
G1 X60.933 Y73.916 E0.21394
G1 X60.772 Y72.963 E0.05152
G1 X60.015 Y70.138 E0.15595
G1 X59.437 Y68.743 E0.08048
G1 X57.974 Y66.21 E0.15595
G1 X57.415 Y65.422 E0.05152
G1 X54.578 Y62.585 E0.21394
G1 X53.79 Y62.026 E0.05152
G1 X51.257 Y60.563 E0.15596
G1 X49.862 Y59.985 E0.08048
G1 X47.037 Y59.228 E0.15595
G1 X46.084 Y59.067 E0.05152
G1 X42.072 Y59.067 E0.21394
G1 X41.119 Y59.228 E0.05152
G1 X38.294 Y59.985 E0.15596
G1 X36.899 Y60.563 E0.08047
G1 X34.418 Y61.996 E0.15276
M107
G1 X34.599 Y62.429 F18000
M107
G1 F1800
G1 X33.862 Y62.955 E0.04827
G1 X31.111 Y65.706 E0.20745
G1 X30.586 Y66.443 E0.04827
G1 X29.123 Y68.976 E0.15595
G1 X28.592 Y70.258 E0.07399
G1 X27.835 Y73.084 E0.15596
G1 X27.686 Y73.977 E0.04826
G1 X27.686 Y77.867 E0.20745
G1 X27.835 Y78.76 E0.04827
G1 X28.592 Y81.585 E0.15596
G1 X29.123 Y82.867 E0.07398
G1 X30.586 Y85.401 E0.15596
G1 X31.111 Y86.138 E0.04827
G1 X33.862 Y88.889 E0.20745
G1 X34.599 Y89.414 E0.04827
G1 X37.133 Y90.877 E0.15595
G1 X38.415 Y91.408 E0.07399
G1 X41.24 Y92.165 E0.15595
G1 X42.133 Y92.314 E0.04827
G1 X46.023 Y92.314 E0.20745
G1 X46.916 Y92.165 E0.04827
G1 X49.742 Y91.408 E0.15596
G1 X51.024 Y90.877 E0.07398
G1 X53.557 Y89.414 E0.15596
G1 X54.294 Y88.889 E0.04827
G1 X57.045 Y86.138 E0.20745
G1 X57.571 Y85.401 E0.04826
G1 X59.033 Y82.867 E0.15596
G1 X59.564 Y81.585 E0.07399
G1 X60.321 Y78.76 E0.15595
G1 X60.471 Y77.867 E0.04827
G1 X60.471 Y73.977 E0.20745
G1 X60.321 Y73.084 E0.04827
G1 X59.564 Y70.258 E0.15595
G1 X59.033 Y68.976 E0.07399
G1 X57.571 Y66.443 E0.15596
G1 X57.045 Y65.706 E0.04826
G1 X54.294 Y62.955 E0.20745
G1 X53.557 Y62.429 E0.04827
G1 X51.024 Y60.967 E0.15596
G1 X49.742 Y60.436 E0.07398
G1 X46.916 Y59.679 E0.15596
G1 X46.023 Y59.529 E0.04827
G1 X42.133 Y59.529 E0.20745
G1 X41.24 Y59.679 E0.04827
G1 X38.415 Y60.436 E0.15595
G1 X37.133 Y60.967 E0.07399
G1 X34.651 Y62.399 E0.15275
M107
G1 X34.833 Y62.833 F18000
M107
G1 F1800
G1 X34.146 Y63.325 E0.04502
G1 X31.481 Y65.99 E0.20096
G1 X30.989 Y66.676 E0.04502
G1 X29.527 Y69.21 E0.15595
G1 X29.042 Y70.379 E0.0675
G1 X28.285 Y73.204 E0.15595
G1 X28.148 Y74.037 E0.04502
G1 X28.148 Y77.806 E0.20096
G1 X28.285 Y78.639 E0.04502
G1 X29.042 Y81.465 E0.15595
G1 X29.527 Y82.634 E0.0675
G1 X30.989 Y85.167 E0.15596
G1 X31.481 Y85.854 E0.04501
G1 X34.146 Y88.519 E0.20096
G1 X34.833 Y89.011 E0.04502
G1 X37.366 Y90.473 E0.15595
G1 X38.535 Y90.958 E0.0675
G1 X41.361 Y91.715 E0.15596
G1 X42.194 Y91.852 E0.04501
G1 X45.963 Y91.852 E0.20096
G1 X46.796 Y91.715 E0.04502
G1 X49.621 Y90.958 E0.15595
G1 X50.79 Y90.473 E0.0675
G1 X53.324 Y89.011 E0.15596
G1 X54.01 Y88.519 E0.04501
G1 X56.675 Y85.854 E0.20096
G1 X57.167 Y85.167 E0.04502
G1 X58.629 Y82.634 E0.15595
G1 X59.114 Y81.465 E0.0675
G1 X59.871 Y78.639 E0.15596
G1 X60.008 Y77.806 E0.04501
G1 X60.008 Y74.037 E0.20096
G1 X59.871 Y73.204 E0.04502
G1 X59.114 Y70.379 E0.15595
G1 X58.629 Y69.21 E0.0675
G1 X57.167 Y66.676 E0.15596
G1 X56.675 Y65.99 E0.04501
G1 X54.01 Y63.325 E0.20096
G1 X53.324 Y62.833 E0.04502
G1 X50.79 Y61.371 E0.15596
G1 X49.621 Y60.886 E0.06749
G1 X46.796 Y60.129 E0.15596
G1 X45.963 Y59.992 E0.04501
G1 X42.194 Y59.992 E0.20096
G1 X41.361 Y60.129 E0.04502
G1 X38.535 Y60.886 E0.15596
G1 X37.366 Y61.371 E0.06749
G1 X34.885 Y62.803 E0.15276
M107
G1 E-4.000000 F3000
M204 S1500
G1 Z0.65 F18000
; printing object planet_gear_bearing.STL id:0 copy 0
EXCLUDE_OBJECT_START NAME=planet_gear_bearing_STL_id_0_copy_0
; acceleration to travel
G1 X39.15 Y65.56
; decel to extrusion
M204 S1000
G1 X41.994 Y67.398
; end travel
G1 Z0.25
G1 E4.000000 F1800
;TYPE:Internal perimeter
;WIDTH:0.48
M107
G1 X40.923 Y67.73 E0.05464
G1 X39.859 Y68.223 E0.05717
G1 X38.871 Y68.854 E0.05716
G1 X37.975 Y69.612 E0.05717
G1 X37.189 Y70.481 E0.05716
G1 X36.525 Y71.448 E0.05717
G1 X35.996 Y72.495 E0.05716
G1 X35.611 Y73.603 E0.05716
G1 X35.378 Y74.752 E0.05717
G1 X35.299 Y75.922 E0.05716
G1 X35.378 Y77.092 E0.05717
G1 X35.611 Y78.241 E0.05716
G1 X35.996 Y79.349 E0.05716
G1 X36.525 Y80.396 E0.05717
G1 X37.189 Y81.363 E0.05716
G1 X37.975 Y82.232 E0.05717
G1 X38.871 Y82.989 E0.05716
G1 X39.859 Y83.62 E0.05717
G1 X40.923 Y84.114 E0.05716
G1 X42.043 Y84.462 E0.05716
G1 X43.199 Y84.657 E0.05717
G1 X44.371 Y84.696 E0.05716
G1 X45.538 Y84.578 E0.05717
G1 X46.679 Y84.307 E0.05716
G1 X47.773 Y83.885 E0.05716
G1 X48.802 Y83.321 E0.05717
G1 X49.409 Y82.874 E0.03677
G1 X49.746 Y82.626 E0.02039
G1 X50.589 Y81.811 E0.05717
G1 X51.316 Y80.89 E0.05716
G1 X51.913 Y79.881 E0.05717
G1 X52.371 Y78.802 E0.05716
G1 X52.681 Y77.671 E0.05716
G1 X52.834 Y76.529 E0.05616
G1 X52.854 Y75.933 E0.02904
G1 X52.835 Y75.316 E0.03011
G1 X52.681 Y74.173 E0.0562
G1 X52.371 Y73.042 E0.05716
G1 X51.913 Y71.963 E0.05717
G1 X51.316 Y70.954 E0.05716
G1 X50.589 Y70.033 E0.05717
G1 X49.746 Y69.218 E0.05716
G1 X48.802 Y68.522 E0.05717
G1 X47.773 Y67.959 E0.05716
G1 X46.679 Y67.537 E0.05716
G1 X45.538 Y67.265 E0.05717
G1 X44.371 Y67.148 E0.05716
G1 X43.953 Y67.162 E0.02039
G1 X43.199 Y67.187 E0.03678
G1 X42.051 Y67.381 E0.05676
M107
G1 X42.117 Y67.806 F18000
M107
G1 F1800
G1 X41.077 Y68.129 E0.05312
G1 X40.065 Y68.598 E0.05438
G1 X39.124 Y69.198 E0.05438
G1 X38.272 Y69.919 E0.05438
G1 X37.524 Y70.746 E0.05438
G1 X36.892 Y71.666 E0.05439
G1 X36.389 Y72.662 E0.05438
G1 X36.023 Y73.716 E0.05438
G1 X35.801 Y74.809 E0.05438
G1 X35.727 Y75.922 E0.05438
G1 X35.801 Y77.035 E0.05438
G1 X36.023 Y78.128 E0.05439
G1 X36.389 Y79.182 E0.05438
G1 X36.892 Y80.178 E0.05438
G1 X37.524 Y81.098 E0.05438
G1 X38.272 Y81.925 E0.05438
G1 X39.124 Y82.645 E0.05438
G1 X39.736 Y83.036 E0.03539
G1 X40.065 Y83.246 E0.019
G1 X41.077 Y83.715 E0.05438
G1 X42.142 Y84.046 E0.05438
G1 X43.242 Y84.231 E0.05438
G1 X44.357 Y84.269 E0.05438
G1 X45.467 Y84.157 E0.05438
G1 X46.552 Y83.898 E0.05439
G1 X47.593 Y83.497 E0.05438
G1 X48.572 Y82.961 E0.05438
G1 X49.156 Y82.531 E0.03538
G1 X49.47 Y82.3 E0.019
G1 X50.272 Y81.524 E0.05438
G1 X50.963 Y80.648 E0.05439
G1 X51.532 Y79.689 E0.05438
G1 X51.967 Y78.661 E0.05438
G1 X52.262 Y77.585 E0.05438
G1 X52.409 Y76.493 E0.05373
G1 X52.428 Y75.933 E0.02731
G1 X52.409 Y75.351 E0.02837
G1 X52.262 Y74.258 E0.05375
G1 X51.967 Y73.182 E0.05439
G1 X51.532 Y72.155 E0.05438
G1 X50.963 Y71.195 E0.05438
G1 X50.272 Y70.32 E0.05438
G1 X49.47 Y69.544 E0.05438
G1 X49.156 Y69.313 E0.019
G1 X48.572 Y68.883 E0.03538
G1 X47.593 Y68.346 E0.05439
G1 X46.552 Y67.945 E0.05438
G1 X45.467 Y67.687 E0.05438
G1 X44.357 Y67.575 E0.05438
G1 X43.968 Y67.588 E0.019
G1 X43.242 Y67.612 E0.03538
G1 X42.176 Y67.792 E0.05272
M107
G1 X42.241 Y68.214 F18000
;TYPE:External perimeter
M107
G1 F1800
G1 X41.23 Y68.527 E0.0516
G1 X40.27 Y68.973 E0.0516
G1 X39.378 Y69.542 E0.0516
G1 X38.569 Y70.226 E0.0516
G1 X37.859 Y71.011 E0.0516
G1 X37.26 Y71.884 E0.05159
G1 X36.783 Y72.828 E0.0516
G1 X36.435 Y73.828 E0.0516
G1 X36.225 Y74.866 E0.0516
G1 X36.154 Y75.922 E0.0516
G1 X36.225 Y76.978 E0.0516
G1 X36.435 Y78.015 E0.0516
G1 X36.783 Y79.015 E0.0516
G1 X37.26 Y79.96 E0.0516
G1 X37.859 Y80.833 E0.0516
G1 X38.569 Y81.618 E0.0516
G1 X39.378 Y82.301 E0.0516
G1 X39.965 Y82.677 E0.03399
G1 X40.27 Y82.871 E0.01761
G1 X41.23 Y83.317 E0.0516
G1 X42.241 Y83.63 E0.05159
G1 X42.929 Y83.746 E0.034
G1 X43.285 Y83.806 E0.0176
G1 X44.343 Y83.842 E0.0516
G1 X45.396 Y83.736 E0.0516
G1 X46.426 Y83.49 E0.0516
G1 X47.414 Y83.11 E0.0516
G1 X48.342 Y82.601 E0.0516
G1 X48.903 Y82.187 E0.03399
G1 X49.194 Y81.973 E0.01761
G1 X49.955 Y81.237 E0.0516
G1 X50.611 Y80.407 E0.0516
G1 X51.151 Y79.496 E0.0516
G1 X51.564 Y78.521 E0.0516
G1 X51.843 Y77.5 E0.0516
G1 X51.984 Y76.457 E0.05129
G1 X52.001 Y75.933 E0.02559
G1 X51.984 Y75.387 E0.02663
G1 X51.843 Y74.344 E0.05131
G1 X51.564 Y73.323 E0.0516
G1 X51.151 Y72.348 E0.0516
G1 X50.611 Y71.437 E0.05159
G1 X49.955 Y70.607 E0.0516
G1 X49.194 Y69.871 E0.0516
G1 X48.903 Y69.656 E0.01761
G1 X48.342 Y69.243 E0.03399
G1 X47.414 Y68.734 E0.0516
G1 X46.426 Y68.354 E0.0516
G1 X45.396 Y68.108 E0.0516
G1 X44.343 Y68.002 E0.0516
G1 X43.982 Y68.014 E0.01761
G1 X43.285 Y68.038 E0.03399
G1 X42.3 Y68.204 E0.04867
M107
;WIPE_START
M204 S1500
G1 X42.083 Y68.053 F18000
;WIPE_END
M204 S1000
G1 X42.779 Y66.465
;TYPE:Internal perimeter
M107
G1 F1800
G1 X42.831 Y66.451 E0.00265
G1 X45.325 Y66.451 E0.12156
G1 X47.734 Y67.097 E0.12155
G1 X49.893 Y68.343 E0.12156
G1 X51.657 Y70.107 E0.12156
G1 X52.903 Y72.266 E0.12155
G1 X53.549 Y74.675 E0.12156
G1 X53.549 Y77.169 E0.12155
G1 X52.903 Y79.578 E0.12156
G1 X51.657 Y81.737 E0.12156
G1 X49.893 Y83.5 E0.12155
G1 X47.734 Y84.747 E0.12156
G1 X45.325 Y85.393 E0.12156
G1 X42.831 Y85.393 E0.12155
G1 X40.423 Y84.747 E0.12156
G1 X38.263 Y83.5 E0.12155
G1 X36.5 Y81.737 E0.12156
G1 X35.253 Y79.578 E0.12156
G1 X34.607 Y77.169 E0.12155
G1 X34.607 Y74.675 E0.12156
G1 X35.253 Y72.266 E0.12156
G1 X36.5 Y70.107 E0.12155
G1 X38.263 Y68.343 E0.12156
G1 X40.423 Y67.097 E0.12155
G1 X42.721 Y66.481 E0.11599
M107
G1 X43.039 Y66.025 F18000
M107
G1 F1800
G1 X45.16 Y66.025 E0.10341
G1 X45.305 Y65.431 E0.02981
G1 X45.608 Y65.471 E0.01492
G1 X45.595 Y66.082 E0.02981
G1 X47.685 Y66.642 E0.10548
G1 X47.979 Y66.106 E0.02981
G1 X48.261 Y66.223 E0.01491
G1 X48.09 Y66.81 E0.02982
G1 X49.964 Y67.892 E0.10547
G1 X50.386 Y67.45 E0.02981
G1 X50.629 Y67.636 E0.01492
G1 X50.311 Y68.159 E0.02981
G1 X51.841 Y69.689 E0.10548
G1 X52.364 Y69.371 E0.02981
G1 X52.55 Y69.614 E0.01491
G1 X52.108 Y70.036 E0.02982
G1 X53.19 Y71.91 E0.10547
G1 X53.777 Y71.739 E0.02982
G1 X53.894 Y72.021 E0.01491
G1 X53.358 Y72.315 E0.02981
G1 X53.918 Y74.405 E0.10548
G1 X54.529 Y74.392 E0.02981
G1 X54.569 Y74.695 E0.01492
G1 X53.975 Y74.84 E0.02981
G1 X53.975 Y77.004 E0.10547
G1 X54.569 Y77.149 E0.02982
G1 X54.529 Y77.452 E0.01491
G1 X53.918 Y77.438 E0.02981
G1 X53.358 Y79.529 E0.10548
G1 X53.894 Y79.822 E0.02981
G1 X53.777 Y80.105 E0.01492
G1 X53.19 Y79.934 E0.02981
G1 X52.108 Y81.807 E0.10548
G1 X52.55 Y82.23 E0.02981
G1 X52.364 Y82.473 E0.01491
G1 X51.841 Y82.155 E0.02982
G1 X50.311 Y83.685 E0.10547
G1 X50.629 Y84.208 E0.02981
G1 X50.386 Y84.394 E0.01492
G1 X49.964 Y83.952 E0.02981
G1 X48.09 Y85.034 E0.10548
G1 X48.261 Y85.621 E0.02981
G1 X47.979 Y85.738 E0.01491
G1 X47.685 Y85.202 E0.02982
G1 X45.595 Y85.762 E0.10547
G1 X45.608 Y86.373 E0.02982
G1 X45.305 Y86.413 E0.01491
G1 X45.16 Y85.819 E0.02981
G1 X42.996 Y85.819 E0.10548
G1 X42.851 Y86.413 E0.02981
G1 X42.548 Y86.373 E0.01492
G1 X42.562 Y85.762 E0.02981
G1 X40.471 Y85.202 E0.10548
G1 X40.178 Y85.738 E0.02981
G1 X39.895 Y85.621 E0.01491
G1 X40.066 Y85.034 E0.02982
G1 X38.193 Y83.952 E0.10547
G1 X37.77 Y84.394 E0.02981
G1 X37.527 Y84.208 E0.01492
G1 X37.845 Y83.685 E0.02981
G1 X36.315 Y82.155 E0.10548
G1 X35.792 Y82.473 E0.02981
G1 X35.606 Y82.23 E0.01491
G1 X36.048 Y81.807 E0.02982
G1 X34.966 Y79.934 E0.10547
G1 X34.379 Y80.105 E0.02982
G1 X34.262 Y79.822 E0.01491
G1 X34.798 Y79.529 E0.02981
G1 X34.238 Y77.438 E0.10548
G1 X33.627 Y77.452 E0.02981
G1 X33.587 Y77.149 E0.01492
G1 X34.181 Y77.004 E0.02981
G1 X34.181 Y74.84 E0.10548
G1 X33.587 Y74.695 E0.02981
G1 X33.627 Y74.392 E0.01491
G1 X34.238 Y74.405 E0.02981
G1 X34.798 Y72.315 E0.10548
G1 X34.262 Y72.021 E0.02981
G1 X34.379 Y71.739 E0.01492
G1 X34.966 Y71.91 E0.02981
G1 X36.048 Y70.036 E0.10548
G1 X35.606 Y69.614 E0.02981
G1 X35.792 Y69.371 E0.01491
G1 X36.315 Y69.689 E0.02982
G1 X37.08 Y68.924 E0.05273
G1 X37.845 Y68.159 E0.05274
G1 X37.527 Y67.636 E0.02981
G1 X37.77 Y67.45 E0.01492
G1 X38.193 Y67.892 E0.02981
G1 X40.066 Y66.81 E0.10548
G1 X39.895 Y66.223 E0.02981
G1 X40.178 Y66.106 E0.01491
