; generated by SuperSlicer 2.4 on 2023-11-04 at 04:06:34 UTC


;
;

;
;
; TODO: check the size of the extruder and the y-bar clearance. Optimize & test supports.

; external perimeters extrusion width = 0.32mm
; perimeters extrusion width = 0.46mm
; infill extrusion width = 0.44mm
; solid infill extrusion width = 0.46mm
; top infill extrusion width = 0.44mm
; first layer extrusion width = 0.56mm

; object:{"name":"CarbonTubeHolder","id":"CarbonTubeHolder.STL id:0 copy 0","object_center":[60.000000,60.000000,0.000000],"boundingbox_center":[60.000000,60.000000,5.000000],"boundingbox_size":[10.000000,10.000000,10.000000]}
; plater:{"center":[60.000000,60.000000,0.000000],"boundingbox_center":[60.000000,60.000000,5.000000],"boundingbox_size":[10.000000,10.000000,10.000000]}

;TYPE:Custom
; M190 S0
;M109 S0 ; uncomment to remove set&wait temp gcode added automatically after this start gcode
print_start EXTRUDER=245 BED=90 CHAMBER=50

;G92 E0
;G1 E10 F1500 ; prime the nozzle
M107
G21 ; set units to millimeters
G90 ; use absolute coordinates
M83 ; use relative distances for extrusion
SET_PRESSURE_ADVANCE ADVANCE=0.04
;_TOOLCHANGE 0
M104 S245 ; set temperature
M109 S245 ; set temperature and wait for it to be reached
M190 S90 ; set bed temperature and wait for it to be reached
M107
;LAYER_CHANGE
;Z:0.2
;HEIGHT:0.2
;BEFORE_LAYER_CHANGE
;0.2


G1 Z0.2 F18000
;AFTER_LAYER_CHANGE
;0.2
TIMELAPSE_TAKE_FRAME
G92 E0
G1 E-2 F3000
G1 Z0.6 F18000
M204 S1000
G1 X51.715 Y51.252
G1 Z0.2
G1 E2 F1800
;TYPE:Skirt
;WIDTH:0.52
G1 X50.787 Y52.228 E0.05339
G1 X50.167 Y53.037 E0.04043
G1 X49.448 Y54.174 E0.0534
G1 X48.998 Y55.089 E0.04043
G1 X48.514 Y56.345 E0.05339
G1 X48.251 Y57.33 E0.04044
G1 X47.959 Y59.442 E0.0846
G1 X47.96 Y60.461 E0.04043
G1 X48.123 Y62.029 E0.06252
G1 X48.419 Y63.342 E0.0534
G1 X48.747 Y64.307 E0.04043
G1 X49.294 Y65.537 E0.05339
G1 X49.804 Y66.42 E0.04043
G1 X50.58 Y67.52 E0.05339
G1 X51.252 Y68.285 E0.04044
G1 X52.228 Y69.213 E0.05339
G1 X53.037 Y69.833 E0.04043
G1 X54.174 Y70.552 E0.0534
G1 X55.089 Y71.002 E0.04043
G1 X56.345 Y71.486 E0.05339
G1 X57.33 Y71.749 E0.04044
G1 X59.442 Y72.041 E0.0846
G1 X60.461 Y72.04 E0.04043
G1 X62.029 Y71.877 E0.06252
G1 X63.342 Y71.581 E0.0534
G1 X64.307 Y71.253 E0.04043
G1 X65.537 Y70.706 E0.05339
G1 X66.42 Y70.196 E0.04043
G1 X67.52 Y69.42 E0.05339
G1 X68.285 Y68.748 E0.04044
G1 X69.213 Y67.772 E0.05339
G1 X69.833 Y66.963 E0.04043
G1 X70.552 Y65.826 E0.05339
G1 X71.002 Y64.911 E0.04043
G1 X71.486 Y63.655 E0.05339
G1 X71.749 Y62.67 E0.04044
G1 X72.041 Y60.558 E0.0846
G1 X72.04 Y59.539 E0.04043
G1 X71.877 Y57.971 E0.06252
G1 X71.581 Y56.658 E0.0534
G1 X71.253 Y55.693 E0.04043
G1 X70.706 Y54.463 E0.05339
G1 X70.196 Y53.58 E0.04043
G1 X69.42 Y52.48 E0.05339
G1 X68.748 Y51.715 E0.04044
G1 X67.772 Y50.787 E0.05339
G1 X66.963 Y50.167 E0.04043
G1 X65.826 Y49.448 E0.05339
G1 X64.911 Y48.998 E0.04043
G1 X63.655 Y48.514 E0.05339
G1 X62.67 Y48.251 E0.04044
G1 X60.558 Y47.959 E0.0846
G1 X59.539 Y47.96 E0.04043
G1 X57.971 Y48.123 E0.06252
G1 X56.658 Y48.419 E0.0534
G1 X55.693 Y48.747 E0.04043
G1 X54.463 Y49.294 E0.05339
G1 X53.58 Y49.804 E0.04043
G1 X52.48 Y50.58 E0.05339
G1 X51.76 Y51.212 E0.03805
G1 X52.073 Y51.57 F18000
G1 F1800
G1 X52.052 Y51.589 E0.00114
G1 X51.156 Y52.53 E0.05154
G1 X50.564 Y53.302 E0.03858
G1 X49.869 Y54.399 E0.05154
G1 X49.438 Y55.271 E0.03858
G1 X48.971 Y56.483 E0.05154
G1 X48.719 Y57.423 E0.03858
G1 X48.436 Y59.458 E0.08151
G1 X48.436 Y60.43 E0.03858
G1 X48.591 Y61.936 E0.06005
G1 X48.876 Y63.204 E0.05154
G1 X49.188 Y64.125 E0.03858
G1 X49.714 Y65.312 E0.05154
G1 X50.2 Y66.155 E0.03858
G1 X50.948 Y67.217 E0.05154
G1 X51.589 Y67.948 E0.03858
G1 X52.53 Y68.844 E0.05154
G1 X53.302 Y69.436 E0.03858
G1 X54.399 Y70.131 E0.05154
G1 X55.271 Y70.562 E0.03858
G1 X56.483 Y71.029 E0.05154
G1 X57.423 Y71.281 E0.03858
G1 X59.458 Y71.564 E0.08151
G1 X60.43 Y71.564 E0.03858
G1 X61.936 Y71.409 E0.06005
G1 X63.204 Y71.124 E0.05154
G1 X64.125 Y70.812 E0.03858
G1 X65.312 Y70.286 E0.05154
G1 X66.155 Y69.8 E0.03858
G1 X67.217 Y69.052 E0.05154
G1 X67.948 Y68.411 E0.03858
G1 X68.844 Y67.47 E0.05154
G1 X69.436 Y66.698 E0.03858
G1 X70.131 Y65.601 E0.05154
G1 X70.562 Y64.729 E0.03858
G1 X71.029 Y63.517 E0.05154
G1 X71.281 Y62.577 E0.03858
G1 X71.564 Y60.542 E0.08151
G1 X71.564 Y59.57 E0.03858
G1 X71.409 Y58.064 E0.06005
G1 X71.124 Y56.796 E0.05154
G1 X70.812 Y55.875 E0.03858
G1 X70.286 Y54.688 E0.05154
G1 X69.8 Y53.845 E0.03858
G1 X69.052 Y52.783 E0.05154
G1 X68.411 Y52.052 E0.03858
G1 X67.47 Y51.156 E0.05154
G1 X66.698 Y50.564 E0.03858
G1 X65.601 Y49.869 E0.05154
G1 X64.729 Y49.438 E0.03858
G1 X63.517 Y48.971 E0.05154
G1 X62.577 Y48.719 E0.03858
G1 X60.542 Y48.436 E0.08151
G1 X59.57 Y48.436 E0.03858
G1 X58.064 Y48.591 E0.06005
G1 X56.796 Y48.876 E0.05154
G1 X55.875 Y49.188 E0.03858
G1 X54.688 Y49.714 E0.05154
G1 X53.845 Y50.2 E0.03858
G1 X52.783 Y50.948 E0.05154
G1 X52.119 Y51.531 E0.03506
G1 X52.432 Y51.889 F18000
G1 F1800
G1 X52.389 Y51.927 E0.00226
G1 X51.525 Y52.833 E0.04968
G1 X50.96 Y53.567 E0.03672
G1 X50.289 Y54.624 E0.04968
G1 X49.879 Y55.454 E0.03672
G1 X49.427 Y56.622 E0.04968
G1 X49.187 Y57.516 E0.03672
G1 X48.913 Y59.473 E0.07841
G1 X48.912 Y60.399 E0.03672
G1 X49.059 Y61.843 E0.05757
G1 X49.332 Y63.065 E0.04968
G1 X49.629 Y63.942 E0.03672
G1 X50.135 Y65.087 E0.04968
G1 X50.597 Y65.89 E0.03672
G1 X51.317 Y66.914 E0.04968
G1 X51.927 Y67.611 E0.03672
G1 X52.833 Y68.475 E0.04968
G1 X53.567 Y69.04 E0.03672
G1 X54.624 Y69.711 E0.04968
G1 X55.454 Y70.121 E0.03672
G1 X56.622 Y70.573 E0.04968
G1 X57.516 Y70.813 E0.03672
G1 X59.473 Y71.087 E0.07841
G1 X60.399 Y71.088 E0.03672
G1 X61.843 Y70.941 E0.05757
G1 X63.065 Y70.668 E0.04968
G1 X63.942 Y70.371 E0.03672
G1 X65.087 Y69.865 E0.04968
G1 X65.89 Y69.403 E0.03672
G1 X66.914 Y68.683 E0.04968
G1 X67.611 Y68.073 E0.03672
G1 X68.475 Y67.167 E0.04968
G1 X69.04 Y66.433 E0.03672
G1 X69.711 Y65.376 E0.04968
G1 X70.121 Y64.546 E0.03672
G1 X70.573 Y63.378 E0.04968
G1 X70.813 Y62.484 E0.03672
G1 X71.087 Y60.527 E0.07841
G1 X71.088 Y59.601 E0.03672
G1 X70.941 Y58.157 E0.05757
G1 X70.668 Y56.935 E0.04968
G1 X70.371 Y56.058 E0.03672
G1 X69.865 Y54.913 E0.04968
G1 X69.403 Y54.11 E0.03672
G1 X68.683 Y53.086 E0.04968
G1 X68.073 Y52.389 E0.03672
G1 X67.167 Y51.525 E0.04968
G1 X66.433 Y50.96 E0.03672
G1 X65.376 Y50.289 E0.04968
G1 X64.546 Y49.879 E0.03672
G1 X63.378 Y49.427 E0.04968
G1 X62.484 Y49.187 E0.03672
G1 X60.527 Y48.913 E0.07841
G1 X59.601 Y48.912 E0.03672
G1 X58.157 Y49.059 E0.05757
G1 X56.935 Y49.332 E0.04968
G1 X56.058 Y49.629 E0.03672
G1 X54.913 Y50.135 E0.04968
G1 X54.11 Y50.597 E0.03672
G1 X53.086 Y51.317 E0.04968
G1 X52.477 Y51.85 E0.03208
G1 X52.791 Y52.208 F18000
G1 F1800
G1 X52.727 Y52.264 E0.00337
G1 X51.893 Y53.135 E0.04782
G1 X51.357 Y53.832 E0.03486
G1 X50.71 Y54.849 E0.04782
G1 X50.32 Y55.636 E0.03486
G1 X49.884 Y56.76 E0.04782
G1 X49.655 Y57.609 E0.03487
G1 X49.39 Y59.489 E0.07532
G1 X49.388 Y60.368 E0.03486
G1 X49.527 Y61.75 E0.0551
G1 X49.789 Y62.927 E0.04783
G1 X50.07 Y63.759 E0.03486
G1 X50.556 Y64.863 E0.04782
G1 X50.994 Y65.624 E0.03486
G1 X51.686 Y66.612 E0.04782
G1 X52.264 Y67.273 E0.03486
G1 X53.135 Y68.107 E0.04782
G1 X53.832 Y68.643 E0.03486
G1 X54.849 Y69.29 E0.04782
G1 X55.636 Y69.68 E0.03486
G1 X56.76 Y70.116 E0.04782
G1 X57.609 Y70.346 E0.03487
G1 X59.489 Y70.61 E0.07532
G1 X60.368 Y70.612 E0.03486
G1 X61.75 Y70.473 E0.0551
G1 X62.927 Y70.211 E0.04783
G1 X63.759 Y69.93 E0.03486
G1 X64.863 Y69.444 E0.04782
G1 X65.624 Y69.006 E0.03486
G1 X66.612 Y68.314 E0.04782
G1 X67.273 Y67.736 E0.03486
G1 X68.107 Y66.865 E0.04782
G1 X68.643 Y66.168 E0.03486
G1 X69.29 Y65.151 E0.04782
G1 X69.68 Y64.364 E0.03486
G1 X70.116 Y63.24 E0.04782
G1 X70.346 Y62.391 E0.03487
G1 X70.61 Y60.511 E0.07532
G1 X70.612 Y59.632 E0.03486
G1 X70.473 Y58.25 E0.0551
G1 X70.211 Y57.073 E0.04783
G1 X69.93 Y56.241 E0.03486
G1 X69.444 Y55.137 E0.04782
G1 X69.006 Y54.376 E0.03486
G1 X68.314 Y53.388 E0.04782
G1 X67.736 Y52.727 E0.03486
G1 X66.865 Y51.893 E0.04782
G1 X66.168 Y51.357 E0.03486
G1 X65.151 Y50.71 E0.04782
G1 X64.364 Y50.32 E0.03486
G1 X63.24 Y49.884 E0.04782
G1 X62.391 Y49.655 E0.03487
G1 X60.511 Y49.39 E0.07532
G1 X59.632 Y49.388 E0.03486
G1 X58.25 Y49.527 E0.0551
G1 X57.073 Y49.789 E0.04783
G1 X56.241 Y50.07 E0.03486
G1 X55.137 Y50.556 E0.04782
G1 X54.376 Y50.994 E0.03486
G1 X53.388 Y51.686 E0.04782
G1 X52.836 Y52.169 E0.02911
G1 X53.129 Y52.551 F18000
G1 F1800
G1 X53.064 Y52.601 E0.00328
G1 X51.754 Y54.097 E0.07886
G1 X50.761 Y55.819 E0.07887
G1 X50.122 Y57.702 E0.07887
G1 X49.867 Y59.505 E0.07223
G1 X49.995 Y61.657 E0.08553
G1 X50.51 Y63.577 E0.07887
G1 X51.39 Y65.359 E0.07887
G1 X52.601 Y66.936 E0.07887
G1 X54.097 Y68.246 E0.07886
G1 X55.819 Y69.239 E0.07887
G1 X57.702 Y69.878 E0.07887
G1 X59.505 Y70.133 E0.07223
G1 X61.657 Y70.005 E0.08553
G1 X63.577 Y69.49 E0.07887
G1 X65.359 Y68.61 E0.07887
G1 X66.936 Y67.399 E0.07887
G1 X68.246 Y65.903 E0.07886
G1 X69.239 Y64.181 E0.07887
G1 X69.878 Y62.298 E0.07887
G1 X70.133 Y60.495 E0.07223
G1 X70.005 Y58.343 E0.08553
G1 X69.49 Y56.423 E0.07887
G1 X68.61 Y54.641 E0.07886
G1 X67.399 Y53.064 E0.07887
G1 X65.903 Y51.754 E0.07886
G1 X64.181 Y50.761 E0.07887
G1 X62.298 Y50.122 E0.07887
G1 X60.495 Y49.867 E0.07223
G1 X58.343 Y49.995 E0.08553
G1 X56.423 Y50.51 E0.07887
G1 X54.641 Y51.39 E0.07887
G1 X53.177 Y52.515 E0.07321
G1 X53.527 Y52.853 F18000
G1 F1800
G1 X52.423 Y53.994 E0.06296
G1 X51.397 Y55.587 E0.07519
G1 X50.702 Y57.35 E0.07519
G1 X50.463 Y58.436 E0.04411
G1 X50.343 Y59.52 E0.04325
G1 X50.463 Y61.564 E0.0812
G1 X50.797 Y62.963 E0.05706
G1 X51.551 Y64.701 E0.07519
G1 X52.631 Y66.259 E0.07519
G1 X53.994 Y67.577 E0.07519
G1 X55.587 Y68.603 E0.07519
G1 X57.35 Y69.298 E0.07519
G1 X58.436 Y69.537 E0.04411
G1 X59.52 Y69.657 E0.04325
G1 X61.564 Y69.537 E0.0812
G1 X62.963 Y69.203 E0.05706
G1 X64.701 Y68.449 E0.07519
G1 X66.259 Y67.369 E0.07519
G1 X67.577 Y66.006 E0.07519
G1 X68.603 Y64.413 E0.07519
G1 X69.298 Y62.65 E0.07519
G1 X69.537 Y61.564 E0.04411
G1 X69.657 Y60.48 E0.04325
G1 X69.537 Y58.436 E0.0812
G1 X69.203 Y57.037 E0.05706
G1 X68.449 Y55.299 E0.07519
G1 X67.369 Y53.741 E0.07519
G1 X66.006 Y52.423 E0.07519
G1 X64.413 Y51.397 E0.07519
G1 X62.65 Y50.702 E0.07519
G1 X61.564 Y50.463 E0.04411
G1 X60.48 Y50.343 E0.04325
G1 X58.436 Y50.463 E0.0812
G1 X57.037 Y50.797 E0.05706
G1 X55.299 Y51.551 E0.07519
G1 X53.741 Y52.631 E0.07519
G1 X53.568 Y52.809 E0.00984
G1 X53.909 Y53.139 F18000
G1 F1800
G1 X52.792 Y54.296 E0.06382
G1 X51.818 Y55.812 E0.07148
G1 X51.158 Y57.489 E0.07148
G1 X50.931 Y58.529 E0.04226
G1 X50.82 Y59.536 E0.04016
G1 X50.931 Y61.471 E0.07688
G1 X51.253 Y62.824 E0.0552
G1 X51.972 Y64.476 E0.07148
G1 X53 Y65.957 E0.07148
G1 X54.296 Y67.208 E0.07148
G1 X55.812 Y68.182 E0.07148
G1 X57.489 Y68.842 E0.07148
G1 X58.529 Y69.069 E0.04226
G1 X59.536 Y69.18 E0.04016
G1 X61.471 Y69.069 E0.07688
G1 X62.824 Y68.747 E0.0552
G1 X64.476 Y68.028 E0.07148
G1 X65.957 Y67 E0.07148
G1 X67.208 Y65.704 E0.07148
G1 X68.182 Y64.188 E0.07148
G1 X68.842 Y62.511 E0.07148
G1 X69.069 Y61.471 E0.04226
G1 X69.18 Y60.464 E0.04016
G1 X69.069 Y58.529 E0.07688
G1 X68.747 Y57.176 E0.0552
G1 X68.028 Y55.524 E0.07148
G1 X67 Y54.043 E0.07148
G1 X65.704 Y52.792 E0.07148
G1 X64.188 Y51.818 E0.07148
G1 X62.511 Y51.158 E0.07148
G1 X61.471 Y50.931 E0.04226
G1 X60.464 Y50.82 E0.04016
G1 X58.529 Y50.931 E0.07688
G1 X57.176 Y51.253 E0.0552
G1 X55.524 Y51.972 E0.07148
G1 X54.043 Y53 E0.07148
G1 X53.951 Y53.095 E0.00527
G1 X54.293 Y53.424 F18000
G1 F1800
G1 X53.161 Y54.599 E0.0647
G1 X52.239 Y56.037 E0.06777
G1 X51.615 Y57.627 E0.06777
G1 X51.297 Y59.551 E0.07736
G1 X51.399 Y61.377 E0.07255
G1 X51.71 Y62.686 E0.05335
G1 X52.393 Y64.252 E0.06777
G1 X53.369 Y65.654 E0.06777
G1 X54.599 Y66.839 E0.06777
G1 X56.037 Y67.761 E0.06777
G1 X57.627 Y68.385 E0.06777
G1 X59.551 Y68.703 E0.07736
G1 X61.377 Y68.601 E0.07255
G1 X62.686 Y68.29 E0.05335
G1 X64.252 Y67.607 E0.06777
G1 X65.654 Y66.631 E0.06777
G1 X66.839 Y65.401 E0.06777
G1 X67.761 Y63.963 E0.06777
G1 X68.385 Y62.373 E0.06777
G1 X68.703 Y60.449 E0.07736
G1 X68.601 Y58.623 E0.07255
G1 X68.29 Y57.314 E0.05335
G1 X67.607 Y55.748 E0.06777
G1 X66.631 Y54.346 E0.06777
G1 X65.401 Y53.161 E0.06777
G1 X63.963 Y52.239 E0.06777
G1 X62.373 Y51.615 E0.06777
G1 X60.449 Y51.297 E0.07736
G1 X58.623 Y51.399 E0.07255
G1 X57.314 Y51.71 E0.05335
G1 X55.748 Y52.393 E0.06777
G1 X54.334 Y53.381 E0.06844
G1 X54.649 Y53.737 F18000
G1 F1800
G1 X53.53 Y54.902 E0.06406
G1 X52.659 Y56.262 E0.06406
G1 X52.071 Y57.766 E0.06406
G1 X51.774 Y59.567 E0.07242
G1 X51.866 Y61.284 E0.06823
G1 X52.166 Y62.547 E0.05149
G1 X52.814 Y64.027 E0.06406
G1 X53.737 Y65.351 E0.06406
G1 X54.902 Y66.47 E0.06406
G1 X56.262 Y67.341 E0.06406
G1 X57.766 Y67.929 E0.06406
G1 X59.567 Y68.226 E0.07242
G1 X61.284 Y68.134 E0.06823
G1 X62.547 Y67.834 E0.05149
G1 X64.027 Y67.186 E0.06406
G1 X65.351 Y66.263 E0.06406
G1 X66.47 Y65.098 E0.06406
G1 X67.341 Y63.738 E0.06406
G1 X67.929 Y62.234 E0.06406
G1 X68.226 Y60.433 E0.07242
G1 X68.134 Y58.716 E0.06823
G1 X67.834 Y57.453 E0.05149
G1 X67.186 Y55.973 E0.06406
G1 X66.263 Y54.649 E0.06406
G1 X65.098 Y53.53 E0.06406
G1 X63.738 Y52.659 E0.06406
G1 X62.234 Y52.071 E0.06406
G1 X60.433 Y51.774 E0.07242
G1 X58.716 Y51.866 E0.06823
G1 X57.453 Y52.166 E0.05149
G1 X55.973 Y52.814 E0.06406
G1 X54.698 Y53.703 E0.06168
G1 E-2 F3000
M204 S1500
G1 Z0.6 F18000
; printing object CarbonTubeHolder.STL id:0 copy 0
M204 S1000
G1 X57.137 Y56.751
G1 Z0.2
G1 E2 F1800
;TYPE:External perimeter
;WIDTH:0.56
G1 X56.702 Y57.193 E0.02669
G1 X56.503 Y57.445 E0.0138
G1 X56.176 Y57.968 E0.02651
G1 X56.036 Y58.257 E0.0138
G1 X55.829 Y58.838 E0.02651
G1 X55.754 Y59.15 E0.0138
G1 X55.676 Y59.766 E0.02669
G1 X55.687 Y60.39 E0.02687
G1 X55.788 Y61.007 E0.02687
G1 X55.976 Y61.599 E0.02669
G1 X56.252 Y62.169 E0.02723
G1 X56.6 Y62.683 E0.02669
G1 X57.019 Y63.141 E0.02669
G1 X57.26 Y63.353 E0.0138
G1 X57.767 Y63.711 E0.02669
G1 X58.321 Y63.992 E0.02669
G1 X58.621 Y64.105 E0.0138
G1 X59.218 Y64.259 E0.02651
G1 X59.534 Y64.305 E0.01371
G1 X60.002 Y64.33 E0.02013
G1 X60.47 Y64.305 E0.02018
G1 X61.079 Y64.194 E0.0266
G1 X61.383 Y64.103 E0.01362
G1 X61.679 Y63.992 E0.01362
G1 X62.233 Y63.711 E0.02669
G1 X62.74 Y63.353 E0.02669
G1 X62.981 Y63.141 E0.0138
G1 X63.4 Y62.683 E0.02669
G1 X63.75 Y62.165 E0.02687
G1 X64.021 Y61.607 E0.02669
G1 X64.128 Y61.308 E0.01362
G1 X64.213 Y61.003 E0.01362
G1 X64.313 Y60.39 E0.02669
G1 X64.324 Y59.766 E0.02687
G1 X64.245 Y59.146 E0.02687
G1 X64.079 Y58.547 E0.02669
G1 X63.961 Y58.249 E0.0138
G1 X63.672 Y57.704 E0.02651
G1 X63.492 Y57.439 E0.0138
G1 X63.092 Y56.969 E0.02651
G1 X62.859 Y56.748 E0.0138
G1 X62.368 Y56.375 E0.02651
G1 X62.093 Y56.209 E0.0138
G1 X61.53 Y55.949 E0.02669
G1 X60.935 Y55.772 E0.02669
G1 X60.623 Y55.715 E0.01362
G1 X60.308 Y55.681 E0.01362
G1 X59.688 Y55.681 E0.02669
G1 X59.073 Y55.77 E0.02669
G1 X58.766 Y55.849 E0.01362
G1 X58.466 Y55.95 E0.01362
G1 X57.907 Y56.209 E0.02651
G1 X57.632 Y56.375 E0.0138
G1 X57.185 Y56.714 E0.02411
;WIPE_START
M204 S1500
G1 X56.755 Y56.632 F18000
;WIPE_END
M204 S1000
G1 X56.863 Y56.477
G1 F1800
G1 X56.892 Y56.449 E0.00171
G1 X57.123 Y56.258 E0.01289
G1 X57.644 Y55.91 E0.02694
G1 X57.908 Y55.769 E0.01289
G1 X58.487 Y55.529 E0.02694
G1 X58.774 Y55.442 E0.01289
G1 X59.384 Y55.321 E0.02674
G1 X60.005 Y55.28 E0.02674
G1 X60.309 Y55.29 E0.01308
G1 X60.611 Y55.32 E0.01308
G1 X61.226 Y55.442 E0.02694
G1 X61.513 Y55.529 E0.01289
G1 X62.092 Y55.769 E0.02694
G1 X62.356 Y55.91 E0.01289
G1 X62.877 Y56.258 E0.02694
G1 X63.108 Y56.449 E0.01289
G1 X63.551 Y56.892 E0.02694
G1 X63.742 Y57.123 E0.01289
G1 X64.09 Y57.644 E0.02694
G1 X64.231 Y57.908 E0.01289
G1 X64.471 Y58.487 E0.02694
G1 X64.558 Y58.774 E0.01289
G1 X64.679 Y59.384 E0.02674
G1 X64.72 Y60.005 E0.02674
G1 X64.71 Y60.309 E0.01308
G1 X64.68 Y60.611 E0.01308
G1 X64.558 Y61.226 E0.02694
G1 X64.471 Y61.513 E0.01289
G1 X64.231 Y62.092 E0.02694
G1 X64.09 Y62.356 E0.01289
G1 X63.742 Y62.877 E0.02694
G1 X63.551 Y63.108 E0.01289
G1 X63.108 Y63.551 E0.02694
G1 X62.877 Y63.742 E0.01289
G1 X62.356 Y64.09 E0.02694
