; generated by SuperSlicer 2.4 on 2023-11-14 at 19:57:22 UTC


;
;

;
;
; TODO: check the size of the extruder and the y-bar clearance. Optimize & test supports.

; external perimeters extrusion width = 0.40mm
; perimeters extrusion width = 0.40mm
; infill extrusion width = 0.40mm
; solid infill extrusion width = 0.40mm
; top infill extrusion width = 0.40mm
; first layer extrusion width = 0.56mm

; object:{"name":"planet_plate","id":"planet_plate.STL id:0 copy 0","object_center":[60.000000,60.000000,0.000000],"boundingbox_center":[60.000000,60.000000,2.500000],"boundingbox_size":[79.400330,72.101830,5.000000]}
; plater:{"center":[60.000000,60.000000,0.000000],"boundingbox_center":[60.000000,60.000000,2.500000],"boundingbox_size":[79.400330,72.101830,5.000000]}

;TYPE:Custom
; M190 S0
;M109 S0 ; uncomment to remove set&wait temp gcode added automatically after this start gcode
print_start EXTRUDER=245 BED=90 CHAMBER=50

;G92 E0
;G1 E10 F1500 ; prime the nozzle
M107
G21 ; set units to millimeters
G90 ; use absolute coordinates
M83 ; use relative distances for extrusion
SET_PRESSURE_ADVANCE ADVANCE=0.02
;_TOOLCHANGE 0
M104 S245 ; set temperature
M109 S245 ; set temperature and wait for it to be reached
M190 S90 ; set bed temperature and wait for it to be reached
M107
;LAYER_CHANGE
;Z:0.25
;HEIGHT:0.25
;BEFORE_LAYER_CHANGE
;0.25


G1 Z0.25 F18000
;AFTER_LAYER_CHANGE
;0.25
TIMELAPSE_TAKE_FRAME
G92 E0
G1 E-1 F3000
G1 Z0.65 F18000
M204 S1000
G1 X24.575 Y22.779
G1 Z0.25
G1 E1 F1800
;TYPE:Skirt
;WIDTH:0.52
G1 X22.735 Y24.854 E0.13444
G1 X20.89 Y27.2 E0.14467
G1 X19.424 Y29.301 E0.12421
G1 X17.964 Y31.659 E0.13444
G1 X16.579 Y34.219 E0.14106
G1 X15.42 Y36.696 E0.13254
G1 X14.35 Y39.377 E0.13994
G1 X13.473 Y42.007 E0.13437
G1 X12.797 Y44.48 E0.12428
G1 X12.214 Y47.192 E0.13443
G1 X11.704 Y50.798 E0.17653
G1 X11.802 Y52.718 E0.09322
G1 X12.279 Y54.542 E0.09138
G1 X13.04 Y56.203 E0.08858
G1 X36.388 Y96.643 E2.26339
G1 X37.545 Y98.269 E0.09675
G1 X38.238 Y98.992 E0.04851
G1 X39.543 Y100.027 E0.08076
G1 X40.483 Y100.57 E0.05261
G1 X43.767 Y101.86 E0.17103
G1 X46.419 Y102.715 E0.13508
G1 X49.103 Y103.414 E0.13444
G1 X51.823 Y103.958 E0.13444
G1 X54.569 Y104.347 E0.13444
G1 X57.247 Y104.573 E0.13025
G1 X60.139 Y104.65 E0.14026
G1 X62.878 Y104.566 E0.1328
G1 X65.641 Y104.323 E0.13444
G1 X68.385 Y103.922 E0.13443
G1 X71.101 Y103.366 E0.13437
G1 X73.783 Y102.656 E0.13451
G1 X76.419 Y101.793 E0.13443
G1 X79.053 Y100.769 E0.13697
G1 X80.753 Y99.819 E0.09442
G1 X81.537 Y99.197 E0.04851
G1 X82.65 Y98.036 E0.07795
G1 X83.183 Y97.325 E0.04305
G1 X107.45 Y55.209 E2.35608
G1 X108.134 Y53.13 E0.10608
G1 X108.281 Y52.14 E0.0485
G1 X108.296 Y50.798 E0.06507
G1 X107.824 Y47.399 E0.1663
G1 X107.252 Y44.685 E0.13444
G1 X106.466 Y41.806 E0.14467
G1 X105.65 Y39.377 E0.12421
G1 X104.625 Y36.8 E0.13444
G1 X103.359 Y34.097 E0.14467
G1 X102.036 Y31.659 E0.13444
G1 X100.692 Y29.478 E0.12421
G1 X99.11 Y27.2 E0.13444
G1 X97.265 Y24.854 E0.14466
G1 X95.426 Y22.78 E0.13437
G1 X93.622 Y20.958 E0.12428
G1 X91.565 Y19.097 E0.13444
G1 X89.2 Y17.192 E0.1472
G1 X87.527 Y16.194 E0.09442
G1 X86.597 Y15.826 E0.0485
G1 X85.199 Y15.483 E0.06978
G1 X83.182 Y15.334 E0.098
G1 X36.486 Y15.324 E2.26346
G1 X34.833 Y15.478 E0.08045
G1 X34.097 Y15.632 E0.03642
G1 X32.326 Y16.277 E0.09138
G1 X30.8 Y17.192 E0.08625
G1 X28.435 Y19.097 E0.1472
G1 X26.378 Y20.958 E0.13444
G1 X24.617 Y22.736 E0.1213
G1 X24.949 Y23.064 F18000
G1 F1800
G1 X24.907 Y23.107 E0.00291
G1 X22.966 Y25.304 E0.14209
G1 X21.273 Y27.467 E0.13315
G1 X19.705 Y29.722 E0.13315
G1 X18.361 Y31.904 E0.12421
G1 X16.999 Y34.422 E0.13875
G1 X15.846 Y36.887 E0.13191
G1 X14.792 Y39.525 E0.13771
G1 X13.923 Y42.13 E0.13308
G1 X13.204 Y44.782 E0.13323
G1 X12.637 Y47.47 E0.13314
G1 X12.17 Y50.792 E0.1626
G1 X12.258 Y52.619 E0.08863
G1 X12.705 Y54.353 E0.08679
G1 X13.444 Y55.97 E0.08621
G1 X36.792 Y96.41 E2.26339
G1 X37.922 Y97.995 E0.09438
G1 X38.528 Y98.626 E0.0424
G1 X39.833 Y99.662 E0.08076
G1 X40.654 Y100.136 E0.04598
G1 X43.911 Y101.417 E0.16962
G1 X46.538 Y102.264 E0.13379
G1 X49.196 Y102.957 E0.13315
G1 X51.889 Y103.497 E0.13315
G1 X54.609 Y103.882 E0.13315
G1 X57.267 Y104.107 E0.12927
G1 X60.126 Y104.184 E0.13865
G1 X62.838 Y104.101 E0.13151
G1 X65.574 Y103.861 E0.13315
G1 X68.292 Y103.465 E0.13314
G1 X70.982 Y102.915 E0.13308
G1 X73.639 Y102.212 E0.13322
G1 X76.25 Y101.359 E0.13314
G1 X78.884 Y100.334 E0.13697
G1 X80.515 Y99.417 E0.09072
G1 X81.201 Y98.874 E0.04239
G1 X82.313 Y97.713 E0.07795
G1 X82.779 Y97.092 E0.03762
G1 X107.038 Y54.991 E2.35523
G1 X107.686 Y53 E0.1015
G1 X107.814 Y52.135 E0.04239
G1 X107.83 Y50.792 E0.06507
G1 X107.363 Y47.47 E0.1626
G1 X106.796 Y44.782 E0.13315
G1 X106.024 Y41.955 E0.14209
G1 X105.145 Y39.352 E0.13315
G1 X104.192 Y36.973 E0.12421
G1 X103.032 Y34.484 E0.13315
G1 X101.639 Y31.904 E0.14209
G1 X100.194 Y29.568 E0.13315
G1 X98.727 Y27.467 E0.12421
G1 X96.916 Y25.162 E0.14208
G1 X95.095 Y23.108 E0.13308
G1 X93.29 Y21.286 E0.12428
G1 X91.253 Y19.443 E0.13315
G1 X88.909 Y17.555 E0.14591
G1 X87.299 Y16.601 E0.09071
G1 X86.486 Y16.279 E0.04239
G1 X85.087 Y15.936 E0.06978
G1 X83.182 Y15.801 E0.09259
G1 X36.485 Y15.79 E2.26346
G1 X34.882 Y15.942 E0.07808
G1 X34.239 Y16.076 E0.03183
G1 X32.554 Y16.683 E0.0868
G1 X31.091 Y17.555 E0.08255
G1 X28.747 Y19.443 E0.14591
G1 X26.709 Y21.286 E0.13315
G1 X24.991 Y23.021 E0.11839
G1 E-1 F3000
M204 S1500
G1 Z0.65 F18000
M204 S1000
G1 X27.787 Y25.787
G1 Z0.25
G1 E1 F1800
;WIDTH:0.56
G1 X29.488 Y24.066 E0.12736
G1 X31.405 Y22.342 E0.13566
G1 X33.641 Y20.584 E0.1497
G1 X34.477 Y20.142 E0.04981
G1 X35.388 Y19.858 E0.0502
G1 X36.32 Y19.748 E0.04939
G1 X37.262 Y19.803 E0.04967
G1 X38.551 Y20.179 E0.07067
G1 X39.684 Y20.857 E0.06947
G1 X41.523 Y22.716 E0.13763
G1 X42.788 Y23.889 E0.0908
G1 X44.112 Y24.964 E0.08978
G1 X45.504 Y25.952 E0.08979
G1 X46.956 Y26.847 E0.08978
G1 X48.463 Y27.645 E0.08978
G1 X50.02 Y28.345 E0.08979
G1 X51.618 Y28.941 E0.08979
G1 X53.251 Y29.433 E0.08978
G1 X54.914 Y29.817 E0.08979
G1 X56.597 Y30.093 E0.08978
G1 X58.332 Y30.263 E0.09172
G1 X59.046 Y30.299 E0.03766
G1 X59.971 Y30.316 E0.04866
G1 X61.705 Y30.259 E0.09133
G1 X63.403 Y30.093 E0.08979
G1 X65.086 Y29.817 E0.08978
G1 X66.749 Y29.433 E0.08979
G1 X68.382 Y28.941 E0.08978
G1 X69.98 Y28.345 E0.08978
G1 X71.537 Y27.645 E0.08979
G1 X73.044 Y26.847 E0.08978
G1 X74.496 Y25.952 E0.08978
G1 X75.888 Y24.964 E0.08979
G1 X77.212 Y23.889 E0.08978
G1 X78.481 Y22.714 E0.09102
G1 X80.224 Y20.931 E0.13122
G1 X81.109 Y20.342 E0.05594
G1 X82.109 Y19.943 E0.0567
G1 X83.154 Y19.759 E0.05584
G1 X84.217 Y19.791 E0.05594
G1 X85.253 Y20.038 E0.05608
G1 X86.471 Y20.656 E0.07189
G1 X88.631 Y22.372 E0.14518
G1 X90.489 Y24.045 E0.13157
G1 X92.257 Y25.827 E0.1321
G1 X93.937 Y27.727 E0.13348
G1 X95.507 Y29.721 E0.13357
G1 X96.959 Y31.802 E0.13356
G1 X98.282 Y33.95 E0.13277
G1 X99.474 Y36.157 E0.13198
G1 X100.55 Y38.454 E0.13352
G1 X101.488 Y40.796 E0.13278
G1 X102.291 Y43.188 E0.13277
G1 X102.956 Y45.622 E0.13279
G1 X103.494 Y48.164 E0.13676
G1 X103.886 Y50.806 E0.14057
G1 X103.893 Y51.523 E0.03772
G1 X103.829 Y52.108 E0.03099
G1 X103.592 Y52.997 E0.04842
G1 X103.191 Y53.855 E0.04982
G1 X102.615 Y54.647 E0.05157
G1 X101.975 Y55.266 E0.04685
G1 X101.175 Y55.803 E0.05069
G1 X100.244 Y56.195 E0.05317
G1 X98.097 Y56.719 E0.11633
G1 X96.459 Y57.226 E0.09022
G1 X94.866 Y57.835 E0.08979
G1 X93.315 Y58.546 E0.08978
G1 X91.814 Y59.357 E0.08979
G1 X90.368 Y60.263 E0.08978
G1 X88.985 Y61.261 E0.08978
G1 X87.669 Y62.347 E0.08978
G1 X86.426 Y63.515 E0.08978
G1 X85.262 Y64.763 E0.08979
G1 X84.181 Y66.083 E0.08978
G1 X83.189 Y67.47 E0.08979
G1 X82.288 Y68.919 E0.08978
G1 X81.484 Y70.423 E0.08978
G1 X80.778 Y71.977 E0.08979
G1 X80.176 Y73.573 E0.08979
G1 X79.678 Y75.204 E0.08978
G1 X79.287 Y76.865 E0.08979
G1 X79.004 Y78.547 E0.08978
G1 X78.832 Y80.245 E0.08979
G1 X78.77 Y81.949 E0.08978
G1 X78.819 Y83.655 E0.08979
G1 X78.978 Y85.353 E0.08978
G1 X79.247 Y87.038 E0.08979
G1 X79.627 Y88.707 E0.0901
G1 X80.25 Y90.852 E0.11756
G1 X80.348 Y91.483 E0.0336
G1 X80.37 Y92.125 E0.03379
G1 X80.303 Y92.826 E0.03709
G1 X80.08 Y93.705 E0.04769
G1 X79.831 Y94.286 E0.03326
G1 X79.398 Y95.016 E0.04469
G1 X78.554 Y95.933 E0.06556
G1 X77.509 Y96.624 E0.06597
G1 X74.784 Y97.709 E0.15438
G1 X72.386 Y98.484 E0.13259
G1 X69.937 Y99.123 E0.13322
G1 X67.473 Y99.619 E0.13229
G1 X64.99 Y99.972 E0.13198
G1 X62.491 Y100.185 E0.13198
G1 X59.985 Y100.255 E0.13198
G1 X58.747 Y100.237 E0.06517
G1 X57.493 Y100.184 E0.06602
G1 X54.995 Y99.971 E0.13197
G1 X52.513 Y99.616 E0.13196
G1 X50.061 Y99.123 E0.13159
G1 X47.614 Y98.484 E0.13313
G1 X45.214 Y97.709 E0.13271
G1 X42.587 Y96.672 E0.14863
G1 X41.89 Y96.272 E0.0423
G1 X40.934 Y95.429 E0.06708
G1 X40.21 Y94.377 E0.06723
G1 X39.76 Y93.166 E0.06799
G1 X39.669 Y92.617 E0.02928
G1 X39.624 Y91.964 E0.03444
G1 X39.77 Y90.756 E0.06406
G1 X40.373 Y88.706 E0.11244
G1 X40.753 Y87.038 E0.09003
G1 X41.022 Y85.353 E0.08979
G1 X41.181 Y83.655 E0.08978
G1 X41.23 Y81.949 E0.08979
G1 X41.168 Y80.245 E0.08978
G1 X40.996 Y78.547 E0.08979
G1 X40.713 Y76.865 E0.08978
G1 X40.322 Y75.204 E0.08979
G1 X39.824 Y73.573 E0.08978
G1 X39.222 Y71.977 E0.08979
G1 X38.516 Y70.423 E0.08978
G1 X37.712 Y68.919 E0.08978
G1 X36.811 Y67.47 E0.08979
G1 X35.819 Y66.083 E0.08978
G1 X34.738 Y64.763 E0.08978
G1 X33.574 Y63.515 E0.08979
G1 X32.331 Y62.347 E0.08978
G1 X31.015 Y61.261 E0.08978
G1 X29.632 Y60.263 E0.08979
G1 X28.186 Y59.357 E0.08978
G1 X26.685 Y58.546 E0.08979
G1 X25.134 Y57.835 E0.08978
G1 X23.541 Y57.226 E0.08979
G1 X21.888 Y56.715 E0.09104
G1 X19.345 Y56.05 E0.13836
G1 X18.557 Y55.644 E0.04664
G1 X17.82 Y55.097 E0.04828
G1 X16.849 Y53.917 E0.08044
G1 X16.771 Y53.793 E0.00772
G1 X16.279 Y52.601 E0.06787
G1 X16.116 Y51.674 E0.04949
G1 X16.116 Y50.774 E0.04738
G1 X16.519 Y48.089 E0.14292
G1 X17.055 Y45.577 E0.13514
G1 X17.71 Y43.185 E0.13051
G1 X18.497 Y40.837 E0.13037
G1 X19.437 Y38.484 E0.13332
G1 X19.913 Y37.423 E0.06122
G1 X20.511 Y36.186 E0.07229
G1 X21.74 Y33.911 E0.13614
G1 X23.066 Y31.764 E0.13278
G1 X24.503 Y29.709 E0.13198
G1 X26.035 Y27.761 E0.13042
G1 X27.683 Y25.891 E0.13118
G1 X27.744 Y25.829 E0.00458
G1 X28.104 Y26.185 F18000
G1 F1800
G1 X29.833 Y24.438 E0.12936
G1 X31.725 Y22.735 E0.13397
G1 X33.899 Y21.02 E0.14572
G1 X34.652 Y20.618 E0.04495
G1 X35.473 Y20.358 E0.04531
G1 X36.313 Y20.255 E0.04455
G1 X37.203 Y20.307 E0.04693
G1 X38.376 Y20.655 E0.06437
G1 X39.394 Y21.273 E0.06271
G1 X41.17 Y23.08 E0.1333
G1 X42.456 Y24.271 E0.09229
G1 X43.806 Y25.368 E0.09151
G1 X45.224 Y26.374 E0.09152
G1 X46.704 Y27.286 E0.09151
G1 X48.241 Y28.1 E0.09151
G1 X49.827 Y28.813 E0.09152
G1 X51.456 Y29.421 E0.09152
G1 X53.121 Y29.922 E0.09151
G1 X54.815 Y30.314 E0.09152
G1 X56.531 Y30.596 E0.09151
G1 X58.294 Y30.768 E0.09322
G1 X59.029 Y30.805 E0.03871
G1 X59.974 Y30.822 E0.04975
G1 X61.738 Y30.765 E0.09288
G1 X63.469 Y30.596 E0.09152
G1 X65.185 Y30.314 E0.09151
G1 X66.879 Y29.922 E0.09152
G1 X68.544 Y29.421 E0.09151
G1 X70.173 Y28.813 E0.09151
G1 X71.759 Y28.1 E0.09152
G1 X73.296 Y27.286 E0.09152
G1 X74.776 Y26.374 E0.09151
G1 X76.194 Y25.368 E0.09152
G1 X77.544 Y24.271 E0.09151
G1 X78.834 Y23.077 E0.09255
G1 X80.567 Y21.304 E0.13045
G1 X81.365 Y20.78 E0.05027
G1 X82.27 Y20.423 E0.05121
G1 X83.215 Y20.262 E0.05041
G1 X84.125 Y20.29 E0.04792
G1 X85.107 Y20.523 E0.05314
G1 X86.176 Y21.069 E0.06317
G1 X88.298 Y22.754 E0.14262
G1 X90.145 Y24.416 E0.13078
G1 X91.892 Y26.178 E0.13058
G1 X93.553 Y28.057 E0.13195
G1 X95.104 Y30.028 E0.13204
G1 X96.54 Y32.086 E0.13204
G1 X97.847 Y34.209 E0.13125
G1 X99.025 Y36.391 E0.13047
G1 X100.089 Y38.662 E0.132
G1 X101.016 Y40.978 E0.13125
G1 X101.809 Y43.342 E0.13125
G1 X102.466 Y45.748 E0.13127
G1 X102.995 Y48.246 E0.13437
G1 X103.382 Y50.863 E0.13922
G1 X103.386 Y51.511 E0.03412
G1 X103.327 Y52.033 E0.02765
G1 X103.123 Y52.805 E0.04203
G1 X102.767 Y53.577 E0.04474
G1 X102.218 Y54.331 E0.04907
G1 X101.641 Y54.885 E0.04213
G1 X100.915 Y55.368 E0.04587
G1 X100.105 Y55.708 E0.04625
G1 X97.962 Y56.231 E0.11609
G1 X96.294 Y56.747 E0.0919
G1 X94.669 Y57.368 E0.09152
G1 X93.089 Y58.093 E0.09151
G1 X91.559 Y58.919 E0.09152
G1 X90.085 Y59.843 E0.09152
G1 X88.675 Y60.86 E0.09152
G1 X87.334 Y61.967 E0.09151
G1 X86.067 Y63.158 E0.09151
G1 X84.881 Y64.429 E0.09152
G1 X83.779 Y65.775 E0.09151
G1 X82.767 Y67.189 E0.09152
G1 X81.849 Y68.666 E0.09152
G1 X81.029 Y70.199 E0.09151
G1 X80.311 Y71.782 E0.09152
G1 X79.696 Y73.409 E0.09152
G1 X79.189 Y75.072 E0.09152
G1 X78.79 Y76.765 E0.09152
G1 X78.502 Y78.48 E0.09151
G1 X78.326 Y80.21 E0.09152
G1 X78.263 Y81.948 E0.09152
G1 X78.313 Y83.686 E0.09152
G1 X78.475 Y85.417 E0.09151
G1 X78.75 Y87.134 E0.09152
G1 X79.136 Y88.834 E0.09176
G1 X79.752 Y90.947 E0.11582
G1 X79.842 Y91.517 E0.03034
G1 X79.864 Y92.126 E0.03208
G1 X79.801 Y92.757 E0.0334
G1 X79.606 Y93.525 E0.04166
G1 X79.386 Y94.044 E0.0297
G1 X79.005 Y94.695 E0.03969
G1 X78.248 Y95.529 E0.05929
G1 X77.297 Y96.164 E0.06016
G1 X74.62 Y97.23 E0.15165
G1 X72.251 Y97.996 E0.13101
G1 X69.83 Y98.628 E0.1317
G1 X67.394 Y99.118 E0.13077
G1 X64.94 Y99.468 E0.13047
G1 X62.47 Y99.679 E0.13047
G1 X59.987 Y99.749 E0.13074
G1 X58.764 Y99.731 E0.06434
G1 X57.52 Y99.678 E0.06555
G1 X55.045 Y99.467 E0.13073
G1 X52.591 Y99.116 E0.13045
G1 X50.168 Y98.628 E0.13008
G1 X47.749 Y97.996 E0.13161
G1 X45.378 Y97.229 E0.13114
G1 X42.791 Y96.208 E0.14638
G1 X42.166 Y95.846 E0.03802
G1 X41.332 Y95.114 E0.05839
G1 X40.673 Y94.169 E0.06065
G1 X40.255 Y93.058 E0.06245
G1 X40.174 Y92.57 E0.02606
G1 X40.131 Y91.953 E0.03253
G1 X40.262 Y90.878 E0.05697
G1 X40.864 Y88.834 E0.11218
G1 X41.25 Y87.134 E0.09173
G1 X41.525 Y85.417 E0.09152
G1 X41.687 Y83.686 E0.09151
G1 X41.737 Y81.948 E0.09152
G1 X41.674 Y80.21 E0.09152
G1 X41.498 Y78.48 E0.09152
G1 X41.21 Y76.765 E0.09151
G1 X40.811 Y75.072 E0.09152
G1 X40.304 Y73.409 E0.09151
G1 X39.689 Y71.782 E0.09152
G1 X38.971 Y70.199 E0.09151
G1 X38.151 Y68.666 E0.09151
G1 X37.233 Y67.189 E0.09152
G1 X36.221 Y65.775 E0.09151
G1 X35.119 Y64.429 E0.09152
G1 X33.933 Y63.158 E0.09152
G1 X32.666 Y61.966 E0.09152
G1 X31.325 Y60.86 E0.09151
G1 X29.915 Y59.843 E0.09152
G1 X28.441 Y58.919 E0.09151
G1 X26.911 Y58.093 E0.09152
G1 X25.331 Y57.368 E0.09151
G1 X23.706 Y56.747 E0.09152
G1 X22.027 Y56.228 E0.09249
G1 X19.501 Y55.567 E0.13744
G1 X18.809 Y55.204 E0.04111
G1 X18.191 Y54.751 E0.04033
G1 X17.252 Y53.609 E0.0778
G1 X17.215 Y53.548 E0.00379
G1 X16.773 Y52.484 E0.06063
G1 X16.622 Y51.652 E0.04449
G1 X16.623 Y50.793 E0.04519
G1 X17.019 Y48.172 E0.13953
G1 X17.545 Y45.704 E0.1328
G1 X18.192 Y43.34 E0.12901
G1 X18.975 Y41.004 E0.12962
G1 X19.905 Y38.677 E0.1319
G1 X20.371 Y37.64 E0.05982
G1 X20.964 Y36.412 E0.0718
G1 X22.175 Y34.17 E0.13409
G1 X23.485 Y32.048 E0.13125
G1 X24.913 Y30.005 E0.13122
G1 X26.428 Y28.079 E0.12892
G1 X28.048 Y26.242 E0.12892
G1 X28.062 Y26.228 E0.00104
G1 X28.423 Y26.582 F18000
G1 F1800
G1 X30.177 Y24.809 E0.13126
G1 X32.045 Y23.127 E0.13231
G1 X34.159 Y21.455 E0.14183
G1 X34.83 Y21.093 E0.04013
G1 X35.559 Y20.858 E0.04032
G1 X36.352 Y20.76 E0.04205
G1 X37.142 Y20.81 E0.04168
G1 X38.198 Y21.13 E0.05804
G1 X39.102 Y21.688 E0.05594
G1 X40.816 Y23.443 E0.1291
G1 X42.124 Y24.654 E0.09382
G1 X43.499 Y25.771 E0.09324
G1 X44.944 Y26.797 E0.09325
G1 X46.453 Y27.726 E0.09325
G1 X48.018 Y28.556 E0.09325
G1 X49.635 Y29.282 E0.09325
G1 X51.294 Y29.901 E0.09325
G1 X52.991 Y30.412 E0.09324
G1 X54.717 Y30.812 E0.09325
G1 X56.466 Y31.098 E0.09324
G1 X58.257 Y31.273 E0.09472
G1 X59.012 Y31.311 E0.03977
G1 X59.978 Y31.329 E0.05085
G1 X61.771 Y31.27 E0.09442
G1 X63.534 Y31.098 E0.09325
G1 X65.283 Y30.812 E0.09324
G1 X67.009 Y30.412 E0.09325
G1 X68.706 Y29.901 E0.09325
G1 X70.365 Y29.282 E0.09325
G1 X71.982 Y28.556 E0.09325
G1 X73.547 Y27.726 E0.09325
G1 X75.056 Y26.797 E0.09325
G1 X76.501 Y25.771 E0.09325
G1 X77.876 Y24.654 E0.09324
G1 X79.187 Y23.439 E0.09407
G1 X80.909 Y21.678 E0.12963
G1 X81.618 Y21.219 E0.04448
G1 X82.429 Y20.905 E0.04574
G1 X83.272 Y20.766 E0.04497
G1 X84.081 Y20.795 E0.04261
G1 X84.958 Y21.008 E0.04752
G1 X85.881 Y21.481 E0.05455
G1 X87.965 Y23.136 E0.14007
G1 X89.791 Y24.778 E0.12923
