; generated by SuperSlicer 2.4 on 2023-11-02 at 01:31:14 UTC


;
;

;
;
; TODO: check the size of the extruder and the y-bar clearance. Optimize & test supports.

; external perimeters extrusion width = 0.42mm
; perimeters extrusion width = 0.46mm
; infill extrusion width = 0.44mm
; solid infill extrusion width = 0.46mm
; top infill extrusion width = 0.44mm
; first layer extrusion width = 0.56mm

; object:{"name":"planet_gear","id":"planet_gear.STL id:0 copy 0","object_center":[60.000000,60.000000,0.000000],"boundingbox_center":[60.000000,60.000000,5.000000],"boundingbox_size":[25.843838,25.843838,10.000000]}
; plater:{"center":[60.000000,60.000000,0.000000],"boundingbox_center":[60.000000,60.000000,5.000000],"boundingbox_size":[25.843838,25.843838,10.000000]}

;TYPE:Custom
; M190 S0
;M109 S0 ; uncomment to remove set&wait temp gcode added automatically after this start gcode
print_start EXTRUDER=245 BED=90 CHAMBER=50

;G92 E0
;G1 E10 F1500 ; prime the nozzle
M107
G21 ; set units to millimeters
G90 ; use absolute coordinates
M83 ; use relative distances for extrusion
SET_PRESSURE_ADVANCE ADVANCE=0.04
;_TOOLCHANGE 0
M104 S245 ; set temperature
M109 S245 ; set temperature and wait for it to be reached
M190 S90 ; set bed temperature and wait for it to be reached
M107
;LAYER_CHANGE
;Z:0.2
;HEIGHT:0.2
;BEFORE_LAYER_CHANGE
;0.2


G1 Z0.2 F18000
;AFTER_LAYER_CHANGE
;0.2
TIMELAPSE_TAKE_FRAME
G92 E0
G1 E-2 F3000
G1 Z0.6 F18000
M204 S1000
G1 X47.33 Y47.33
G1 Z0.2
G1 E2 F1800
;TYPE:Skirt
;WIDTH:0.52
G1 X45.816 Y48.844 E0.08494
G1 X45.179 Y49.746 E0.0438
G1 X43.71 Y52.292 E0.11659
G1 X43.031 Y53.932 E0.07041
G1 X42.27 Y56.771 E0.11659
G1 X42.082 Y57.859 E0.0438
G1 X42.082 Y62.141 E0.16989
G1 X42.27 Y63.229 E0.0438
G1 X43.031 Y66.068 E0.11659
G1 X43.71 Y67.708 E0.07042
G1 X45.179 Y70.254 E0.11659
G1 X45.816 Y71.156 E0.0438
G1 X48.844 Y74.184 E0.16989
G1 X49.746 Y74.821 E0.0438
G1 X52.292 Y76.29 E0.11659
G1 X53.932 Y76.969 E0.07041
G1 X56.771 Y77.73 E0.11659
G1 X57.859 Y77.918 E0.0438
G1 X62.141 Y77.918 E0.16989
G1 X63.229 Y77.73 E0.0438
G1 X66.068 Y76.969 E0.11659
G1 X67.708 Y76.29 E0.07042
G1 X70.254 Y74.821 E0.11659
G1 X71.156 Y74.184 E0.0438
G1 X74.184 Y71.156 E0.16989
G1 X74.821 Y70.254 E0.0438
G1 X76.29 Y67.708 E0.11659
G1 X76.969 Y66.068 E0.07042
G1 X77.73 Y63.229 E0.11659
G1 X77.918 Y62.141 E0.0438
G1 X77.918 Y57.859 E0.16989
G1 X77.73 Y56.771 E0.0438
G1 X76.969 Y53.932 E0.11659
G1 X76.29 Y52.292 E0.07041
G1 X74.821 Y49.746 E0.11659
G1 X74.184 Y48.844 E0.0438
G1 X71.156 Y45.816 E0.16989
G1 X70.254 Y45.179 E0.0438
G1 X67.708 Y43.71 E0.11659
G1 X66.068 Y43.031 E0.07042
G1 X63.229 Y42.27 E0.11659
G1 X62.141 Y42.082 E0.0438
G1 X57.859 Y42.082 E0.16989
G1 X56.771 Y42.27 E0.0438
G1 X53.932 Y43.031 E0.11659
G1 X52.292 Y43.71 E0.07041
G1 X49.746 Y45.179 E0.11659
G1 X48.844 Y45.816 E0.0438
G1 X47.373 Y47.288 E0.08256
G1 X47.707 Y47.622 F18000
G1 F1800
G1 X46.195 Y49.135 E0.08485
G1 X45.593 Y49.985 E0.04133
G1 X44.123 Y52.53 E0.11659
G1 X43.491 Y54.055 E0.06547
G1 X42.731 Y56.894 E0.11659
G1 X42.555 Y57.921 E0.04133
G1 X42.555 Y62.079 E0.16495
G1 X42.731 Y63.106 E0.04132
G1 X43.491 Y65.945 E0.11659
G1 X44.123 Y67.47 E0.06547
G1 X45.593 Y70.015 E0.11659
G1 X46.195 Y70.865 E0.04133
G1 X49.135 Y73.805 E0.16495
G1 X49.985 Y74.407 E0.04133
G1 X52.53 Y75.877 E0.11659
G1 X54.055 Y76.509 E0.06547
G1 X56.894 Y77.269 E0.11659
G1 X57.921 Y77.445 E0.04133
G1 X62.079 Y77.445 E0.16495
G1 X63.106 Y77.269 E0.04132
G1 X65.945 Y76.509 E0.11659
G1 X67.47 Y75.877 E0.06547
G1 X70.015 Y74.407 E0.11659
G1 X70.865 Y73.805 E0.04133
G1 X73.805 Y70.865 E0.16495
G1 X74.407 Y70.015 E0.04133
G1 X75.877 Y67.47 E0.11659
G1 X76.509 Y65.945 E0.06547
G1 X77.269 Y63.106 E0.11659
G1 X77.445 Y62.079 E0.04132
G1 X77.445 Y57.921 E0.16495
G1 X77.269 Y56.894 E0.04133
G1 X76.509 Y54.055 E0.11659
G1 X75.877 Y52.53 E0.06547
G1 X74.407 Y49.985 E0.11659
G1 X73.805 Y49.135 E0.04133
G1 X70.865 Y46.195 E0.16495
G1 X70.015 Y45.593 E0.04133
G1 X67.47 Y44.123 E0.11659
G1 X65.945 Y43.491 E0.06547
G1 X63.106 Y42.731 E0.11659
G1 X62.079 Y42.555 E0.04132
G1 X57.921 Y42.555 E0.16495
G1 X56.894 Y42.731 E0.04133
G1 X54.055 Y43.491 E0.11659
G1 X52.53 Y44.123 E0.06547
G1 X49.985 Y45.593 E0.11659
G1 X49.135 Y46.195 E0.04133
G1 X47.75 Y47.58 E0.07771
G1 X48.084 Y47.914 F18000
G1 F1800
G1 X46.573 Y49.425 E0.08476
G1 X46.006 Y50.224 E0.03885
G1 X44.536 Y52.769 E0.11659
G1 X43.952 Y54.179 E0.06053
G1 X43.192 Y57.018 E0.11659
G1 X43.028 Y57.983 E0.03885
G1 X43.028 Y62.017 E0.16001
G1 X43.192 Y62.982 E0.03885
G1 X43.952 Y65.821 E0.11659
G1 X44.536 Y67.231 E0.06053
G1 X46.006 Y69.776 E0.11659
G1 X46.573 Y70.575 E0.03885
G1 X49.425 Y73.427 E0.16001
G1 X50.224 Y73.994 E0.03885
G1 X52.769 Y75.464 E0.11659
G1 X54.179 Y76.048 E0.06053
G1 X57.018 Y76.808 E0.11659
G1 X57.983 Y76.972 E0.03885
G1 X62.017 Y76.972 E0.16001
G1 X62.982 Y76.808 E0.03885
G1 X65.821 Y76.048 E0.11659
G1 X67.231 Y75.464 E0.06053
G1 X69.776 Y73.994 E0.11659
G1 X70.575 Y73.427 E0.03885
G1 X73.427 Y70.575 E0.16001
G1 X73.994 Y69.776 E0.03885
G1 X75.464 Y67.231 E0.11659
G1 X76.048 Y65.821 E0.06053
G1 X76.808 Y62.982 E0.11659
G1 X76.972 Y62.017 E0.03885
G1 X76.972 Y57.983 E0.16001
G1 X76.808 Y57.018 E0.03885
G1 X76.048 Y54.179 E0.11659
G1 X75.464 Y52.769 E0.06053
G1 X73.994 Y50.224 E0.11659
G1 X73.427 Y49.425 E0.03885
G1 X70.575 Y46.573 E0.16001
G1 X69.776 Y46.006 E0.03885
G1 X67.231 Y44.536 E0.11659
G1 X65.821 Y43.952 E0.06053
G1 X62.982 Y43.192 E0.11659
G1 X62.017 Y43.028 E0.03885
G1 X57.983 Y43.028 E0.16001
G1 X57.018 Y43.192 E0.03885
G1 X54.179 Y43.952 E0.11659
G1 X52.769 Y44.536 E0.06053
G1 X50.224 Y46.006 E0.11659
G1 X49.425 Y46.573 E0.03885
G1 X48.126 Y47.872 E0.07286
G1 X48.461 Y48.206 F18000
G1 F1800
G1 X46.952 Y49.716 E0.08467
G1 X46.419 Y50.462 E0.03638
G1 X44.949 Y53.007 E0.11659
G1 X44.413 Y54.302 E0.05559
G1 X43.652 Y57.141 E0.11659
G1 X43.501 Y58.045 E0.03638
G1 X43.501 Y61.955 E0.15507
G1 X43.652 Y62.859 E0.03638
G1 X44.413 Y65.698 E0.11659
G1 X44.949 Y66.993 E0.05559
G1 X46.419 Y69.538 E0.11659
G1 X46.952 Y70.284 E0.03638
G1 X49.716 Y73.048 E0.15507
G1 X50.462 Y73.581 E0.03638
G1 X53.007 Y75.051 E0.11659
G1 X54.302 Y75.587 E0.05559
G1 X57.141 Y76.348 E0.11659
G1 X58.045 Y76.499 E0.03638
G1 X61.955 Y76.499 E0.15507
G1 X62.859 Y76.348 E0.03638
G1 X65.698 Y75.587 E0.11659
G1 X66.993 Y75.051 E0.05559
G1 X69.538 Y73.581 E0.11659
G1 X70.284 Y73.048 E0.03638
G1 X73.048 Y70.284 E0.15507
G1 X73.581 Y69.538 E0.03638
G1 X75.051 Y66.993 E0.11659
G1 X75.587 Y65.698 E0.05559
G1 X76.348 Y62.859 E0.11659
G1 X76.499 Y61.955 E0.03638
G1 X76.499 Y58.045 E0.15507
G1 X76.348 Y57.141 E0.03638
G1 X75.587 Y54.302 E0.11659
G1 X75.051 Y53.007 E0.05559
G1 X73.581 Y50.462 E0.11659
G1 X73.048 Y49.716 E0.03638
G1 X70.284 Y46.952 E0.15507
G1 X69.538 Y46.419 E0.03638
G1 X66.993 Y44.949 E0.11659
G1 X65.698 Y44.413 E0.05559
G1 X62.859 Y43.652 E0.11659
G1 X61.955 Y43.501 E0.03638
G1 X58.045 Y43.501 E0.15507
G1 X57.141 Y43.652 E0.03638
G1 X54.302 Y44.413 E0.11659
G1 X53.007 Y44.949 E0.05559
G1 X50.462 Y46.419 E0.11659
G1 X49.716 Y46.952 E0.03638
G1 X48.503 Y48.164 E0.06801
G1 X48.838 Y48.498 F18000
G1 F1800
G1 X47.33 Y50.006 E0.08458
G1 X46.832 Y50.701 E0.0339
G1 X45.363 Y53.246 E0.11659
G1 X44.874 Y54.426 E0.05065
G1 X44.113 Y57.265 E0.11659
G1 X43.974 Y58.108 E0.0339
G1 X43.974 Y61.892 E0.15013
G1 X44.113 Y62.735 E0.0339
G1 X44.874 Y65.574 E0.11659
G1 X45.363 Y66.754 E0.05065
G1 X46.832 Y69.299 E0.11659
G1 X47.33 Y69.994 E0.0339
G1 X50.006 Y72.67 E0.15013
G1 X50.701 Y73.168 E0.0339
G1 X53.246 Y74.637 E0.11659
G1 X54.426 Y75.126 E0.05065
G1 X57.265 Y75.887 E0.11659
G1 X58.108 Y76.026 E0.0339
G1 X61.892 Y76.026 E0.15013
G1 X62.735 Y75.887 E0.0339
G1 X65.574 Y75.126 E0.11659
G1 X66.754 Y74.637 E0.05065
G1 X69.299 Y73.168 E0.11659
G1 X69.994 Y72.67 E0.0339
G1 X72.67 Y69.994 E0.15013
G1 X73.168 Y69.299 E0.0339
G1 X74.637 Y66.754 E0.11659
G1 X75.126 Y65.574 E0.05065
G1 X75.887 Y62.735 E0.11659
G1 X76.026 Y61.892 E0.0339
G1 X76.026 Y58.108 E0.15013
G1 X75.887 Y57.265 E0.0339
G1 X75.126 Y54.426 E0.11659
G1 X74.637 Y53.246 E0.05065
G1 X73.168 Y50.701 E0.11659
G1 X72.67 Y50.006 E0.0339
G1 X69.994 Y47.33 E0.15013
G1 X69.299 Y46.832 E0.0339
G1 X66.754 Y45.363 E0.11659
G1 X65.574 Y44.874 E0.05065
G1 X62.735 Y44.113 E0.11659
G1 X61.892 Y43.974 E0.0339
G1 X58.108 Y43.974 E0.15013
G1 X57.265 Y44.113 E0.0339
G1 X54.426 Y44.874 E0.11659
G1 X53.246 Y45.363 E0.05065
G1 X50.701 Y46.832 E0.11659
G1 X50.006 Y47.33 E0.0339
G1 X48.88 Y48.456 E0.06316
G1 E-2 F3000
M204 S1500
G1 Z0.6 F18000
; printing object planet_gear.STL id:0 copy 0
; acceleration to travel
G1 X54.262 Y54.442
; decel to extrusion
M204 S1000
G1 X57.85 Y58.432
; end travel
G1 Z0.2
G1 E2 F1800
;TYPE:Internal perimeter
;WIDTH:0.56
G1 X57.569 Y58.893 E0.0232
G1 X57.432 Y59.28 E0.01767
G1 X57.348 Y59.683 E0.01767
G1 X57.348 Y60.365 E0.02931
G1 X57.545 Y61.067 E0.03134
G1 X57.899 Y61.649 E0.02931
G1 X58.179 Y61.949 E0.01767
G1 X58.498 Y62.209 E0.01767
G1 X59.104 Y62.522 E0.02931
G1 X59.771 Y62.661 E0.02931
G1 X60.229 Y62.661 E0.01969
G1 X60.85 Y62.532 E0.02728
G1 X61.27 Y62.35 E0.01969
G1 X61.789 Y61.984 E0.02728
G1 X62.101 Y61.649 E0.01969
G1 X62.431 Y61.107 E0.02728
G1 X62.568 Y60.72 E0.01767
G1 X62.652 Y60.317 E0.01767
G1 X62.652 Y59.635 E0.02931
G1 X62.455 Y58.933 E0.03134
G1 X62.101 Y58.351 E0.02931
G1 X61.821 Y58.051 E0.01767
G1 X61.502 Y57.791 E0.01767
G1 X60.896 Y57.478 E0.02931
G1 X60.229 Y57.339 E0.02931
G1 X59.818 Y57.339 E0.01767
G1 X59.411 Y57.395 E0.01767
G1 X58.813 Y57.607 E0.02728
G1 X58.422 Y57.845 E0.01969
G1 X57.923 Y58.311 E0.02931
G1 X57.881 Y58.381 E0.00353
G1 X58.291 Y58.701 F18000
G1 F1800
G1 X58.039 Y59.116 E0.02092
G1 X57.931 Y59.42 E0.01386
G1 X57.865 Y59.736 E0.01386
G1 X57.865 Y60.293 E0.02397
G1 X58.023 Y60.859 E0.02523
G1 X58.313 Y61.335 E0.02397
G1 X58.533 Y61.571 E0.01386
G1 X58.783 Y61.774 E0.01386
G1 X59.278 Y62.031 E0.02397
G1 X59.824 Y62.144 E0.02397
G1 X60.176 Y62.144 E0.01512
G1 X60.693 Y62.037 E0.02271
G1 X61.015 Y61.897 E0.01512
G1 X61.447 Y61.592 E0.02271
G1 X61.687 Y61.335 E0.01512
G1 X61.961 Y60.884 E0.02271
G1 X62.069 Y60.58 E0.01386
G1 X62.135 Y60.264 E0.01386
G1 X62.135 Y59.707 E0.02397
G1 X61.977 Y59.141 E0.02523
G1 X61.687 Y58.665 E0.02397
G1 X61.467 Y58.429 E0.01386
G1 X61.217 Y58.226 E0.01386
G1 X60.722 Y57.969 E0.02397
G1 X60.176 Y57.856 E0.02397
G1 X59.853 Y57.856 E0.01386
G1 X59.534 Y57.9 E0.01386
G1 X59.036 Y58.077 E0.02271
G1 X58.736 Y58.259 E0.01512
G1 X58.323 Y58.649 E0.02443
G1 X58.733 Y58.969 F18000
;TYPE:External perimeter
G1 F1800
G1 X58.508 Y59.34 E0.01863
G1 X58.43 Y59.56 E0.01006
G1 X58.382 Y59.789 E0.01006
G1 X58.382 Y60.222 E0.01863
G1 X58.502 Y60.651 E0.01912
G1 X58.727 Y61.021 E0.01863
G1 X58.887 Y61.192 E0.01006
G1 X59.068 Y61.339 E0.01006
G1 X59.453 Y61.539 E0.01863
G1 X59.877 Y61.627 E0.01863
G1 X60.123 Y61.627 E0.01055
G1 X60.536 Y61.541 E0.01814
G1 X60.761 Y61.443 E0.01055
G1 X61.105 Y61.2 E0.01814
G1 X61.273 Y61.021 E0.01055
G1 X61.492 Y60.66 E0.01814
G1 X61.57 Y60.44 E0.01006
G1 X61.618 Y60.211 E0.01006
G1 X61.618 Y59.778 E0.01863
G1 X61.498 Y59.349 E0.01912
G1 X61.273 Y58.979 E0.01863
G1 X61.113 Y58.808 E0.01006
G1 X60.932 Y58.661 E0.01006
G1 X60.547 Y58.461 E0.01863
G1 X60.123 Y58.373 E0.01863
G1 X59.889 Y58.373 E0.01006
G1 X59.657 Y58.405 E0.01006
G1 X59.259 Y58.546 E0.01814
G1 X59.05 Y58.674 E0.01055
G1 X58.777 Y58.928 E0.01605
;WIPE_START
M204 S1500
G1 X58.336 Y58.924 F18000
;WIPE_END
G1 E-2 F3000
G1 Z0.6 F18000
; acceleration to travel
G1 X53.74 Y58.833
; decel to extrusion
M204 S1000
G1 X50.676 Y58.772
; end travel
G1 Z0.2
G1 E2 F1800
;TYPE:Internal perimeter
G1 X51.311 Y56.401 E0.10556
G1 X52.539 Y54.275 E0.10556
G1 X54.275 Y52.539 E0.10556
G1 X56.401 Y51.311 E0.10556
G1 X58.772 Y50.676 E0.10556
G1 X61.228 Y50.676 E0.10556
G1 X63.599 Y51.311 E0.10556
G1 X65.725 Y52.539 E0.10556
G1 X67.461 Y54.275 E0.10556
G1 X68.689 Y56.401 E0.10555
G1 X69.324 Y58.772 E0.10556
G1 X69.324 Y61.228 E0.10556
G1 X68.689 Y63.599 E0.10556
G1 X67.461 Y65.725 E0.10556
G1 X65.725 Y67.461 E0.10556
G1 X63.599 Y68.689 E0.10556
G1 X61.228 Y69.324 E0.10556
G1 X58.772 Y69.324 E0.10556
G1 X56.401 Y68.689 E0.10556
G1 X54.275 Y67.461 E0.10555
G1 X52.539 Y65.725 E0.10556
G1 X51.311 Y63.599 E0.10556
G1 X50.676 Y61.228 E0.10556
G1 X50.676 Y58.832 E0.10298
G1 X50.159 Y58.704 F18000
G1 F1800
G1 X50.83 Y56.202 E0.11141
G1 X52.125 Y53.957 E0.11141
G1 X53.957 Y52.125 E0.11141
G1 X56.202 Y50.83 E0.11141
G1 X58.704 Y50.159 E0.11141
G1 X61.296 Y50.159 E0.11141
G1 X63.799 Y50.83 E0.11141
G1 X66.043 Y52.125 E0.11141
G1 X67.875 Y53.957 E0.11141
G1 X69.17 Y56.202 E0.11141
G1 X69.841 Y58.704 E0.11141
G1 X69.841 Y61.296 E0.11141
G1 X69.17 Y63.799 E0.11141
G1 X67.875 Y66.043 E0.11141
G1 X66.043 Y67.875 E0.11141
G1 X63.799 Y69.17 E0.11141
G1 X61.296 Y69.841 E0.11141
G1 X58.704 Y69.841 E0.11141
G1 X56.202 Y69.17 E0.11141
G1 X53.957 Y67.875 E0.11141
G1 X52.125 Y66.043 E0.11141
G1 X50.83 Y63.799 E0.11141
G1 X50.159 Y61.296 E0.11141
G1 X50.159 Y58.764 E0.10883
G1 X49.789 Y58.087 F18000
;TYPE:External perimeter
G1 F1800
G1 X50.201 Y56.551 E0.06835
G1 X49.577 Y56.243 E0.02992
G1 X49.261 Y56.052 E0.01585
G1 X48.963 Y55.836 E0.01585
G1 X48.683 Y55.596 E0.01585
G1 X48.326 Y55.215 E0.02248
G1 X48.361 Y55.129 E0.004
G1 X48.515 Y55.115 E0.00666
G1 X48.884 Y55.112 E0.01585
G1 X49.251 Y55.14 E0.01585
G1 X49.615 Y55.198 E0.01585
G1 X49.973 Y55.287 E0.01585
G1 X50.632 Y55.509 E0.02992
G1 X51.427 Y54.133 E0.06835
G1 X50.904 Y53.673 E0.02992
G1 X50.649 Y53.407 E0.01585
G1 X50.416 Y53.122 E0.01585
G1 X50.209 Y52.817 E0.01584
G1 X50.027 Y52.497 E0.01585
G1 X49.962 Y52.356 E0.00666
G1 X50.019 Y52.282 E0.004
G1 X50.528 Y52.401 E0.02248
G1 X50.876 Y52.523 E0.01585
G1 X51.212 Y52.674 E0.01585
G1 X51.535 Y52.852 E0.01584
G1 X52.114 Y53.238 E0.02992
G1 X53.238 Y52.114 E0.06835
G1 X52.852 Y51.535 E0.02992
G1 X52.674 Y51.212 E0.01584
G1 X52.523 Y50.876 E0.01585
G1 X52.401 Y50.528 E0.01585
G1 X52.309 Y50.171 E0.01585
G1 X52.282 Y50.019 E0.00666
G1 X52.356 Y49.962 E0.004
G1 X52.817 Y50.209 E0.02248
G1 X53.122 Y50.416 E0.01584
G1 X53.407 Y50.649 E0.01585
G1 X53.673 Y50.904 E0.01585
G1 X54.133 Y51.427 E0.02992
G1 X55.509 Y50.632 E0.06835
G1 X55.287 Y49.973 E0.02992
G1 X55.198 Y49.615 E0.01585
G1 X55.14 Y49.251 E0.01585
G1 X55.112 Y48.884 E0.01585
G1 X55.129 Y48.361 E0.02248
G1 X55.215 Y48.326 E0.004
G1 X55.334 Y48.425 E0.00666
G1 X55.596 Y48.683 E0.01585
G1 X55.836 Y48.963 E0.01585
G1 X56.052 Y49.261 E0.01585
G1 X56.243 Y49.577 E0.01585
G1 X56.551 Y50.201 E0.02992
G1 X58.087 Y49.789 E0.06835
G1 X58.042 Y49.095 E0.02992
G1 X58.049 Y48.726 E0.01585
G1 X58.087 Y48.36 E0.01585
G1 X58.155 Y47.997 E0.01585
G1 X58.253 Y47.642 E0.01585
G1 X58.307 Y47.497 E0.00666
G1 X58.399 Y47.485 E0.004
G1 X58.675 Y47.929 E0.02249
G1 X58.835 Y48.261 E0.01585
G1 X58.966 Y48.606 E0.01585
G1 X59.068 Y48.96 E0.01584
G1 X59.205 Y49.642 E0.02992
G1 X60.795 Y49.642 E0.06835
G1 X60.932 Y48.96 E0.02992
G1 X61.034 Y48.606 E0.01584
G1 X61.165 Y48.261 E0.01585
G1 X61.325 Y47.929 E0.01585
G1 X61.511 Y47.611 E0.01585
G1 X61.601 Y47.485 E0.00666
G1 X61.647 Y47.491 E0.002
G1 X61.693 Y47.497 E0.002
G1 X61.747 Y47.642 E0.00666
G1 X61.845 Y47.997 E0.01585
G1 X61.913 Y48.36 E0.01585
G1 X61.951 Y48.726 E0.01585
G1 X61.958 Y49.095 E0.01585
G1 X61.913 Y49.789 E0.02992
G1 X63.449 Y50.201 E0.06835
G1 X63.757 Y49.577 E0.02992
G1 X63.948 Y49.261 E0.01585
G1 X64.164 Y48.963 E0.01584
G1 X64.404 Y48.683 E0.01585
G1 X64.785 Y48.326 E0.02248
G1 X64.871 Y48.361 E0.004
G1 X64.885 Y48.515 E0.00666
G1 X64.888 Y48.884 E0.01585
G1 X64.86 Y49.251 E0.01585
G1 X64.802 Y49.615 E0.01585
G1 X64.713 Y49.973 E0.01585
G1 X64.491 Y50.632 E0.02992
G1 X65.867 Y51.427 E0.06835
G1 X66.327 Y50.905 E0.02992
G1 X66.593 Y50.649 E0.01585
G1 X66.878 Y50.416 E0.01585
G1 X67.183 Y50.209 E0.01584
G1 X67.503 Y50.027 E0.01585
G1 X67.644 Y49.962 E0.00666
G1 X67.718 Y50.019 E0.004
G1 X67.599 Y50.528 E0.02248
G1 X67.477 Y50.876 E0.01585
G1 X67.326 Y51.212 E0.01585
G1 X67.148 Y51.535 E0.01584
G1 X66.762 Y52.114 E0.02992
G1 X67.886 Y53.238 E0.06835
G1 X68.465 Y52.852 E0.02992
