; generated by SuperSlicer 2.4 on 2023-10-31 at 21:43:45 UTC


;
;

;
;
; TODO: check the size of the extruder and the y-bar clearance. Optimize & test supports.

; external perimeters extrusion width = 0.42mm
; perimeters extrusion width = 0.46mm
; infill extrusion width = 0.44mm
; solid infill extrusion width = 0.46mm
; top infill extrusion width = 0.44mm
; first layer extrusion width = 0.56mm

; external perimeters extrusion width = 0.42mm
; perimeters extrusion width = 0.46mm
; infill extrusion width = 0.44mm
; solid infill extrusion width = 0.46mm
; top infill extrusion width = 0.44mm
; first layer extrusion width = 0.56mm

; object:{"name":"sun_gear","id":"sun_gear.STL id:0 copy 0","object_center":[49.560686,71.449321,0.000000],"boundingbox_center":[49.560686,71.449321,8.000000],"boundingbox_size":[25.000000,24.988142,16.000000]}
; object:{"name":"sun_gear","id":"sun_gear.STL id:1 copy 0","object_center":[70.439315,48.550680,0.000000],"boundingbox_center":[70.439315,48.550680,8.000000],"boundingbox_size":[25.000000,24.988142,16.000000]}
; plater:{"center":[60.000000,60.000000,0.000000],"boundingbox_center":[60.000000,60.000000,8.000000],"boundingbox_size":[45.878629,47.886783,16.000000]}

;TYPE:Custom
; M190 S0
;M109 S0 ; uncomment to remove set&wait temp gcode added automatically after this start gcode
print_start EXTRUDER=245 BED=90 CHAMBER=50

;G92 E0
;G1 E10 F1500 ; prime the nozzle
M107
G21 ; set units to millimeters
G90 ; use absolute coordinates
M83 ; use relative distances for extrusion
SET_PRESSURE_ADVANCE ADVANCE=0.04
;_TOOLCHANGE 0
M104 S245 ; set temperature
M109 S245 ; set temperature and wait for it to be reached
M190 S90 ; set bed temperature and wait for it to be reached
M107
;LAYER_CHANGE
;Z:0.2
;HEIGHT:0.2
;BEFORE_LAYER_CHANGE
;0.2


G1 Z0.2 F18000
;AFTER_LAYER_CHANGE
;0.2
TIMELAPSE_TAKE_FRAME
G92 E0
G1 E-2 F3000
G1 Z0.6 F18000
M204 S1000
G1 X50.022 Y45.609
G1 Z0.2
G1 E2 F1800
;TYPE:Skirt
;WIDTH:0.52
G1 X36.946 Y59.949 E0.76984
G1 X35.713 Y61.471 E0.07769
G1 X34.592 Y63.248 E0.08336
G1 X33.995 Y64.446 E0.0531
G1 X33.34 Y66.138 E0.07197
G1 X32.81 Y68.172 E0.08336
G1 X32.605 Y69.495 E0.0531
G1 X32.493 Y71.306 E0.07197
G1 X32.605 Y73.404 E0.08336
G1 X32.81 Y74.727 E0.0531
G1 X33.253 Y76.486 E0.07197
G1 X33.698 Y77.749 E0.0531
G1 X34.456 Y79.397 E0.07197
G1 X35.125 Y80.556 E0.0531
G1 X36.174 Y82.037 E0.07197
G1 X37.045 Y83.054 E0.0531
G1 X38.347 Y84.317 E0.07197
G1 X40.013 Y85.597 E0.08336
G1 X41.151 Y86.302 E0.0531
G1 X42.776 Y87.111 E0.07197
G1 X43.753 Y87.499 E0.0417
G1 X45.769 Y88.091 E0.08336
G1 X48.129 Y88.457 E0.09475
G1 X50.23 Y88.504 E0.08336
G1 X52.321 Y88.293 E0.08336
G1 X53.352 Y88.091 E0.0417
G1 X55.098 Y87.594 E0.07197
G1 X57.04 Y86.792 E0.08336
G1 X59.108 Y85.597 E0.09475
G1 X60.774 Y84.317 E0.08336
G1 X62.175 Y82.949 E0.07766
G1 X83.054 Y60.051 E1.22928
G1 X84.287 Y58.529 E0.07769
G1 X85.408 Y56.752 E0.08336
G1 X86.302 Y54.85 E0.08336
G1 X87.026 Y52.574 E0.09475
G1 X87.395 Y50.505 E0.08336
G1 X87.507 Y48.407 E0.08336
G1 X87.36 Y46.311 E0.08336
G1 X86.956 Y44.248 E0.08336
G1 X86.302 Y42.251 E0.08336
G1 X85.408 Y40.349 E0.08336
G1 X84.287 Y38.572 E0.08336
G1 X82.955 Y36.946 E0.08336
G1 X81.435 Y35.496 E0.08336
G1 X79.747 Y34.244 E0.08336
G1 X77.918 Y33.208 E0.08336
G1 X75.976 Y32.406 E0.08336
G1 X74.231 Y31.909 E0.07197
G1 X73.199 Y31.707 E0.0417
G1 X71.109 Y31.496 E0.08336
G1 X69.77 Y31.496 E0.0531
G1 X67.679 Y31.707 E0.08336
G1 X65.907 Y32.095 E0.07197
G1 X64.631 Y32.501 E0.0531
G1 X62.96 Y33.208 E0.07197
G1 X61.781 Y33.842 E0.0531
G1 X60.269 Y34.844 E0.07197
G1 X59.226 Y35.683 E0.0531
G1 X57.825 Y37.051 E0.07766
G1 X50.062 Y45.565 E0.45706
G1 X50.415 Y45.886 F18000
G1 F1800
G1 X37.299 Y60.271 E0.77222
G1 X36.094 Y61.758 E0.07594
G1 X35.005 Y63.487 E0.08103
G1 X34.137 Y65.336 E0.08103
G1 X33.712 Y66.543 E0.05077
G1 X33.276 Y68.274 E0.07081
G1 X33.08 Y69.539 E0.05077
G1 X32.97 Y71.32 E0.07081
G1 X33.08 Y73.36 E0.08103
G1 X33.276 Y74.625 E0.05077
G1 X33.712 Y76.356 E0.07081
G1 X34.137 Y77.563 E0.05077
G1 X34.883 Y79.185 E0.07081
G1 X35.523 Y80.293 E0.05077
G1 X36.554 Y81.75 E0.07081
G1 X37.919 Y83.27 E0.08103
G1 X38.865 Y84.132 E0.05077
G1 X40.289 Y85.208 E0.07081
G1 X41.377 Y85.882 E0.05077
G1 X42.975 Y86.677 E0.07081
G1 X43.925 Y87.054 E0.04054
G1 X45.885 Y87.628 E0.08103
G1 X48.158 Y87.981 E0.09126
G1 X50.201 Y88.028 E0.08103
G1 X52.233 Y87.824 E0.08103
G1 X53.236 Y87.628 E0.04053
G1 X54.953 Y87.14 E0.07081
G1 X56.84 Y86.358 E0.08104
G1 X58.832 Y85.208 E0.09126
G1 X60.453 Y83.964 E0.08103
G1 X61.823 Y82.628 E0.07591
G1 X82.701 Y59.729 E1.22928
G1 X83.906 Y58.242 E0.07594
G1 X84.995 Y56.513 E0.08103
G1 X85.863 Y54.664 E0.08103
G1 X86.56 Y52.472 E0.09126
G1 X86.92 Y50.461 E0.08104
G1 X87.03 Y48.422 E0.08103
G1 X86.888 Y46.384 E0.08103
G1 X86.497 Y44.379 E0.08104
G1 X85.863 Y42.437 E0.08103
G1 X84.995 Y40.588 E0.08103
G1 X83.906 Y38.86 E0.08103
G1 X82.613 Y37.278 E0.08103
G1 X81.135 Y35.868 E0.08103
G1 X79.496 Y34.649 E0.08103
G1 X77.719 Y33.642 E0.08103
G1 X75.832 Y32.86 E0.08104
G1 X74.115 Y32.372 E0.07081
G1 X73.112 Y32.176 E0.04054
G1 X71.079 Y31.972 E0.08103
G1 X69.799 Y31.972 E0.05077
G1 X68.022 Y32.137 E0.07081
G1 X66.764 Y32.372 E0.05077
G1 X64.804 Y32.946 E0.08103
G1 X63.16 Y33.642 E0.07081
G1 X62.032 Y34.247 E0.05077
G1 X60.544 Y35.233 E0.07081
G1 X59.547 Y36.036 E0.05077
G1 X58.177 Y37.372 E0.07591
G1 X50.455 Y45.842 E0.45468
G1 X50.807 Y46.163 F18000
G1 F1800
G1 X37.651 Y60.592 E0.7746
G1 X36.475 Y62.046 E0.07419
G1 X35.418 Y63.725 E0.0787
G1 X34.874 Y64.818 E0.04844
G1 X34.17 Y66.673 E0.0787
G1 X33.742 Y68.376 E0.06964
G1 X33.555 Y69.583 E0.04844
G1 X33.447 Y71.564 E0.0787
G1 X33.555 Y73.316 E0.06964
G1 X33.742 Y74.523 E0.04844
G1 X34.17 Y76.225 E0.06964
G1 X34.576 Y77.377 E0.04844
G1 X35.31 Y78.972 E0.06964
G1 X35.921 Y80.029 E0.04844
G1 X36.935 Y81.462 E0.06964
G1 X38.261 Y82.938 E0.0787
G1 X39.164 Y83.761 E0.04844
G1 X40.565 Y84.819 E0.06964
G1 X41.603 Y85.462 E0.04844
G1 X43.174 Y86.244 E0.06964
G1 X44.097 Y86.609 E0.03937
G1 X46.002 Y87.166 E0.0787
G1 X47.96 Y87.484 E0.0787
G1 X50.171 Y87.552 E0.08776
G1 X52.145 Y87.355 E0.0787
G1 X53.12 Y87.166 E0.03937
G1 X54.808 Y86.685 E0.06964
G1 X56.641 Y85.925 E0.07871
G1 X58.557 Y84.819 E0.08776
G1 X60.132 Y83.612 E0.0787
G1 X61.47 Y82.307 E0.07416
G1 X82.349 Y59.408 E1.22928
G1 X83.525 Y57.954 E0.07419
G1 X84.582 Y56.275 E0.0787
G1 X85.424 Y54.478 E0.0787
G1 X86.039 Y52.592 E0.0787
G1 X86.445 Y50.417 E0.08776
G1 X86.553 Y48.436 E0.0787
G1 X86.417 Y46.457 E0.0787
G1 X86.039 Y44.509 E0.07871
G1 X85.424 Y42.623 E0.0787
G1 X84.582 Y40.827 E0.0787
G1 X83.525 Y39.147 E0.0787
G1 X82.27 Y37.61 E0.07871
G1 X80.836 Y36.239 E0.0787
G1 X79.245 Y35.055 E0.0787
G1 X77.519 Y34.075 E0.0787
G1 X75.687 Y33.315 E0.07871
G1 X73.998 Y32.834 E0.06964
G1 X73.024 Y32.645 E0.03937
G1 X71.05 Y32.448 E0.0787
G1 X69.829 Y32.448 E0.04844
G1 X68.081 Y32.61 E0.06964
G1 X66.88 Y32.834 E0.04844
G1 X64.976 Y33.391 E0.0787
G1 X63.359 Y34.075 E0.06964
G1 X62.283 Y34.653 E0.04844
G1 X60.82 Y35.623 E0.06964
G1 X59.868 Y36.388 E0.04844
G1 X58.53 Y37.693 E0.07416
G1 X50.848 Y46.119 E0.4523
G1 X51.2 Y46.44 F18000
G1 F1800
G1 X38.004 Y60.914 E0.77698
G1 X36.855 Y62.333 E0.07244
G1 X35.832 Y63.964 E0.07637
G1 X35.313 Y65.004 E0.04611
G1 X34.69 Y66.614 E0.06848
G1 X34.208 Y68.478 E0.07638
G1 X34.03 Y69.627 E0.04611
G1 X33.924 Y71.549 E0.07637
G1 X34.03 Y73.272 E0.06848
G1 X34.208 Y74.421 E0.04611
G1 X34.629 Y76.095 E0.06848
G1 X35.016 Y77.191 E0.04611
G1 X35.737 Y78.759 E0.06848
G1 X36.318 Y79.766 E0.04611
G1 X37.316 Y81.175 E0.06848
G1 X38.072 Y82.058 E0.04611
G1 X39.311 Y83.259 E0.06848
G1 X40.84 Y84.429 E0.07637
G1 X41.829 Y85.041 E0.04611
G1 X43.374 Y85.811 E0.06848
G1 X44.27 Y86.164 E0.03821
G1 X46.118 Y86.703 E0.07638
G1 X48.019 Y87.01 E0.07638
G1 X50.142 Y87.076 E0.08427
G1 X52.058 Y86.886 E0.07638
G1 X53.744 Y86.517 E0.06848
G1 X54.664 Y86.231 E0.0382
G1 X56.62 Y85.402 E0.08427
G1 X58.281 Y84.429 E0.07637
G1 X59.81 Y83.259 E0.07637
G1 X61.117 Y81.985 E0.07242
G1 X81.996 Y59.086 E1.22928
G1 X83.145 Y57.667 E0.07244
G1 X84.168 Y56.036 E0.07637
G1 X84.984 Y54.292 E0.07637
G1 X85.628 Y52.268 E0.08427
G1 X85.97 Y50.373 E0.07638
G1 X86.076 Y48.451 E0.07637
G1 X85.945 Y46.53 E0.07637
G1 X85.58 Y44.64 E0.07638
G1 X84.984 Y42.809 E0.07637
G1 X84.168 Y41.065 E0.07637
G1 X83.145 Y39.435 E0.07637
G1 X81.928 Y37.942 E0.07638
G1 X80.537 Y36.611 E0.07638
G1 X78.993 Y35.461 E0.07637
G1 X77.32 Y34.509 E0.07637
G1 X75.542 Y33.769 E0.07638
G1 X73.882 Y33.297 E0.06848
G1 X72.936 Y33.114 E0.03821
G1 X71.021 Y32.924 E0.07637
G1 X69.858 Y32.924 E0.04611
G1 X68.139 Y33.083 E0.06848
G1 X66.997 Y33.297 E0.04611
G1 X65.148 Y33.836 E0.07638
G1 X63.559 Y34.509 E0.06848
G1 X62.534 Y35.059 E0.04611
G1 X61.096 Y36.012 E0.06848
G1 X60.19 Y36.741 E0.04611
G1 X58.883 Y38.015 E0.07242
G1 X51.241 Y46.396 E0.44992
G1 E-2 F3000
M204 S1500
G1 Z0.6 F18000
; printing object sun_gear.STL id:0 copy 0
; acceleration to travel
G1 X50.338 Y59.263
; decel to extrusion
M204 S1000
G1 X49.737 Y67.84
; end travel
G1 Z0.2
G1 E2 F1800
;TYPE:Internal perimeter
;WIDTH:0.56
G1 X49.314 Y67.84 E0.01819
G1 X48.825 Y67.908 E0.02123
G1 X48.349 Y68.041 E0.02123
G1 X47.896 Y68.238 E0.02123
G1 X47.475 Y68.494 E0.02123
G1 X47.092 Y68.806 E0.02123
G1 X46.755 Y69.166 E0.02123
G1 X46.47 Y69.57 E0.02123
G1 X46.243 Y70.008 E0.02123
G1 X46.077 Y70.473 E0.02123
G1 X45.977 Y70.957 E0.02123
G1 X45.943 Y71.449 E0.02123
G1 X45.977 Y71.942 E0.02123
G1 X46.077 Y72.425 E0.02123
G1 X46.243 Y72.89 E0.02123
G1 X46.47 Y73.329 E0.02123
G1 X46.755 Y73.732 E0.02123
G1 X47.092 Y74.093 E0.02123
G1 X47.475 Y74.405 E0.02123
G1 X47.896 Y74.661 E0.02123
G1 X48.349 Y74.858 E0.02123
G1 X48.825 Y74.991 E0.02123
G1 X49.314 Y75.058 E0.02123
G1 X49.808 Y75.058 E0.02123
G1 X50.297 Y74.991 E0.02123
G1 X50.772 Y74.858 E0.02123
G1 X51.225 Y74.661 E0.02123
G1 X51.647 Y74.405 E0.02123
G1 X52.03 Y74.093 E0.02123
G1 X52.373 Y73.726 E0.02161
G1 X52.691 Y73.263 E0.02414
G1 X52.882 Y72.882 E0.01831
G1 X53.044 Y72.425 E0.02084
G1 X53.144 Y71.942 E0.02123
G1 X53.178 Y71.449 E0.02123
G1 X53.144 Y70.957 E0.02123
G1 X53.044 Y70.473 E0.02123
G1 X52.879 Y70.008 E0.02123
G1 X52.651 Y69.57 E0.02123
G1 X52.367 Y69.166 E0.02123
G1 X52.03 Y68.806 E0.02123
G1 X51.647 Y68.494 E0.02123
G1 X51.225 Y68.238 E0.02123
G1 X50.772 Y68.041 E0.02123
G1 X50.297 Y67.908 E0.02123
G1 X49.797 Y67.84 E0.02168
G1 X49.737 Y68.357 F18000
G1 F1800
G1 X49.349 Y68.357 E0.01667
G1 X48.93 Y68.415 E0.01819
G1 X48.523 Y68.529 E0.01819
G1 X48.135 Y68.698 E0.01819
G1 X47.774 Y68.917 E0.01819
G1 X47.445 Y69.184 E0.01819
G1 X47.157 Y69.494 E0.01819
G1 X46.913 Y69.839 E0.01819
G1 X46.718 Y70.215 E0.01819
G1 X46.577 Y70.613 E0.01819
G1 X46.49 Y71.027 E0.01819
G1 X46.462 Y71.449 E0.01819
G1 X46.49 Y71.871 E0.01819
G1 X46.577 Y72.285 E0.01819
G1 X46.718 Y72.684 E0.01819
G1 X46.913 Y73.06 E0.01819
G1 X47.157 Y73.405 E0.01819
G1 X47.445 Y73.714 E0.01819
G1 X47.774 Y73.981 E0.01819
G1 X48.135 Y74.201 E0.01819
G1 X48.523 Y74.369 E0.01819
G1 X48.93 Y74.484 E0.01819
G1 X49.349 Y74.541 E0.01819
G1 X49.772 Y74.541 E0.01819
G1 X50.191 Y74.484 E0.01819
G1 X50.598 Y74.369 E0.01819
G1 X50.986 Y74.201 E0.01819
G1 X51.348 Y73.981 E0.01819
G1 X51.676 Y73.714 E0.01819
G1 X51.968 Y73.401 E0.01843
G1 X52.244 Y72.999 E0.02095
G1 X52.405 Y72.679 E0.01541
G1 X52.545 Y72.285 E0.01795
G1 X52.631 Y71.871 E0.01819
G1 X52.66 Y71.449 E0.01819
G1 X52.631 Y71.027 E0.01819
G1 X52.545 Y70.613 E0.01819
G1 X52.403 Y70.215 E0.01819
G1 X52.209 Y69.839 E0.01819
G1 X51.965 Y69.494 E0.01819
G1 X51.676 Y69.184 E0.01819
G1 X51.348 Y68.917 E0.01819
G1 X50.986 Y68.698 E0.01819
G1 X50.598 Y68.529 E0.01819
G1 X50.191 Y68.415 E0.01819
G1 X49.797 Y68.361 E0.01713
G1 X49.737 Y68.875 F18000
;TYPE:External perimeter
G1 F1800
G1 X49.385 Y68.875 E0.01514
G1 X49.036 Y68.923 E0.01514
G1 X48.696 Y69.018 E0.01514
G1 X48.373 Y69.158 E0.01514
G1 X48.072 Y69.341 E0.01514
G1 X47.799 Y69.563 E0.01514
G1 X47.559 Y69.821 E0.01514
G1 X47.356 Y70.108 E0.01514
G1 X47.194 Y70.421 E0.01514
G1 X47.076 Y70.753 E0.01514
G1 X47.004 Y71.098 E0.01514
G1 X46.98 Y71.449 E0.01514
G1 X47.004 Y71.801 E0.01514
G1 X47.076 Y72.146 E0.01514
G1 X47.194 Y72.478 E0.01514
G1 X47.356 Y72.79 E0.01514
G1 X47.559 Y73.078 E0.01514
G1 X47.799 Y73.335 E0.01514
G1 X48.072 Y73.558 E0.01514
G1 X48.373 Y73.741 E0.01514
G1 X48.696 Y73.881 E0.01514
G1 X49.036 Y73.976 E0.01514
G1 X49.385 Y74.024 E0.01514
G1 X49.737 Y74.024 E0.01514
G1 X50.086 Y73.976 E0.01514
G1 X50.425 Y73.881 E0.01514
G1 X50.748 Y73.741 E0.01514
G1 X51.049 Y73.558 E0.01514
G1 X51.322 Y73.335 E0.01514
G1 X51.564 Y73.076 E0.01524
G1 X51.798 Y72.736 E0.01777
G1 X51.929 Y72.475 E0.01252
G1 X52.046 Y72.146 E0.01505
G1 X52.117 Y71.801 E0.01514
G1 X52.141 Y71.449 E0.01514
G1 X52.117 Y71.098 E0.01514
G1 X52.046 Y70.753 E0.01514
G1 X51.928 Y70.421 E0.01514
G1 X51.766 Y70.108 E0.01514
G1 X51.563 Y69.821 E0.01514
G1 X51.322 Y69.563 E0.01514
G1 X51.049 Y69.341 E0.01514
G1 X50.748 Y69.158 E0.01514
G1 X50.425 Y69.018 E0.01514
G1 X50.086 Y68.923 E0.01514
G1 X49.796 Y68.883 E0.01256
;WIPE_START
M204 S1500
G1 X49.553 Y68.519 F18000
;WIPE_END
G1 E-2 F3000
G1 Z0.6 F18000
; acceleration to travel
G1 X53.582 Y71.451
; decel to extrusion
M204 S1000
G1 X56.268 Y73.405
; end travel
G1 Z0.2
G1 E2 F1800
;TYPE:Internal perimeter
G1 X56.501 Y73.655 E0.01466
G1 X56.821 Y73.914 E0.01771
G1 X57.173 Y74.128 E0.01771
G1 X57.55 Y74.292 E0.01771
G1 X57.947 Y74.404 E0.01771
G1 X58.355 Y74.46 E0.01771
G1 X58.767 Y74.46 E0.01771
G1 X59.175 Y74.404 E0.01771
G1 X59.571 Y74.292 E0.01771
G1 X59.949 Y74.128 E0.01771
G1 X60.395 Y73.857 E0.02247
G1 X60.124 Y74.81 E0.0426
G1 X59.897 Y75.454 E0.02936
G1 X59.631 Y76.082 E0.02935
G1 X59.327 Y76.694 E0.02936
G1 X58.985 Y77.285 E0.02935
G1 X58.608 Y77.854 E0.02936
G1 X58.197 Y78.399 E0.02936
G1 X57.753 Y78.917 E0.02935
G1 X57.277 Y79.407 E0.02935
G1 X56.773 Y79.867 E0.02936
G1 X56.241 Y80.295 E0.02935
G1 X55.684 Y80.69 E0.02935
G1 X55.103 Y81.049 E0.02936
G1 X54.502 Y81.372 E0.02935
G1 X53.882 Y81.658 E0.02936
G1 X53.245 Y81.904 E0.02936
G1 X52.594 Y82.111 E0.02935
G1 X52.014 Y82.257 E0.02571
G1 X52.328 Y81.651 E0.02933
G1 X52.466 Y81.263 E0.01771
G1 X52.55 Y80.86 E0.01771
G1 X52.578 Y80.449 E0.01771
G1 X52.55 Y80.038 E0.01771
G1 X52.466 Y79.635 E0.01771
G1 X52.328 Y79.247 E0.01771
G1 X52.139 Y78.882 E0.01771
G1 X51.901 Y78.545 E0.01771
G1 X51.62 Y78.244 E0.01771
G1 X51.301 Y77.984 E0.01771
G1 X50.949 Y77.77 E0.01771
G1 X50.571 Y77.606 E0.01771
G1 X50.175 Y77.495 E0.01771
G1 X49.767 Y77.439 E0.01771
G1 X49.355 Y77.439 E0.01771
G1 X48.947 Y77.495 E0.01771
G1 X48.55 Y77.606 E0.01771
G1 X48.173 Y77.77 E0.01771
G1 X47.821 Y77.984 E0.01771
G1 X47.501 Y78.244 E0.01771
G1 X47.22 Y78.545 E0.01771
G1 X46.983 Y78.882 E0.01771
G1 X46.793 Y79.247 E0.01771
G1 X46.655 Y79.635 E0.01771
G1 X46.571 Y80.038 E0.01771
G1 X46.543 Y80.449 E0.01771
G1 X46.571 Y80.86 E0.01771
G1 X46.655 Y81.263 E0.01771
G1 X46.793 Y81.651 E0.01771
G1 X47.107 Y82.257 E0.02933
G1 X46.527 Y82.111 E0.02571
G1 X45.876 Y81.904 E0.02935
G1 X45.24 Y81.658 E0.02935
G1 X44.62 Y81.372 E0.02936
G1 X44.018 Y81.049 E0.02935
G1 X43.438 Y80.69 E0.02936
G1 X42.88 Y80.295 E0.02935
G1 X42.348 Y79.867 E0.02935
G1 X41.844 Y79.407 E0.02936
G1 X41.369 Y78.917 E0.02935
G1 X40.924 Y78.399 E0.02935
G1 X40.513 Y77.854 E0.02936
G1 X40.136 Y77.285 E0.02936
G1 X39.795 Y76.694 E0.02935
G1 X39.49 Y76.082 E0.02936
G1 X39.224 Y75.454 E0.02935
G1 X38.997 Y74.81 E0.02936
G1 X38.726 Y73.857 E0.0426
G1 X39.173 Y74.128 E0.02247
G1 X39.55 Y74.292 E0.01771
G1 X39.947 Y74.404 E0.01771
G1 X40.355 Y74.46 E0.01771
G1 X40.767 Y74.46 E0.01771
G1 X41.175 Y74.404 E0.01771
G1 X41.571 Y74.292 E0.01771
G1 X41.949 Y74.128 E0.01771
G1 X42.301 Y73.914 E0.01771
G1 X42.62 Y73.655 E0.01771
G1 X42.901 Y73.354 E0.01771
G1 X43.139 Y73.017 E0.01771
G1 X43.328 Y72.651 E0.01771
G1 X43.466 Y72.263 E0.01771
G1 X43.55 Y71.86 E0.01771
G1 X43.578 Y71.449 E0.01771
G1 X43.55 Y71.038 E0.01771
G1 X43.466 Y70.635 E0.01771
G1 X43.328 Y70.247 E0.01771
G1 X43.139 Y69.882 E0.0177
G1 X42.901 Y69.545 E0.01771
G1 X42.62 Y69.244 E0.01771
