; generated by SuperSlicer 2.4 on 2023-11-02 at 21:30:42 UTC


;
;

;
;
; TODO: check the size of the extruder and the y-bar clearance. Optimize & test supports.

; external perimeters extrusion width = 0.32mm
; perimeters extrusion width = 0.46mm
; infill extrusion width = 0.44mm
; solid infill extrusion width = 0.46mm
; top infill extrusion width = 0.44mm
; first layer extrusion width = 0.56mm

; external perimeters extrusion width = 0.32mm
; perimeters extrusion width = 0.46mm
; infill extrusion width = 0.44mm
; solid infill extrusion width = 0.46mm
; top infill extrusion width = 0.44mm
; first layer extrusion width = 0.56mm

; object:{"name":"sun_gear","id":"sun_gear.STL id:0 copy 0","object_center":[45.097675,55.758902,0.000000],"boundingbox_center":[45.097675,55.758902,8.000000],"boundingbox_size":[25.000000,24.988142,16.000000]}
; object:{"name":"sun_gear","id":"sun_gear.STL id:1 copy 0","object_center":[74.902326,64.241099,0.000000],"boundingbox_center":[74.902326,64.241099,8.000000],"boundingbox_size":[25.000000,24.988142,16.000000]}
; plater:{"center":[60.000000,60.000000,0.000000],"boundingbox_center":[60.000000,60.000000,8.000000],"boundingbox_size":[54.804651,33.470339,16.000000]}

;TYPE:Custom
; M190 S0
;M109 S0 ; uncomment to remove set&wait temp gcode added automatically after this start gcode
print_start EXTRUDER=245 BED=90 CHAMBER=50

;G92 E0
;G1 E10 F1500 ; prime the nozzle
M107
G21 ; set units to millimeters
G90 ; use absolute coordinates
M83 ; use relative distances for extrusion
SET_PRESSURE_ADVANCE ADVANCE=0.04
;_TOOLCHANGE 0
M104 S245 ; set temperature
M109 S245 ; set temperature and wait for it to be reached
M190 S90 ; set bed temperature and wait for it to be reached
M107
;LAYER_CHANGE
;Z:0.2
;HEIGHT:0.2
;BEFORE_LAYER_CHANGE
;0.2


G1 Z0.2 F18000
;AFTER_LAYER_CHANGE
;0.2
TIMELAPSE_TAKE_FRAME
G92 E0
G1 E-2 F3000
G1 Z0.6 F18000
M204 S1000
G1 X33.884 Y42.891
G1 Z0.2
G1 E2 F1800
;TYPE:Skirt
;WIDTH:0.52
G1 X33.113 Y43.606 E0.0417
G1 X31.891 Y44.947 E0.07197
G1 X30.511 Y46.896 E0.09475
G1 X29.993 Y47.811 E0.0417
G1 X29.235 Y49.459 E0.07197
G1 X28.511 Y51.735 E0.09475
G1 X28.294 Y52.764 E0.0417
G1 X28.071 Y54.565 E0.07197
G1 X28.071 Y56.953 E0.09475
G1 X28.294 Y58.754 E0.07197
G1 X28.511 Y59.782 E0.0417
G1 X29.235 Y62.058 E0.09475
G1 X29.993 Y63.707 E0.07197
G1 X30.511 Y64.622 E0.0417
G1 X31.891 Y66.571 E0.09475
G1 X33.113 Y67.912 E0.07197
G1 X33.884 Y68.627 E0.0417
G1 X35.55 Y69.907 E0.08336
G1 X36.688 Y70.612 E0.0531
G1 X38.313 Y71.42 E0.07197
G1 X39.561 Y71.904 E0.0531
G1 X70.231 Y80.659 E1.26525
G1 X72.426 Y81.129 E0.08907
G1 X74.52 Y81.305 E0.08336
G1 X76.62 Y81.223 E0.08336
G1 X78.694 Y80.883 E0.08336
G1 X80.71 Y80.291 E0.08336
G1 X82.639 Y79.455 E0.08336
G1 X84.45 Y78.389 E0.08336
G1 X86.116 Y77.109 E0.08336
G1 X87.612 Y75.633 E0.08336
G1 X88.916 Y73.985 E0.08336
G1 X89.871 Y72.442 E0.07197
G1 X90.468 Y71.244 E0.0531
G1 X91.123 Y69.552 E0.07197
G1 X91.653 Y67.519 E0.08336
G1 X91.858 Y66.196 E0.0531
G1 X91.97 Y64.385 E0.07197
G1 X91.929 Y63.047 E0.0531
G1 X91.706 Y61.246 E0.07197
G1 X91.21 Y59.204 E0.08336
G1 X90.765 Y57.942 E0.0531
G1 X90.007 Y56.293 E0.07197
G1 X89.338 Y55.134 E0.0531
G1 X88.289 Y53.653 E0.07197
G1 X87.418 Y52.637 E0.0531
G1 X86.116 Y51.374 E0.07197
G1 X84.45 Y50.093 E0.08336
G1 X83.312 Y49.388 E0.0531
G1 X81.687 Y48.58 E0.07197
G1 X79.711 Y47.864 E0.08336
G1 X49.769 Y39.341 E1.23497
G1 X47.858 Y38.915 E0.07768
G1 X45.767 Y38.704 E0.08336
G1 X43.38 Y38.777 E0.09475
G1 X42.338 Y38.915 E0.0417
G1 X40.565 Y39.304 E0.07197
G1 X38.313 Y40.097 E0.09475
G1 X36.688 Y40.906 E0.07197
G1 X35.79 Y41.452 E0.0417
G1 X33.932 Y42.855 E0.09237
G1 X34.218 Y43.234 F18000
G1 F1800
G1 X33.456 Y43.938 E0.04117
G1 X32.253 Y45.257 E0.07081
G1 X30.924 Y47.135 E0.09126
G1 X30.42 Y48.024 E0.04054
G1 X29.674 Y49.645 E0.07081
G1 X28.977 Y51.837 E0.09126
G1 X28.766 Y52.837 E0.04054
G1 X28.546 Y54.609 E0.07081
G1 X28.546 Y56.909 E0.09126
G1 X28.766 Y58.681 E0.07081
G1 X28.977 Y59.68 E0.04054
G1 X29.674 Y61.873 E0.09126
G1 X30.42 Y63.494 E0.07081
G1 X30.924 Y64.383 E0.04054
G1 X32.253 Y66.261 E0.09126
G1 X33.456 Y67.58 E0.07081
G1 X34.205 Y68.274 E0.04054
G1 X35.826 Y69.518 E0.08103
G1 X36.914 Y70.191 E0.05077
G1 X38.512 Y70.987 E0.07081
G1 X39.705 Y71.449 E0.05077
G1 X70.361 Y80.2 E1.26467
G1 X72.485 Y80.655 E0.08616
G1 X74.52 Y80.828 E0.08103
G1 X76.562 Y80.749 E0.08103
G1 X78.578 Y80.42 E0.08103
G1 X80.538 Y79.846 E0.08103
G1 X82.413 Y79.035 E0.08103
G1 X84.174 Y78 E0.08103
G1 X85.795 Y76.756 E0.08103
G1 X87.25 Y75.323 E0.08103
G1 X88.518 Y73.721 E0.08104
G1 X89.458 Y72.204 E0.07081
G1 X90.028 Y71.058 E0.05077
G1 X90.673 Y69.394 E0.07081
G1 X91.187 Y67.417 E0.08103
G1 X91.383 Y66.152 E0.05077
G1 X91.493 Y64.37 E0.07081
G1 X91.454 Y63.091 E0.05077
G1 X91.187 Y61.066 E0.08103
G1 X90.751 Y59.335 E0.07081
G1 X90.326 Y58.127 E0.05077
G1 X89.58 Y56.506 E0.07081
G1 X88.94 Y55.397 E0.05077
G1 X87.909 Y53.941 E0.07081
G1 X87.076 Y52.969 E0.05077
G1 X85.795 Y51.726 E0.07081
G1 X84.174 Y50.482 E0.08103
G1 X83.086 Y49.809 E0.05077
G1 X81.25 Y48.912 E0.08103
G1 X79.567 Y48.319 E0.07081
G1 X49.639 Y39.8 E1.23439
G1 X47.77 Y39.384 E0.07594
G1 X45.738 Y39.18 E0.08103
G1 X43.438 Y39.251 E0.09126
G1 X42.425 Y39.384 E0.04054
G1 X40.682 Y39.766 E0.07081
G1 X38.512 Y40.531 E0.09126
G1 X36.914 Y41.326 E0.07081
G1 X36.041 Y41.858 E0.04054
G1 X34.266 Y43.198 E0.08824
G1 X34.552 Y43.577 F18000
G1 F1800
G1 X34.527 Y43.596 E0.00127
G1 X33.798 Y44.27 E0.03937
G1 X32.615 Y45.568 E0.06964
G1 X31.337 Y47.373 E0.08776
G1 X30.847 Y48.236 E0.03937
G1 X30.113 Y49.831 E0.06964
G1 X29.443 Y51.939 E0.08776
G1 X29.237 Y52.91 E0.03937
G1 X29.021 Y54.653 E0.06964
G1 X28.984 Y55.873 E0.04844
G1 X29.092 Y57.626 E0.06964
G1 X29.498 Y59.8 E0.08776
G1 X29.777 Y60.753 E0.03937
G1 X30.411 Y62.39 E0.06964
G1 X31.458 Y64.339 E0.08776
G1 X32.012 Y65.162 E0.03937
G1 X33.112 Y66.53 E0.06964
G1 X34.701 Y68.07 E0.08776
G1 X36.102 Y69.128 E0.06964
G1 X37.813 Y70.132 E0.0787
G1 X38.922 Y70.643 E0.04844
G1 X40.578 Y71.226 E0.06964
G1 X70.492 Y79.741 E1.23381
G1 X71.567 Y80.006 E0.04392
G1 X73.302 Y80.276 E0.06964
G1 X75.284 Y80.351 E0.0787
G1 X77.261 Y80.182 E0.0787
G1 X79.202 Y79.771 E0.0787
G1 X81.078 Y79.125 E0.0787
G1 X82.86 Y78.253 E0.0787
G1 X84.522 Y77.169 E0.0787
G1 X86.038 Y75.889 E0.0787
G1 X87.385 Y74.432 E0.0787
G1 X88.12 Y73.458 E0.04845
G1 X89.045 Y71.965 E0.06964
G1 X89.887 Y70.169 E0.0787
G1 X90.293 Y69.017 E0.04844
G1 X90.721 Y67.314 E0.06964
G1 X90.908 Y66.108 E0.04844
G1 X91.016 Y64.356 E0.06964
G1 X90.979 Y63.135 E0.04844
G1 X90.721 Y61.168 E0.0787
G1 X90.293 Y59.465 E0.06964
G1 X89.887 Y58.313 E0.04844
G1 X89.153 Y56.719 E0.06964
G1 X88.12 Y55.024 E0.0787
G1 X87.385 Y54.05 E0.04844
G1 X86.202 Y52.752 E0.06964
G1 X85.299 Y51.93 E0.04844
G1 X83.708 Y50.745 E0.0787
G1 X82.187 Y49.868 E0.06964
G1 X81.078 Y49.357 E0.04844
G1 X79.422 Y48.774 E0.06964
G1 X49.508 Y40.259 E1.23381
G1 X47.682 Y39.853 E0.07419
G1 X45.708 Y39.656 E0.0787
G1 X43.497 Y39.724 E0.08776
G1 X42.513 Y39.853 E0.03937
G1 X40.798 Y40.229 E0.06964
G1 X38.711 Y40.964 E0.08776
G1 X37.14 Y41.747 E0.06964
G1 X36.292 Y42.263 E0.03937
G1 X34.6 Y43.541 E0.08411
G1 X34.887 Y43.92 F18000
G1 F1800
G1 X34.848 Y43.949 E0.0019
G1 X34.141 Y44.602 E0.03821
G1 X32.978 Y45.878 E0.06848
G1 X31.75 Y47.612 E0.08427
G1 X31.274 Y48.449 E0.03821
G1 X30.553 Y50.017 E0.06848
G1 X29.909 Y52.042 E0.08427
G1 X29.709 Y52.984 E0.03821
G1 X29.497 Y54.697 E0.06847
G1 X29.497 Y56.821 E0.08427
G1 X29.709 Y58.534 E0.06847
G1 X29.909 Y59.476 E0.03821
G1 X30.553 Y61.501 E0.08427
G1 X31.274 Y63.069 E0.06848
G1 X31.75 Y63.906 E0.03821
G1 X32.392 Y64.875 E0.04611
G1 X33.475 Y66.22 E0.06848
G1 X35 Y67.699 E0.08427
G1 X36.543 Y68.849 E0.07637
G1 X38.038 Y69.712 E0.06848
G1 X39.094 Y70.198 E0.04611
G1 X40.722 Y70.772 E0.06848
G1 X70.622 Y79.283 E1.23323
G1 X71.654 Y79.537 E0.04217
G1 X73.36 Y79.802 E0.06848
G1 X75.284 Y79.874 E0.07637
G1 X77.202 Y79.708 E0.07638
G1 X79.086 Y79.308 E0.07637
G1 X80.906 Y78.68 E0.07637
G1 X82.634 Y77.833 E0.07637
G1 X84.246 Y76.78 E0.07638
G1 X85.716 Y75.536 E0.07637
G1 X87.022 Y74.122 E0.07637
G1 X87.723 Y73.194 E0.04612
G1 X88.631 Y71.727 E0.06847
G1 X89.15 Y70.686 E0.04611
G1 X89.773 Y69.077 E0.06848
G1 X90.255 Y67.212 E0.07637
G1 X90.433 Y66.064 E0.04611
G1 X90.539 Y64.341 E0.06848
G1 X90.503 Y63.179 E0.04611
G1 X90.291 Y61.466 E0.06847
G1 X89.834 Y59.596 E0.07637
G1 X89.447 Y58.499 E0.04611
G1 X88.726 Y56.931 E0.06848
G1 X87.723 Y55.288 E0.07637
G1 X87.022 Y54.36 E0.04611
G1 X85.859 Y53.085 E0.06848
G1 X85 Y52.301 E0.04611
G1 X83.623 Y51.261 E0.06848
G1 X81.962 Y50.288 E0.07637
G1 X80.906 Y49.802 E0.04611
G1 X79.278 Y49.228 E0.06848
G1 X49.378 Y40.717 E1.23323
G1 X47.595 Y40.322 E0.07244
G1 X45.679 Y40.132 E0.07637
G1 X43.556 Y40.198 E0.08427
G1 X42.601 Y40.322 E0.03821
G1 X40.914 Y40.692 E0.06848
G1 X38.911 Y41.398 E0.08427
G1 X37.366 Y42.167 E0.06848
G1 X36.543 Y42.669 E0.03821
G1 X34.934 Y43.884 E0.07999
G1 E-2 F3000
M204 S1500
G1 Z0.6 F18000
; printing object sun_gear.STL id:0 copy 0
; acceleration to travel
G1 X39.584 Y49.396
; decel to extrusion
M204 S1000
G1 X42.684 Y53.071
; end travel
G1 Z0.2
G1 E2 F1800
;TYPE:Internal perimeter
;WIDTH:0.56
G1 X42.629 Y53.115 E0.00304
G1 X42.292 Y53.476 E0.02123
G1 X42.007 Y53.879 E0.02123
G1 X41.78 Y54.318 E0.02123
G1 X41.614 Y54.783 E0.02123
G1 X41.514 Y55.266 E0.02123
G1 X41.48 Y55.759 E0.02123
G1 X41.514 Y56.251 E0.02123
G1 X41.614 Y56.735 E0.02123
G1 X41.78 Y57.2 E0.02123
G1 X42.007 Y57.638 E0.02123
G1 X42.292 Y58.042 E0.02123
G1 X42.629 Y58.403 E0.02123
G1 X43.012 Y58.714 E0.02123
G1 X43.433 Y58.971 E0.02123
G1 X43.886 Y59.167 E0.02123
G1 X44.362 Y59.301 E0.02123
G1 X44.851 Y59.368 E0.02123
G1 X45.345 Y59.368 E0.02123
G1 X45.834 Y59.301 E0.02123
G1 X46.309 Y59.167 E0.02123
G1 X46.762 Y58.971 E0.02123
G1 X47.184 Y58.714 E0.02123
G1 X47.567 Y58.403 E0.02123
G1 X47.91 Y58.035 E0.02161
G1 X48.228 Y57.572 E0.02414
G1 X48.419 Y57.192 E0.01831
G1 X48.581 Y56.735 E0.02084
G1 X48.681 Y56.251 E0.02123
G1 X48.715 Y55.759 E0.02123
G1 X48.681 Y55.266 E0.02123
G1 X48.581 Y54.783 E0.02123
G1 X48.416 Y54.318 E0.02123
G1 X48.188 Y53.879 E0.02123
G1 X47.904 Y53.476 E0.02123
G1 X47.567 Y53.115 E0.02123
G1 X47.184 Y52.804 E0.02123
G1 X46.762 Y52.547 E0.02123
G1 X46.309 Y52.35 E0.02123
G1 X45.834 Y52.217 E0.02123
G1 X45.345 Y52.15 E0.02123
G1 X44.851 Y52.15 E0.02123
G1 X44.362 Y52.217 E0.02123
G1 X43.886 Y52.35 E0.02123
G1 X43.433 Y52.547 E0.02123
G1 X43.012 Y52.804 E0.02123
G1 X42.73 Y53.033 E0.01561
G1 X42.958 Y53.52 F18000
G1 F1800
G1 X42.694 Y53.803 E0.01666
G1 X42.45 Y54.149 E0.01819
G1 X42.255 Y54.524 E0.01819
G1 X42.114 Y54.923 E0.01819
G1 X42.027 Y55.337 E0.01819
G1 X41.999 Y55.759 E0.01819
G1 X42.027 Y56.181 E0.01819
G1 X42.114 Y56.595 E0.01819
G1 X42.255 Y56.994 E0.01819
G1 X42.45 Y57.369 E0.01819
G1 X42.694 Y57.715 E0.01819
G1 X42.982 Y58.024 E0.01819
G1 X43.311 Y58.291 E0.01819
G1 X43.672 Y58.511 E0.01819
G1 X44.06 Y58.679 E0.01819
G1 X44.467 Y58.793 E0.01819
G1 X44.886 Y58.851 E0.01819
G1 X45.309 Y58.851 E0.01819
G1 X45.728 Y58.793 E0.01819
G1 X46.135 Y58.679 E0.01819
G1 X46.523 Y58.511 E0.01819
G1 X46.885 Y58.291 E0.01819
G1 X47.213 Y58.024 E0.01819
G1 X47.505 Y57.711 E0.01843
G1 X47.781 Y57.309 E0.02095
G1 X47.942 Y56.988 E0.01541
G1 X48.082 Y56.595 E0.01795
G1 X48.168 Y56.181 E0.01819
G1 X48.197 Y55.759 E0.01819
G1 X48.168 Y55.337 E0.01819
G1 X48.082 Y54.923 E0.01819
G1 X47.94 Y54.524 E0.01819
G1 X47.746 Y54.149 E0.01819
G1 X47.502 Y53.803 E0.01819
G1 X47.213 Y53.494 E0.01819
G1 X46.885 Y53.227 E0.01819
G1 X46.523 Y53.007 E0.01819
G1 X46.135 Y52.839 E0.01819
G1 X45.728 Y52.725 E0.01819
G1 X45.309 Y52.667 E0.01819
G1 X44.886 Y52.667 E0.01819
G1 X44.467 Y52.725 E0.01819
G1 X44.06 Y52.839 E0.01819
G1 X43.672 Y53.007 E0.01819
G1 X43.311 Y53.227 E0.01819
G1 X43.002 Y53.478 E0.01713
G1 X43.336 Y53.873 F18000
;TYPE:External perimeter
G1 F1800
G1 X43.096 Y54.13 E0.01514
G1 X42.893 Y54.418 E0.01514
G1 X42.731 Y54.731 E0.01514
G1 X42.613 Y55.063 E0.01514
G1 X42.541 Y55.407 E0.01514
G1 X42.517 Y55.759 E0.01514
G1 X42.541 Y56.11 E0.01514
G1 X42.613 Y56.455 E0.01514
G1 X42.731 Y56.787 E0.01514
G1 X42.893 Y57.1 E0.01514
G1 X43.096 Y57.388 E0.01514
G1 X43.336 Y57.645 E0.01514
G1 X43.609 Y57.867 E0.01514
G1 X43.91 Y58.05 E0.01514
G1 X44.233 Y58.191 E0.01514
G1 X44.573 Y58.286 E0.01514
G1 X44.922 Y58.334 E0.01514
G1 X45.274 Y58.334 E0.01514
G1 X45.623 Y58.286 E0.01514
G1 X45.962 Y58.191 E0.01514
G1 X46.285 Y58.05 E0.01514
G1 X46.586 Y57.867 E0.01514
G1 X46.859 Y57.645 E0.01514
G1 X47.101 Y57.386 E0.01524
G1 X47.335 Y57.045 E0.01777
G1 X47.466 Y56.785 E0.01252
G1 X47.583 Y56.455 E0.01505
G1 X47.654 Y56.11 E0.01514
G1 X47.678 Y55.759 E0.01514
G1 X47.654 Y55.407 E0.01514
G1 X47.583 Y55.063 E0.01514
G1 X47.465 Y54.731 E0.01514
G1 X47.303 Y54.418 E0.01514
G1 X47.1 Y54.13 E0.01514
G1 X46.859 Y53.873 E0.01514
G1 X46.586 Y53.65 E0.01514
G1 X46.285 Y53.467 E0.01514
G1 X45.962 Y53.327 E0.01514
G1 X45.623 Y53.232 E0.01514
G1 X45.274 Y53.184 E0.01514
G1 X44.922 Y53.184 E0.01514
G1 X44.573 Y53.232 E0.01514
G1 X44.233 Y53.327 E0.01514
G1 X43.91 Y53.467 E0.01514
G1 X43.609 Y53.65 E0.01514
G1 X43.383 Y53.835 E0.01256
;WIPE_START
M204 S1500
G1 X42.951 Y53.765 F18000
;WIPE_END
G1 E-2 F3000
G1 Z0.6 F18000
; acceleration to travel
G1 X48.264 Y56.135
; decel to extrusion
M204 S1000
G1 X51.805 Y57.715
; end travel
G1 Z0.2
G1 E2 F1800
;TYPE:Internal perimeter
G1 X52.038 Y57.964 E0.01466
G1 X52.358 Y58.224 E0.01771
G1 X52.71 Y58.438 E0.01771
G1 X53.087 Y58.602 E0.01771
G1 X53.484 Y58.713 E0.01771
G1 X53.892 Y58.769 E0.01771
G1 X54.304 Y58.769 E0.01771
G1 X54.712 Y58.713 E0.01771
G1 X55.108 Y58.602 E0.01771
G1 X55.486 Y58.438 E0.01771
G1 X55.932 Y58.166 E0.02247
G1 X55.661 Y59.119 E0.0426
G1 X55.434 Y59.763 E0.02936
G1 X55.168 Y60.392 E0.02935
G1 X54.864 Y61.003 E0.02936
G1 X54.522 Y61.594 E0.02935
G1 X54.145 Y62.164 E0.02936
G1 X53.734 Y62.708 E0.02936
G1 X53.29 Y63.227 E0.02935
G1 X52.814 Y63.717 E0.02935
G1 X52.31 Y64.177 E0.02936
G1 X51.778 Y64.605 E0.02935
G1 X51.221 Y65 E0.02935
G1 X50.64 Y65.359 E0.02936
G1 X50.039 Y65.682 E0.02935
G1 X49.419 Y65.967 E0.02936
G1 X48.782 Y66.214 E0.02936
G1 X48.131 Y66.421 E0.02935
G1 X47.551 Y66.567 E0.02571
G1 X47.865 Y65.961 E0.02933
G1 X48.003 Y65.573 E0.01771
G1 X48.087 Y65.17 E0.01771
G1 X48.115 Y64.759 E0.01771
G1 X48.087 Y64.348 E0.01771
G1 X48.003 Y63.945 E0.01771
G1 X47.865 Y63.557 E0.01771
G1 X47.676 Y63.191 E0.01771
G1 X47.438 Y62.855 E0.01771
G1 X47.157 Y62.554 E0.01771
G1 X46.838 Y62.294 E0.01771
G1 X46.486 Y62.08 E0.01771
G1 X46.108 Y61.916 E0.01771
G1 X45.712 Y61.805 E0.01771
G1 X45.304 Y61.749 E0.01771
G1 X44.892 Y61.749 E0.01771
G1 X44.484 Y61.805 E0.01771
G1 X44.087 Y61.916 E0.01771
G1 X43.71 Y62.08 E0.01771
G1 X43.358 Y62.294 E0.01771
G1 X43.038 Y62.554 E0.01771
G1 X42.757 Y62.855 E0.01771
G1 X42.52 Y63.191 E0.01771
G1 X42.33 Y63.557 E0.01771
G1 X42.192 Y63.945 E0.01771
G1 X42.108 Y64.348 E0.01771
G1 X42.08 Y64.759 E0.01771
G1 X42.108 Y65.17 E0.01771
G1 X42.192 Y65.573 E0.01771
G1 X42.33 Y65.961 E0.01771
G1 X42.644 Y66.567 E0.02933
G1 X42.064 Y66.421 E0.02571
G1 X41.413 Y66.214 E0.02935
G1 X40.777 Y65.967 E0.02935
G1 X40.157 Y65.682 E0.02936
G1 X39.555 Y65.359 E0.02935
G1 X38.975 Y65 E0.02936
G1 X38.417 Y64.605 E0.02935
G1 X37.885 Y64.177 E0.02935
G1 X37.381 Y63.717 E0.02936
G1 X36.906 Y63.227 E0.02935
G1 X36.461 Y62.708 E0.02935
G1 X36.05 Y62.164 E0.02936
G1 X35.673 Y61.594 E0.02936
G1 X35.332 Y61.003 E0.02935
G1 X35.027 Y60.392 E0.02936
G1 X34.761 Y59.763 E0.02935
G1 X34.534 Y59.119 E0.02936
G1 X34.263 Y58.166 E0.0426
G1 X34.709 Y58.438 E0.02247
G1 X35.087 Y58.602 E0.01771
G1 X35.484 Y58.713 E0.01771
G1 X35.892 Y58.769 E0.01771
G1 X36.304 Y58.769 E0.01771
G1 X36.712 Y58.713 E0.01771
G1 X37.108 Y58.602 E0.01771
G1 X37.486 Y58.438 E0.01771
G1 X37.838 Y58.224 E0.01771
G1 X38.157 Y57.964 E0.01771
G1 X38.438 Y57.663 E0.01771
G1 X38.676 Y57.327 E0.01771
G1 X38.865 Y56.961 E0.01771
G1 X39.003 Y56.573 E0.01771
G1 X39.087 Y56.17 E0.01771
G1 X39.115 Y55.759 E0.01771
G1 X39.087 Y55.348 E0.01771
