; generated by SuperSlicer 2.5.59.12 on 2024-08-02 at 01:08:12 UTC


;
;

;
;
; TODO: check the size of the extruder and the y-bar clearance. Optimize & test supports.

; external perimeters extrusion width = 0.56mm
; perimeters extrusion width = 0.56mm
; infill extrusion width = 0.56mm
; solid infill extrusion width = 0.56mm
; top infill extrusion width = 0.56mm
; support material extrusion width = 0.44mm
; first layer extrusion width = 0.56mm

; object:{"name":"CamShaftCap","id":"CamShaftCap.STL id:0 copy 0","object_center":[60.000000,60.000000,0.000000],"boundingbox_center":[60.000000,60.000000,2.500000],"boundingbox_size":[10.992708,10.996353,5.000000]}
EXCLUDE_OBJECT_DEFINE NAME=CamShaftCap_STL_id_0_copy_0 CENTER=60.000000,60.000000 POLYGON=[[54.50,59.72],[54.56,59.15],[54.68,58.60],[54.85,58.06],[55.08,57.54],[55.36,57.05],[55.68,56.59],[56.06,56.16],[56.47,55.78],[56.93,55.44],[57.41,55.15],[57.92,54.91],[58.46,54.72],[59.01,54.59],[59.57,54.52],[60.14,54.50],[60.70,54.55],[61.26,54.65],[61.80,54.81],[62.33,55.02],[62.83,55.28],[63.30,55.60],[63.73,55.96],[64.13,56.37],[64.48,56.81],[64.78,57.29],[65.04,57.80],[65.24,58.33],[65.38,58.87],[65.47,59.43],[65.50,60.00],[65.47,60.57],[65.38,61.13],[65.24,61.67],[65.04,62.20],[64.78,62.71],[64.48,63.19],[64.13,63.63],[63.73,64.04],[63.30,64.40],[62.83,64.72],[62.33,64.98],[61.80,65.19],[61.26,65.35],[60.70,65.45],[60.14,65.50],[59.57,65.48],[59.01,65.41],[58.46,65.28],[57.92,65.09],[57.41,64.85],[56.93,64.56],[56.47,64.22],[56.06,63.84],[55.68,63.41],[55.36,62.95],[55.08,62.46],[54.85,61.94],[54.68,61.40],[54.56,60.85],[54.50,60.28],[54.50,59.72]]
; plater:{"center":[60.000000,60.000000,0.000000],"boundingbox_center":[60.000000,60.000000,2.500000],"boundingbox_size":[10.992708,10.996353,5.000000]}

M107
;TYPE:Custom
; M190 S0
;M109 S0 ; uncomment to remove set&wait temp gcode added automatically after this start gcode
print_start EXTRUDER=245 BED=90 CHAMBER=50

;G92 E0
;G1 E10 F1500 ; prime the nozzle
M107
G21 ; set units to millimeters
G90 ; use absolute coordinates
M83 ; use relative distances for extrusion
SET_PRESSURE_ADVANCE ADVANCE=0.04
M104 S245 ; set temperature
M109 S245 ; set temperature and wait for it to be reached
M190 S90 ; set bed temperature and wait for it to be reached
;LAYER_CHANGE
;Z:0.2
;HEIGHT:0.2
;BEFORE_LAYER_CHANGE
;0.2


G1 Z0.2 F18000
;AFTER_LAYER_CHANGE
;0.2
TIMELAPSE_TAKE_FRAME
G92 E0
G1 E-2.000000 F3000
G1 Z0.6 F18000
M204 S1000
G1 X51.142 Y51.878
G1 Z0.2
G1 E2.000000 F1800
;TYPE:Skirt
;WIDTH:0.52
M107
G1 X50.354 Y52.831 E0.04662
G1 X49.668 Y53.861 E0.04662
G1 X49.091 Y54.955 E0.04662
G1 X48.63 Y56.103 E0.04663
G1 X48.29 Y57.293 E0.04662
G1 X48.021 Y59.019 E0.06585
G1 X47.983 Y60.256 E0.04662
G1 X48.073 Y61.489 E0.04662
G1 X48.475 Y63.41 E0.07394
G1 X48.886 Y64.576 E0.04662
G1 X49.416 Y65.695 E0.04662
G1 X50.057 Y66.752 E0.04662
G1 X50.804 Y67.738 E0.04662
G1 X51.649 Y68.643 E0.04662
G1 X52.582 Y69.455 E0.04663
G1 X53.593 Y70.167 E0.04662
G1 X54.672 Y70.772 E0.04662
G1 X55.808 Y71.262 E0.04662
G1 X56.988 Y71.633 E0.04662
G1 X58.2 Y71.881 E0.04662
G1 X59.432 Y72.002 E0.04662
G1 X61.178 Y71.957 E0.06585
G1 X62.402 Y71.773 E0.04662
G1 X63.599 Y71.463 E0.04662
G1 X64.759 Y71.032 E0.04663
G1 X65.868 Y70.484 E0.04662
G1 X66.915 Y69.824 E0.04662
G1 X67.888 Y69.061 E0.04662
G1 X68.778 Y68.201 E0.04662
G1 X69.575 Y67.255 E0.04662
G1 X70.27 Y66.232 E0.04663
G1 X70.856 Y65.142 E0.04662
G1 X71.327 Y63.998 E0.04662
G1 X71.678 Y62.812 E0.04662
G1 X71.906 Y61.596 E0.04662
G1 X72.007 Y60.363 E0.04662
G1 X71.98 Y59.126 E0.04662
G1 X71.827 Y57.899 E0.04663
G1 X71.327 Y56.002 E0.07393
G1 X70.856 Y54.858 E0.04663
G1 X70.27 Y53.768 E0.04662
G1 X69.575 Y52.745 E0.04662
G1 X68.778 Y51.799 E0.04662
G1 X67.888 Y50.939 E0.04662
G1 X66.915 Y50.176 E0.04662
G1 X65.868 Y49.516 E0.04662
G1 X64.759 Y48.968 E0.04663
G1 X63.599 Y48.537 E0.04662
G1 X62.402 Y48.227 E0.04662
G1 X60.669 Y48.003 E0.06585
G1 X59.432 Y47.998 E0.04662
G1 X58.2 Y48.119 E0.04662
G1 X56.988 Y48.367 E0.04662
G1 X55.808 Y48.738 E0.04662
G1 X54.031 Y49.57 E0.07394
G1 X52.99 Y50.238 E0.04662
G1 X52.024 Y51.01 E0.04662
G1 X51.185 Y51.836 E0.04436
M107
G1 X51.5 Y52.193 F18000
M107
G1 F1800
G1 X50.742 Y53.108 E0.04477
G1 X50.083 Y54.096 E0.04477
G1 X49.528 Y55.146 E0.04478
G1 X49.085 Y56.248 E0.04477
G1 X48.757 Y57.39 E0.04477
G1 X48.495 Y59.068 E0.064
G1 X48.46 Y60.256 E0.04477
G1 X48.548 Y61.44 E0.04476
G1 X48.929 Y63.265 E0.07025
G1 X49.323 Y64.385 E0.04477
G1 X49.831 Y65.46 E0.04477
G1 X50.446 Y66.476 E0.04477
G1 X51.163 Y67.424 E0.04477
G1 X51.973 Y68.292 E0.04477
G1 X52.868 Y69.073 E0.04477
G1 X53.839 Y69.758 E0.04477
G1 X54.875 Y70.34 E0.04477
G1 X55.965 Y70.812 E0.04477
G1 X57.098 Y71.169 E0.04478
G1 X58.262 Y71.408 E0.04477
G1 X59.444 Y71.526 E0.04477
G1 X60.632 Y71.521 E0.04477
G1 X61.813 Y71.395 E0.04477
G1 X62.975 Y71.148 E0.04477
G1 X64.106 Y70.782 E0.04477
G1 X65.192 Y70.303 E0.04477
G1 X66.224 Y69.714 E0.04477
G1 X67.19 Y69.022 E0.04477
G1 X68.079 Y68.234 E0.04477
G1 X68.883 Y67.36 E0.04477
G1 X69.593 Y66.407 E0.04478
G1 X70.429 Y64.929 E0.06399
G1 X70.881 Y63.83 E0.04477
G1 X71.217 Y62.691 E0.04477
G1 X71.434 Y61.523 E0.04477
G1 X71.53 Y60.339 E0.04478
G1 X71.504 Y59.151 E0.04477
G1 X71.356 Y57.972 E0.04477
G1 X70.881 Y56.17 E0.07024
G1 X70.429 Y55.071 E0.04477
G1 X69.867 Y54.024 E0.04477
G1 X69.201 Y53.041 E0.04477
G1 X68.436 Y52.132 E0.04477
G1 X67.582 Y51.306 E0.04477
G1 X66.648 Y50.572 E0.04477
G1 X65.644 Y49.938 E0.04477
G1 X64.579 Y49.41 E0.04477
G1 X63.466 Y48.995 E0.04478
G1 X62.316 Y48.697 E0.04477
G1 X60.632 Y48.479 E0.06399
G1 X59.444 Y48.474 E0.04477
G1 X58.262 Y48.592 E0.04477
G1 X57.098 Y48.831 E0.04477
G1 X55.965 Y49.188 E0.04478
G1 X54.277 Y49.979 E0.07024
G1 X53.277 Y50.62 E0.04477
G1 X52.348 Y51.36 E0.04477
G1 X51.543 Y52.151 E0.04251
M107
G1 X51.858 Y52.508 F18000
M107
G1 F1800
G1 X51.131 Y53.384 E0.04292
G1 X50.498 Y54.331 E0.04292
G1 X49.965 Y55.337 E0.04292
G1 X49.539 Y56.393 E0.04292
G1 X49.224 Y57.488 E0.04292
G1 X48.97 Y59.117 E0.06215
G1 X48.938 Y60.256 E0.04292
G1 X49.022 Y61.391 E0.04291
G1 X49.384 Y63.12 E0.06655
G1 X49.761 Y64.194 E0.04292
G1 X50.246 Y65.225 E0.04292
G1 X50.835 Y66.199 E0.04292
G1 X51.521 Y67.109 E0.04292
G1 X52.297 Y67.942 E0.04292
G1 X53.154 Y68.692 E0.04292
G1 X54.084 Y69.349 E0.04292
G1 X55.077 Y69.908 E0.04292
G1 X56.122 Y70.361 E0.04292
G1 X57.208 Y70.704 E0.04292
G1 X58.323 Y70.934 E0.04292
G1 X59.456 Y71.049 E0.04292
G1 X60.595 Y71.046 E0.04292
G1 X61.728 Y70.925 E0.04292
G1 X63.333 Y70.547 E0.06215
G1 X64.399 Y70.148 E0.04292
G1 X65.419 Y69.641 E0.04292
G1 X66.382 Y69.033 E0.04292
G1 X67.277 Y68.328 E0.04292
G1 X68.095 Y67.535 E0.04292
G1 X68.826 Y66.663 E0.04292
G1 X69.465 Y65.72 E0.04292
G1 X70.003 Y64.716 E0.04292
G1 X70.434 Y63.662 E0.04292
G1 X70.756 Y62.569 E0.04292
G1 X70.963 Y61.449 E0.04292
G1 X71.054 Y60.314 E0.04292
G1 X71.027 Y59.175 E0.04292
G1 X70.884 Y58.046 E0.04292
G1 X70.434 Y56.338 E0.06654
G1 X70.003 Y55.284 E0.04292
G1 X69.465 Y54.28 E0.04292
G1 X68.826 Y53.337 E0.04293
G1 X68.095 Y52.465 E0.04292
G1 X67.277 Y51.672 E0.04292
G1 X66.382 Y50.967 E0.04292
G1 X65.419 Y50.359 E0.04292
G1 X64.399 Y49.852 E0.04292
G1 X63.333 Y49.453 E0.04292
G1 X62.23 Y49.166 E0.04292
G1 X60.595 Y48.954 E0.06214
G1 X59.456 Y48.951 E0.04292
G1 X58.323 Y49.066 E0.04292
G1 X57.208 Y49.296 E0.04292
G1 X56.122 Y49.639 E0.04292
G1 X54.522 Y50.388 E0.06655
G1 X53.563 Y51.001 E0.04292
G1 X52.672 Y51.71 E0.04292
G1 X51.901 Y52.466 E0.04066
M107
G1 X52.217 Y52.822 F18000
M107
G1 F1800
G1 X51.52 Y53.66 E0.04107
G1 X50.913 Y54.566 E0.04106
G1 X50.402 Y55.528 E0.04108
G1 X49.994 Y56.538 E0.04106
G1 X49.691 Y57.585 E0.04107
G1 X49.444 Y59.166 E0.0603
G1 X49.415 Y60.256 E0.04107
G1 X49.497 Y61.342 E0.04107
G1 X49.838 Y62.975 E0.06285
G1 X50.198 Y64.003 E0.04106
G1 X50.661 Y64.99 E0.04107
G1 X51.224 Y65.923 E0.04107
G1 X51.879 Y66.794 E0.04107
G1 X52.621 Y67.592 E0.04107
G1 X53.441 Y68.31 E0.04107
G1 X54.33 Y68.94 E0.04107
G1 X55.279 Y69.476 E0.04107
G1 X56.278 Y69.91 E0.04107
G1 X57.317 Y70.24 E0.04107
G1 X58.384 Y70.461 E0.04107
G1 X59.468 Y70.572 E0.04107
G1 X60.558 Y70.57 E0.04107
G1 X61.642 Y70.456 E0.04107
G1 X63.199 Y70.089 E0.06029
G1 X64.22 Y69.706 E0.04107
G1 X65.195 Y69.22 E0.04107
G1 X66.116 Y68.637 E0.04107
G1 X66.971 Y67.962 E0.04107
G1 X67.753 Y67.202 E0.04107
G1 X68.452 Y66.367 E0.04107
G1 X69.062 Y65.464 E0.04107
G1 X69.576 Y64.502 E0.04107
G1 X69.988 Y63.494 E0.04107
G1 X70.294 Y62.448 E0.04107
G1 X70.491 Y61.376 E0.04107
G1 X70.577 Y60.29 E0.04107
G1 X70.551 Y59.2 E0.04107
G1 X70.413 Y58.119 E0.04107
G1 X69.988 Y56.506 E0.06285
G1 X69.576 Y55.498 E0.04107
G1 X69.062 Y54.536 E0.04106
G1 X68.452 Y53.633 E0.04108
G1 X67.753 Y52.798 E0.04106
G1 X66.971 Y52.038 E0.04107
G1 X66.116 Y51.363 E0.04107
G1 X65.195 Y50.78 E0.04107
G1 X64.22 Y50.294 E0.04107
G1 X63.199 Y49.911 E0.04107
G1 X62.145 Y49.636 E0.04107
G1 X60.558 Y49.43 E0.0603
G1 X59.468 Y49.428 E0.04107
G1 X58.384 Y49.539 E0.04107
G1 X57.317 Y49.76 E0.04107
G1 X56.278 Y50.09 E0.04107
G1 X54.768 Y50.797 E0.06284
G1 X53.849 Y51.383 E0.04107
G1 X52.996 Y52.061 E0.04107
G1 X52.26 Y52.781 E0.03881
M107
G1 X52.575 Y53.137 F18000
M107
G1 F1800
G1 X51.909 Y53.937 E0.03922
G1 X51.328 Y54.801 E0.03922
G1 X50.84 Y55.719 E0.03922
G1 X50.448 Y56.684 E0.03922
G1 X50.158 Y57.683 E0.03921
G1 X49.919 Y59.215 E0.05845
G1 X49.892 Y60.256 E0.03922
G1 X49.972 Y61.293 E0.03922
G1 X50.293 Y62.83 E0.05915
G1 X50.635 Y63.812 E0.03921
G1 X51.077 Y64.755 E0.03922
G1 X51.613 Y65.647 E0.03922
G1 X52.238 Y66.479 E0.03922
G1 X52.945 Y67.242 E0.03922
G1 X53.727 Y67.929 E0.03922
G1 X54.575 Y68.531 E0.03922
G1 X55.481 Y69.044 E0.03922
G1 X56.435 Y69.46 E0.03922
G1 X57.427 Y69.776 E0.03922
G1 X58.446 Y69.988 E0.03922
G1 X59.481 Y70.095 E0.03922
G1 X61.031 Y70.055 E0.05844
G1 X62.059 Y69.895 E0.03922
G1 X63.066 Y69.631 E0.03922
G1 X64.04 Y69.264 E0.03922
G1 X64.971 Y68.799 E0.03922
G1 X65.849 Y68.241 E0.03921
G1 X66.666 Y67.595 E0.03922
G1 X67.411 Y66.869 E0.03922
G1 X68.078 Y66.071 E0.03922
G1 X68.66 Y65.207 E0.03922
G1 X69.149 Y64.289 E0.03922
G1 X69.542 Y63.325 E0.03922
G1 X69.833 Y62.326 E0.03922
G1 X70.02 Y61.302 E0.03922
G1 X70.101 Y60.265 E0.03922
G1 X70.075 Y59.225 E0.03922
G1 X69.941 Y58.192 E0.03922
G1 X69.542 Y56.675 E0.05914
G1 X69.149 Y55.711 E0.03922
G1 X68.66 Y54.793 E0.03922
G1 X68.078 Y53.929 E0.03922
G1 X67.411 Y53.131 E0.03922
G1 X66.666 Y52.405 E0.03922
G1 X65.849 Y51.759 E0.03922
G1 X64.971 Y51.201 E0.03922
G1 X64.04 Y50.736 E0.03922
G1 X63.066 Y50.369 E0.03922
G1 X62.059 Y50.105 E0.03922
G1 X60.521 Y49.906 E0.05844
G1 X59.481 Y49.905 E0.03922
G1 X58.446 Y50.012 E0.03922
G1 X57.427 Y50.224 E0.03922
G1 X56.435 Y50.54 E0.03922
G1 X55.014 Y51.206 E0.05915
G1 X54.136 Y51.764 E0.03921
G1 X53.32 Y52.411 E0.03922
G1 X52.618 Y53.096 E0.03696
M107
G1 X52.596 Y53.836 F18000
M107
G1 F1800
G1 X51.492 Y55.48 E0.07464
G1 X50.747 Y57.316 E0.07464
G1 X50.394 Y59.264 E0.07464
G1 X50.446 Y61.244 E0.07463
G1 X50.747 Y62.684 E0.05546
G1 X51.492 Y64.52 E0.07464
G1 X52.596 Y66.164 E0.07463
G1 X54.013 Y67.547 E0.07464
G1 X55.684 Y68.611 E0.07464
G1 X57.536 Y69.312 E0.07464
G1 X59.493 Y69.618 E0.07464
G1 X61.471 Y69.517 E0.07463
G1 X62.933 Y69.173 E0.0566
G1 X64.747 Y68.378 E0.07463
G1 X66.36 Y67.229 E0.07464
G1 X67.704 Y65.775 E0.07464
G1 X68.722 Y64.076 E0.07464
G1 X69.372 Y62.205 E0.07464
G1 X69.624 Y60.24 E0.07464
G1 X69.47 Y58.266 E0.07463
G1 X69.095 Y56.843 E0.05546
G1 X68.257 Y55.049 E0.07463
G1 X67.07 Y53.463 E0.07464
G1 X65.968 Y52.443 E0.05659
G1 X64.296 Y51.382 E0.07464
G1 X62.442 Y50.685 E0.07464
G1 X60.485 Y50.381 E0.07464
G1 X59.014 Y50.419 E0.05545
G1 X57.075 Y50.823 E0.07464
G1 X55.259 Y51.615 E0.07464
G1 X53.644 Y52.761 E0.07464
G1 X52.638 Y53.793 E0.05433
M107
G1 X52.954 Y54.151 F18000
M107
G1 F1800
G1 X51.907 Y55.715 E0.07094
G1 X51.202 Y57.461 E0.07094
G1 X50.868 Y59.313 E0.07095
G1 X50.921 Y61.195 E0.07094
G1 X51.202 Y62.539 E0.05175
G1 X51.907 Y64.285 E0.07094
G1 X52.954 Y65.849 E0.07095
G1 X54.3 Y67.166 E0.07094
G1 X55.886 Y68.179 E0.07094
G1 X57.646 Y68.847 E0.07094
G1 X59.505 Y69.141 E0.07095
G1 X61.385 Y69.048 E0.07094
G1 X62.799 Y68.714 E0.05474
G1 X64.522 Y67.957 E0.07094
G1 X66.054 Y66.863 E0.07094
G1 X67.33 Y65.479 E0.07095
G1 X68.296 Y63.863 E0.07094
G1 X68.91 Y62.083 E0.07094
G1 X69.148 Y60.216 E0.07094
G1 X68.999 Y58.339 E0.07095
G1 X68.649 Y57.011 E0.05175
G1 X67.855 Y55.305 E0.07094
G1 X66.728 Y53.796 E0.07095
G1 X65.317 Y52.551 E0.07094
G1 X63.68 Y51.62 E0.07094
G1 X61.888 Y51.044 E0.07094
G1 X60.448 Y50.857 E0.05474
G1 X59.075 Y50.892 E0.05176
G1 X57.231 Y51.273 E0.07094
G1 X55.505 Y52.024 E0.07094
G1 X53.968 Y53.111 E0.07095
G1 X52.996 Y54.108 E0.05247
M107
G1 X53.075 Y54.766 F18000
M107
G1 F1800
G1 X52.151 Y56.293 E0.06725
G1 X51.559 Y57.976 E0.06725
G1 X51.343 Y59.362 E0.05289
G1 X51.395 Y61.146 E0.06724
G1 X51.656 Y62.394 E0.04806
G1 X52.322 Y64.05 E0.06725
G1 X53.313 Y65.534 E0.06725
G1 X54.586 Y66.784 E0.06724
G1 X56.088 Y67.747 E0.06725
G1 X57.755 Y68.383 E0.06725
G1 X59.518 Y68.664 E0.06724
G1 X61.3 Y68.579 E0.06725
G1 X63.027 Y68.131 E0.06725
G1 X64.626 Y67.339 E0.06724
G1 X66.03 Y66.237 E0.06725
G1 X66.956 Y65.182 E0.05289
G1 X67.869 Y63.649 E0.06725
G1 X68.449 Y61.962 E0.06724
G1 X68.671 Y60.191 E0.06725
G1 X68.527 Y58.413 E0.06725
G1 X68.202 Y57.18 E0.04805
G1 X67.452 Y55.561 E0.06725
G1 X66.386 Y54.129 E0.06725
G1 X65.05 Y52.947 E0.06724
G1 X63.847 Y52.224 E0.05289
G1 X62.175 Y51.601 E0.06725
G1 X60.411 Y51.333 E0.06725
G1 X59.136 Y51.366 E0.04805
G1 X57.388 Y51.724 E0.06725
G1 X55.75 Y52.433 E0.06725
G1 X54.292 Y53.461 E0.06724
G1 X53.116 Y54.722 E0.06499
M107
G1 X53.464 Y55.043 F18000
M107
G1 F1800
G1 X52.588 Y56.484 E0.06355
G1 X52.026 Y58.073 E0.06355
G1 X51.8 Y59.744 E0.06355
G1 X51.921 Y61.426 E0.06355
G1 X52.384 Y63.048 E0.06355
G1 X52.989 Y64.26 E0.05104
G1 X54.009 Y65.603 E0.06355
G1 X55.281 Y66.709 E0.06356
G1 X56.29 Y67.315 E0.04436
G1 X57.865 Y67.919 E0.06355
G1 X59.53 Y68.187 E0.06355
G1 X61.214 Y68.109 E0.06355
G1 X62.847 Y67.689 E0.06355
G1 X64.36 Y66.943 E0.06355
G1 X65.688 Y65.904 E0.06355
G1 X66.775 Y64.615 E0.06355
G1 X67.576 Y63.13 E0.06355
G1 X67.988 Y61.84 E0.05104
G1 X68.195 Y60.167 E0.06355
G1 X68.056 Y58.486 E0.06355
G1 X67.756 Y57.348 E0.04437
G1 X67.049 Y55.817 E0.06355
G1 X66.045 Y54.462 E0.06355
G1 X64.784 Y53.342 E0.06355
G1 X63.321 Y52.504 E0.06355
G1 X62.042 Y52.059 E0.05104
G1 X60.374 Y51.808 E0.06355
G1 X59.197 Y51.839 E0.04436
G1 X57.545 Y52.175 E0.06355
G1 X55.996 Y52.842 E0.06355
G1 X54.616 Y53.811 E0.06355
G1 X53.505 Y54.999 E0.06129
M107
G1 E-2.000000 F3000
M204 S1500
G1 Z0.6 F18000
; printing object CamShaftCap.STL id:0 copy 0
EXCLUDE_OBJECT_START NAME=CamShaftCap_STL_id_0_copy_0
; acceleration to travel
G1 X56.189 Y56.372
; decel to extrusion
M204 S1000
G1 X57.978 Y57.288
; end travel
G1 Z0.2
G1 E2.000000 F1800
;TYPE:Internal perimeter
;WIDTH:0.56
M107
G1 X57.747 Y57.475 E0.01214
G1 X57.378 Y57.86 E0.02179
G1 X57.183 Y58.123 E0.01337
G1 X56.913 Y58.606 E0.02262
G1 X56.722 Y59.147 E0.02344
G1 X56.625 Y59.713 E0.02344
G1 X56.625 Y60.287 E0.02344
G1 X56.722 Y60.853 E0.02344
G1 X56.913 Y61.394 E0.02344
G1 X57.193 Y61.895 E0.02344
G1 X57.541 Y62.325 E0.02261
G1 X57.777 Y62.552 E0.01337
G1 X58.222 Y62.881 E0.02262
G1 X58.735 Y63.139 E0.02344
G1 X59.264 Y63.302 E0.02261
G1 X59.587 Y63.357 E0.01337
G1 X60.12 Y63.38 E0.02179
G1 X60.446 Y63.352 E0.01337
G1 X60.987 Y63.235 E0.02261
G1 X61.52 Y63.021 E0.02344
G1 X61.991 Y62.731 E0.02262
G1 X62.246 Y62.525 E0.01337
G1 X62.629 Y62.126 E0.02261
G1 X62.95 Y61.65 E0.02344
G1 X63.187 Y61.127 E0.02344
G1 X63.326 Y60.591 E0.02262
G1 X63.368 Y60.267 E0.01336
G1 X63.368 Y59.713 E0.02262
G1 X63.271 Y59.147 E0.02344
G1 X63.079 Y58.606 E0.02344
G1 X62.809 Y58.123 E0.02261
G1 X62.615 Y57.86 E0.01337
G1 X62.232 Y57.46 E0.02262
G1 X61.77 Y57.119 E0.02344
G1 X61.258 Y56.861 E0.02344
G1 X60.729 Y56.698 E0.02261
G1 X60.406 Y56.643 E0.01337
G1 X59.853 Y56.62 E0.02262
G1 X59.284 Y56.692 E0.02344
G1 X58.754 Y56.855 E0.02261
G1 X58.456 Y56.989 E0.01337
G1 X58.027 Y57.253 E0.02056
M107
