; generated by SuperSlicer 2.5.59.12 on 2024-08-01 at 22:14:17 UTC


;
;

;
;
; TODO: check the size of the extruder and the y-bar clearance. Optimize & test supports.

; external perimeters extrusion width = 0.56mm
; perimeters extrusion width = 0.56mm
; infill extrusion width = 0.56mm
; solid infill extrusion width = 0.56mm
; top infill extrusion width = 0.56mm
; support material extrusion width = 0.44mm
; first layer extrusion width = 0.56mm

; object:{"name":"CamShaft1","id":"CamShaft1.STL id:0 copy 0","object_center":[60.000000,60.000000,0.000000],"boundingbox_center":[60.000000,60.000000,11.750000],"boundingbox_size":[25.990128,26.000000,23.500000]}
EXCLUDE_OBJECT_DEFINE NAME=CamShaft1_STL_id_0_copy_0 CENTER=60.000000,60.000000 POLYGON=[[47.00,60.36],[47.04,58.93],[47.24,57.51],[47.59,56.12],[48.09,54.78],[48.74,53.50],[49.53,52.30],[50.44,51.20],[51.46,50.20],[52.59,49.32],[53.81,48.57],[55.11,47.96],[56.46,47.49],[56.86,47.38],[57.86,47.18],[59.28,47.02],[60.00,47.00],[60.72,47.02],[62.14,47.18],[63.54,47.49],[64.89,47.96],[66.19,48.57],[67.41,49.32],[68.54,50.20],[69.56,51.20],[70.47,52.30],[71.26,53.50],[71.91,54.78],[72.41,56.12],[72.76,57.51],[72.96,58.93],[73.00,60.36],[72.88,61.79],[72.69,62.83],[72.60,63.19],[72.17,64.56],[71.60,65.87],[70.88,67.11],[70.03,68.26],[69.06,69.32],[67.98,70.26],[66.81,71.07],[65.55,71.76],[64.22,72.30],[62.84,72.69],[61.43,72.92],[60.00,73.00],[58.57,72.92],[57.16,72.69],[55.78,72.30],[54.45,71.76],[53.19,71.07],[52.02,70.26],[50.94,69.32],[49.97,68.26],[49.12,67.11],[48.40,65.87],[47.83,64.56],[47.40,63.19],[47.12,61.79],[47.00,60.36]]
; plater:{"center":[60.000000,60.000000,0.000000],"boundingbox_center":[60.000000,60.000000,11.750000],"boundingbox_size":[25.990128,26.000000,23.500000]}

M107
;TYPE:Custom
; M190 S0
;M109 S0 ; uncomment to remove set&wait temp gcode added automatically after this start gcode
print_start EXTRUDER=245 BED=90 CHAMBER=50

;G92 E0
;G1 E10 F1500 ; prime the nozzle
M107
G21 ; set units to millimeters
G90 ; use absolute coordinates
M83 ; use relative distances for extrusion
SET_PRESSURE_ADVANCE ADVANCE=0.04
M104 S245 ; set temperature
M109 S245 ; set temperature and wait for it to be reached
M190 S90 ; set bed temperature and wait for it to be reached
;LAYER_CHANGE
;Z:0.2
;HEIGHT:0.2
;BEFORE_LAYER_CHANGE
;0.2


G1 Z0.2 F18000
;AFTER_LAYER_CHANGE
;0.2
TIMELAPSE_TAKE_FRAME
G92 E0
G1 E-2.000000 F3000
G1 Z0.6 F18000
M204 S1000
G1 X47.998 Y46.651
G1 Z0.2
G1 E2.000000 F1800
;TYPE:Skirt
;WIDTH:0.52
M107
G1 X46.603 Y48.052 E0.07453
G1 X45.706 Y49.142 E0.05319
G1 X44.598 Y50.78 E0.07453
G1 X43.677 Y52.531 E0.07453
G1 X42.954 Y54.372 E0.07454
G1 X42.439 Y56.281 E0.07453
G1 X42.089 Y58.8 E0.09586
G1 X42.066 Y60.778 E0.07453
G1 X42.261 Y62.746 E0.07454
G1 X42.67 Y64.681 E0.07453
G1 X43.29 Y66.559 E0.07453
G1 X43.857 Y67.851 E0.05319
G1 X44.819 Y69.58 E0.07453
G1 X45.965 Y71.191 E0.07453
G1 X47.281 Y72.667 E0.07453
G1 X48.752 Y73.99 E0.07454
G1 X50.359 Y75.142 E0.07453
G1 X52.596 Y76.353 E0.09586
G1 X54.44 Y77.068 E0.07453
G1 X56.352 Y77.576 E0.07454
G1 X58.307 Y77.871 E0.07453
G1 X59.716 Y77.949 E0.05318
G1 X62.256 Y77.808 E0.09586
G1 X64.202 Y77.452 E0.07454
G1 X66.096 Y76.884 E0.07453
G1 X67.916 Y76.111 E0.07453
G1 X69.641 Y75.142 E0.07453
G1 X71.248 Y73.99 E0.07454
G1 X72.312 Y73.063 E0.05318
G1 X73.675 Y71.629 E0.07454
G1 X74.871 Y70.054 E0.07453
G1 X76.143 Y67.851 E0.09586
G1 X76.908 Y66.028 E0.07453
G1 X77.426 Y64.33 E0.0669
G1 X77.753 Y62.674 E0.0636
G1 X77.934 Y60.778 E0.07179
G1 X77.864 Y58.235 E0.09586
G1 X77.561 Y56.281 E0.07453
G1 X77.046 Y54.372 E0.07453
G1 X76.551 Y53.05 E0.05319
G1 X75.686 Y51.271 E0.07453
G1 X74.63 Y49.599 E0.07453
G1 X73.397 Y48.052 E0.07454
G1 X71.574 Y46.279 E0.09586
G1 X69.994 Y45.089 E0.07453
G1 X68.293 Y44.08 E0.07453
G1 X66.491 Y43.264 E0.07454
G1 X64.611 Y42.652 E0.07453
G1 X62.675 Y42.25 E0.07453
G1 X60.846 Y42.065 E0.06926
G1 X59.154 Y42.065 E0.06377
G1 X56.845 Y42.326 E0.08758
G1 X55.195 Y42.699 E0.06375
G1 X53.509 Y43.264 E0.06702
G1 X51.208 Y44.35 E0.09586
G1 X49.54 Y45.412 E0.07453
G1 X48.045 Y46.614 E0.07228
M107
G1 X48.331 Y46.993 F18000
M107
G1 F1800
G1 X46.971 Y48.356 E0.07255
G1 X45.769 Y49.86 E0.07255
G1 X44.74 Y51.487 E0.07256
G1 X44.103 Y52.746 E0.05318
G1 X43.401 Y54.539 E0.07255
G1 X42.901 Y56.398 E0.07256
G1 X42.566 Y58.814 E0.0919
G1 X42.542 Y60.739 E0.07256
G1 X42.729 Y62.655 E0.07255
G1 X43.126 Y64.539 E0.07255
G1 X43.727 Y66.367 E0.07256
G1 X44.527 Y68.119 E0.07255
G1 X45.232 Y69.341 E0.05319
G1 X46.349 Y70.909 E0.07255
G1 X47.632 Y72.344 E0.07255
G1 X49.065 Y73.63 E0.07256
G1 X50.631 Y74.75 E0.07255
G1 X52.776 Y75.911 E0.0919
G1 X54.57 Y76.609 E0.07256
G1 X56.43 Y77.106 E0.07255
G1 X57.822 Y77.338 E0.05319
G1 X59.743 Y77.472 E0.07255
G1 X62.178 Y77.338 E0.0919
G1 X64.072 Y76.993 E0.07256
G1 X65.917 Y76.442 E0.07255
G1 X67.689 Y75.691 E0.07255
G1 X68.931 Y75.02 E0.05319
G1 X70.529 Y73.946 E0.07255
G1 X71.999 Y72.703 E0.07256
G1 X73.324 Y71.306 E0.07255
G1 X74.486 Y69.772 E0.07255
G1 X75.706 Y67.66 E0.09191
G1 X76.453 Y65.885 E0.07255
G1 X76.962 Y64.22 E0.06564
G1 X77.284 Y62.589 E0.06262
G1 X77.458 Y60.739 E0.07007
G1 X77.391 Y58.301 E0.0919
G1 X77.099 Y56.398 E0.07255
G1 X76.599 Y54.539 E0.07256
G1 X75.897 Y52.746 E0.07255
G1 X75.26 Y51.487 E0.05319
G1 X74.231 Y49.86 E0.07255
G1 X73.029 Y48.356 E0.07255
G1 X71.281 Y46.655 E0.09191
G1 X69.744 Y45.495 E0.07255
G1 X68.09 Y44.511 E0.07256
G1 X66.337 Y43.715 E0.07255
G1 X64.507 Y43.117 E0.07255
G1 X62.622 Y42.724 E0.07256
G1 X60.833 Y42.542 E0.06777
G1 X59.167 Y42.542 E0.06278
G1 X56.942 Y42.793 E0.0844
G1 X55.317 Y43.16 E0.06276
G1 X53.663 Y43.715 E0.06574
G1 X51.458 Y44.756 E0.09191
G1 X49.833 Y45.788 E0.07255
G1 X48.378 Y46.956 E0.0703
M107
G1 X48.664 Y47.335 F18000
M107
G1 F1800
G1 X47.339 Y48.659 E0.07057
G1 X46.169 Y50.121 E0.07057
G1 X45.397 Y51.302 E0.05319
G1 X44.528 Y52.961 E0.07057
G1 X43.848 Y54.706 E0.07058
G1 X43.364 Y56.515 E0.07057
G1 X43.043 Y58.827 E0.08795
G1 X43.017 Y60.699 E0.07058
G1 X43.197 Y62.563 E0.07057
G1 X43.581 Y64.396 E0.07057
G1 X44.164 Y66.176 E0.07058
G1 X44.94 Y67.88 E0.07057
G1 X45.898 Y69.489 E0.07058
G1 X46.734 Y70.626 E0.05318
G1 X47.983 Y72.021 E0.07058
G1 X49.379 Y73.27 E0.07057
G1 X50.903 Y74.358 E0.07057
G1 X52.955 Y75.469 E0.08795
G1 X54.7 Y76.15 E0.07058
G1 X56.509 Y76.635 E0.07057
G1 X57.901 Y76.867 E0.05319
G1 X59.769 Y76.996 E0.07057
G1 X62.099 Y76.867 E0.08795
G1 X63.942 Y76.534 E0.07058
G1 X65.737 Y76 E0.07057
G1 X67.462 Y75.272 E0.07057
G1 X68.703 Y74.6 E0.05319
G1 X70.257 Y73.554 E0.07057
G1 X71.686 Y72.343 E0.07058
G1 X72.973 Y70.983 E0.07057
G1 X74.102 Y69.489 E0.07058
G1 X75.269 Y67.468 E0.08795
G1 X75.998 Y65.743 E0.07057
G1 X76.498 Y64.11 E0.06437
G1 X76.814 Y62.505 E0.06165
G1 X76.983 Y60.699 E0.06834
G1 X76.919 Y58.366 E0.08795
G1 X76.636 Y56.515 E0.07058
G1 X76.152 Y54.706 E0.07057
G1 X75.472 Y52.961 E0.07057
G1 X74.603 Y51.302 E0.07058
G1 X73.831 Y50.121 E0.05318
G1 X72.661 Y48.659 E0.07058
G1 X70.988 Y47.032 E0.08795
G1 X69.495 Y45.902 E0.07057
G1 X67.886 Y44.943 E0.07058
G1 X66.182 Y44.167 E0.07057
G1 X64.402 Y43.583 E0.07057
G1 X62.57 Y43.198 E0.07058
G1 X60.82 Y43.019 E0.06629
G1 X59.18 Y43.019 E0.06179
G1 X57.039 Y43.26 E0.08122
G1 X55.44 Y43.621 E0.06177
G1 X53.818 Y44.167 E0.06447
G1 X51.708 Y45.163 E0.08795
G1 X50.126 Y46.165 E0.07057
G1 X48.711 Y47.298 E0.06831
M107
G1 X48.996 Y47.677 F18000
M107
G1 F1800
G1 X47.708 Y48.962 E0.0686
G1 X46.568 Y50.382 E0.06859
G1 X45.591 Y51.918 E0.0686
G1 X44.954 Y53.177 E0.05318
G1 X44.295 Y54.873 E0.0686
G1 X43.826 Y56.632 E0.06859
G1 X43.52 Y58.84 E0.084
G1 X43.492 Y60.66 E0.06859
G1 X43.665 Y62.472 E0.0686
G1 X44.036 Y64.254 E0.06859
G1 X44.458 Y65.601 E0.05319
G1 X45.168 Y67.276 E0.06859
G1 X46.059 Y68.864 E0.0686
G1 X47.118 Y70.344 E0.06859
G1 X48.334 Y71.698 E0.0686
G1 X49.692 Y72.91 E0.06859
G1 X51.175 Y73.966 E0.0686
G1 X53.135 Y75.027 E0.08399
G1 X54.83 Y75.691 E0.0686
G1 X56.587 Y76.164 E0.06859
G1 X58.386 Y76.442 E0.0686
G1 X59.795 Y76.519 E0.05318
G1 X62.021 Y76.397 E0.084
G1 X63.812 Y76.075 E0.06859
G1 X65.557 Y75.558 E0.0686
G1 X67.235 Y74.852 E0.06859
G1 X68.476 Y74.18 E0.05319
G1 X69.985 Y73.162 E0.06859
G1 X71.372 Y71.984 E0.0686
G1 X72.622 Y70.66 E0.06859
G1 X73.718 Y69.207 E0.0686
G1 X74.832 Y67.276 E0.08399
G1 X75.542 Y65.601 E0.0686
G1 X76.034 Y64 E0.0631
G1 X76.345 Y62.42 E0.06068
G1 X76.508 Y60.66 E0.06662
G1 X76.446 Y58.432 E0.08399
G1 X76.174 Y56.632 E0.0686
G1 X75.705 Y54.873 E0.06859
G1 X75.046 Y53.177 E0.0686
G1 X74.409 Y51.918 E0.05318
G1 X73.432 Y50.382 E0.0686
G1 X72.292 Y48.962 E0.06859
G1 X70.695 Y47.408 E0.084
G1 X69.245 Y46.308 E0.06859
G1 X67.682 Y45.374 E0.0686
G1 X66.027 Y44.618 E0.06859
G1 X64.298 Y44.048 E0.0686
G1 X62.517 Y43.672 E0.06859
G1 X60.807 Y43.496 E0.06481
G1 X59.193 Y43.496 E0.06079
G1 X57.136 Y43.727 E0.07804
G1 X55.562 Y44.082 E0.06078
G1 X53.973 Y44.618 E0.0632
G1 X51.958 Y45.569 E0.08399
G1 X50.419 Y46.541 E0.0686
G1 X49.043 Y47.64 E0.06633
M107
G1 X49.329 Y48.019 F18000
M107
G1 F1800
G1 X48.318 Y49.003 E0.05319
G1 X47.179 Y50.355 E0.06661
G1 X46.195 Y51.824 E0.06662
G1 X45.38 Y53.392 E0.06662
G1 X44.742 Y55.041 E0.06661
G1 X44.289 Y56.749 E0.06662
G1 X43.997 Y58.853 E0.08004
G1 X43.968 Y60.62 E0.06661
G1 X44.133 Y62.38 E0.06662
G1 X44.492 Y64.111 E0.06662
G1 X45.038 Y65.792 E0.06661
G1 X45.605 Y67.085 E0.05319
G1 X46.472 Y68.625 E0.06661
G1 X47.503 Y70.061 E0.06662
G1 X48.685 Y71.375 E0.06661
G1 X50.005 Y72.551 E0.06662
G1 X51.447 Y73.574 E0.06662
G1 X53.315 Y74.585 E0.08004
G1 X54.96 Y75.232 E0.06661
G1 X56.666 Y75.694 E0.06662
G1 X58.058 Y75.926 E0.05318
G1 X59.822 Y76.043 E0.06662
G1 X61.942 Y75.926 E0.08004
G1 X63.682 Y75.616 E0.06661
G1 X65.378 Y75.116 E0.06662
G1 X67.008 Y74.433 E0.06661
G1 X68.553 Y73.574 E0.06662
G1 X69.713 Y72.77 E0.05319
G1 X71.059 Y71.624 E0.06661
G1 X72.271 Y70.337 E0.06662
G1 X73.333 Y68.924 E0.06661
G1 X74.395 Y67.085 E0.08004
G1 X75.087 Y65.458 E0.06662
G1 X75.569 Y63.89 E0.06184
G1 X75.875 Y62.335 E0.0597
G1 X76.032 Y60.62 E0.0649
G1 X75.974 Y58.497 E0.08004
G1 X75.711 Y56.749 E0.06661
G1 X75.258 Y55.041 E0.06662
G1 X74.62 Y53.392 E0.06662
G1 X73.983 Y52.133 E0.05318
G1 X73.033 Y50.642 E0.06662
G1 X71.924 Y49.266 E0.06661
G1 X70.402 Y47.785 E0.08004
G1 X68.995 Y46.714 E0.06662
G1 X67.479 Y45.806 E0.06661
G1 X65.872 Y45.069 E0.06662
G1 X64.194 Y44.514 E0.06662
G1 X62.465 Y44.146 E0.06661
G1 X60.793 Y43.973 E0.06332
G1 X59.207 Y43.973 E0.05981
G1 X57.233 Y44.194 E0.07486
G1 X55.685 Y44.543 E0.05979
G1 X54.128 Y45.069 E0.06192
G1 X52.207 Y45.975 E0.08004
G1 X50.712 Y46.918 E0.06661
G1 X49.376 Y47.982 E0.06436
M107
G1 E-2.000000 F3000
M204 S1500
G1 Z0.6 F18000
; printing object CamShaft1.STL id:0 copy 0
EXCLUDE_OBJECT_START NAME=CamShaft1_STL_id_0_copy_0
; acceleration to travel
G1 X54.717 Y53.402
; decel to extrusion
M204 S1000
G1 X58.277 Y57.016
; end travel
G1 Z0.2
G1 E2.000000 F1800
;TYPE:Support material
;WIDTH:0.56
M107
G1 X61.723 Y57.016 E0.14072
G1 X61.896 Y57.317 E0.01416
G1 X63.445 Y60 E0.12656
G1 X61.723 Y62.984 E0.14073
G1 X58.277 Y62.984 E0.14072
G1 X56.555 Y60.000000 E0.14072
G1 X58.247 Y57.068 E0.13827
M107
G1 X57.379 Y58.83 F18000
M107
G1 F1800
G1 X57.379 Y60.725 E0.07739
G1 X57.896 Y61.621 E0.04224
G1 X57.896 Y58.379 E0.13239
G1 X58.414 Y57.484 E0.04224
G1 X58.414 Y62.516 E0.20555
G1 X58.48 Y62.632 E0.00547
G1 X58.931 Y62.632 E0.01838
G1 X58.931 Y57.368 E0.21502
G1 X59.448 Y57.368 E0.02112
G1 X59.448 Y62.632 E0.21501
G1 X59.965 Y62.632 E0.02112
G1 X59.965 Y57.368 E0.21502
G1 X60.482 Y57.368 E0.02112
G1 X60.482 Y62.632 E0.21501
G1 X60.999 Y62.632 E0.02112
G1 X60.999 Y57.368 E0.21502
G1 X61.516 Y57.368 E0.02112
G1 X61.516 Y62.632 E0.21501
G1 X62.033 Y61.743 E0.04202
G1 X62.033 Y58.257 E0.14237
G1 X62.55 Y59.153 E0.04224
G1 X62.55 Y61.292 E0.08736
M107
G1 E-2.000000 F3000
M204 S1500
G1 Z0.6 F18000
; acceleration to travel
G1 X67.806 Y61.788
; decel to extrusion
M204 S1000
G1 X71.31 Y62.119
; end travel
G1 Z0.2
G1 E2.000000 F1800
;TYPE:Internal perimeter
M107
G1 X71.15 Y62.794 E0.02837
G1 X70.764 Y64.03 E0.05288
G1 X70.255 Y65.19 E0.05172
G1 X69.622 Y66.286 E0.05172
G1 X68.872 Y67.307 E0.05173
G1 X68.014 Y68.238 E0.05172
G1 X67.059 Y69.07 E0.05172
G1 X66.019 Y69.791 E0.05172
G1 X64.905 Y70.394 E0.05172
G1 X63.732 Y70.871 E0.05173
G1 X62.104 Y71.331 E0.06909
G1 X62.692 Y70.492 E0.04185
G1 X62.921 Y70.001 E0.02213
G1 X63.061 Y69.477 E0.02213
G1 X63.108 Y68.937 E0.02213
G1 X63.061 Y68.398 E0.02213
G1 X62.921 Y67.874 E0.02213
G1 X62.692 Y67.383 E0.02213
G1 X62.381 Y66.939 E0.02213
G1 X61.998 Y66.556 E0.02213
G1 X61.554 Y66.246 E0.02213
G1 X61.063 Y66.017 E0.02213
G1 X60.54 Y65.876 E0.02213
G1 X60.032 Y65.832 E0.02081
G1 X60.049 Y65.436 E0.01618
G1 X63.139 Y65.436 E0.12618
G1 X65.859 Y60.725 E0.22222
G1 X66.246 Y61.554 E0.03737
G1 X66.556 Y61.998 E0.02213
G1 X66.939 Y62.381 E0.02213
G1 X67.383 Y62.692 E0.02213
G1 X67.874 Y62.921 E0.02213
G1 X68.398 Y63.061 E0.02213
G1 X68.937 Y63.108 E0.02214
G1 X69.477 Y63.061 E0.02213
G1 X70.001 Y62.921 E0.02213
G1 X70.492 Y62.692 E0.02213
G1 X71.261 Y62.153 E0.03837
M107
G1 X71.354 Y60.921 F18000
M107
G1 F1800
G1 X71.371 Y60.886 E0.00162
G1 X71.487 Y60.45 E0.01843
G1 X71.527 Y60.000000 E0.01844
G1 X71.487 Y59.55 E0.01843
G1 X71.371 Y59.114 E0.01844
G1 X71.18 Y58.705 E0.01843
G1 X70.921 Y58.336 E0.01844
G1 X70.602 Y58.017 E0.01843
G1 X70.232 Y57.758 E0.01844
G1 X69.823 Y57.567 E0.01843
G1 X69.387 Y57.45 E0.01844
G1 X68.937 Y57.411 E0.01843
G1 X68.488 Y57.45 E0.01844
G1 X68.052 Y57.567 E0.01843
G1 X67.643 Y57.758 E0.01844
G1 X67.273 Y58.017 E0.01843
G1 X66.954 Y58.336 E0.01844
G1 X66.695 Y58.705 E0.01843
G1 X66.504 Y59.114 E0.01844
G1 X66.388 Y59.55 E0.01843
G1 X66.348 Y60.000000 E0.01844
G1 X66.388 Y60.45 E0.01843
G1 X66.504 Y60.886 E0.01844
G1 X66.695 Y61.295 E0.01843
G1 X66.954 Y61.664 E0.01844
G1 X67.273 Y61.983 E0.01843
G1 X67.643 Y62.242 E0.01844
G1 X68.052 Y62.433 E0.01843
G1 X68.488 Y62.55 E0.01844
G1 X68.937 Y62.589 E0.01843
G1 X69.387 Y62.55 E0.01844
G1 X69.823 Y62.433 E0.01843
G1 X70.232 Y62.242 E0.01844
G1 X70.602 Y61.983 E0.01843
G1 X70.921 Y61.664 E0.01844
G1 X71.18 Y61.295 E0.01843
G1 X71.328 Y60.976 E0.01437
M107
G1 X70.883 Y60.708 F18000
;TYPE:External perimeter
M107
G1 F1800
G1 X70.976 Y60.359 E0.01474
G1 X71.008 Y60.000000 E0.01474
G1 X70.976 Y59.641 E0.01473
G1 X70.883 Y59.292 E0.01474
G1 X70.73 Y58.965 E0.01474
G1 X70.523 Y58.669 E0.01474
G1 X70.268 Y58.414 E0.01474
G1 X69.973 Y58.207 E0.01474
G1 X69.645 Y58.055 E0.01474
G1 X69.297 Y57.961 E0.01474
G1 X68.937 Y57.93 E0.01474
G1 X68.578 Y57.961 E0.01474
G1 X68.229 Y58.055 E0.01474
G1 X67.902 Y58.207 E0.01474
G1 X67.607 Y58.414 E0.01474
G1 X67.352 Y58.669 E0.01474
G1 X67.145 Y58.965 E0.01474
G1 X66.992 Y59.292 E0.01473
G1 X66.899 Y59.641 E0.01474
G1 X66.867 Y60.000000 E0.01474
G1 X66.899 Y60.359 E0.01474
G1 X66.992 Y60.708 E0.01474
G1 X67.145 Y61.035 E0.01474
G1 X67.352 Y61.331 E0.01474
G1 X67.607 Y61.586 E0.01474
G1 X67.902 Y61.793 E0.01474
G1 X68.229 Y61.945 E0.01474
G1 X68.578 Y62.039 E0.01474
G1 X68.937 Y62.07 E0.01474
G1 X69.297 Y62.039 E0.01474
G1 X69.645 Y61.945 E0.01474
G1 X69.973 Y61.793 E0.01474
G1 X70.268 Y61.586 E0.01473
G1 X70.523 Y61.331 E0.01474
G1 X70.73 Y61.035 E0.01474
G1 X70.857 Y60.762 E0.01229
M107
;WIPE_START
M204 S1500
G1 X71.102 Y60.663 F18000
;WIPE_END
M204 S1000
G1 X71.3 Y57.874
;TYPE:Internal perimeter
M107
G1 F1800
G1 X70.492 Y57.308 E0.0403
G1 X70.001 Y57.079 E0.02213
G1 X69.477 Y56.939 E0.02213
G1 X68.937 Y56.892 E0.02213
G1 X68.398 Y56.939 E0.02213
G1 X67.874 Y57.079 E0.02213
G1 X67.383 Y57.308 E0.02213
G1 X66.939 Y57.619 E0.02213
G1 X66.556 Y58.002 E0.02213
G1 X66.246 Y58.446 E0.02213
G1 X65.859 Y59.275 E0.03738
G1 X63.139 Y54.564 E0.22222
G1 X60.049 Y54.564 E0.12618
G1 X60.032 Y54.168 E0.01617
G1 X60.54 Y54.124 E0.02082
G1 X61.063 Y53.983 E0.02213
G1 X61.554 Y53.754 E0.02213
G1 X61.998 Y53.444 E0.02213
G1 X62.381 Y53.061 E0.02213
G1 X62.692 Y52.617 E0.02213
G1 X62.921 Y52.126 E0.02213
G1 X63.061 Y51.602 E0.02213
G1 X63.108 Y51.063 E0.02213
G1 X63.061 Y50.523 E0.02213
G1 X62.921 Y49.999 E0.02213
