; generated by SuperSlicer 2.5.59.12 on 2024-07-29 at 19:10:25 UTC


;
;

;
;
; TODO: check the size of the extruder and the y-bar clearance. Optimize & test supports.

; external perimeters extrusion width = 0.56mm
; perimeters extrusion width = 0.56mm
; infill extrusion width = 0.56mm
; solid infill extrusion width = 0.56mm
; top infill extrusion width = 0.56mm
; first layer extrusion width = 0.56mm

; object:{"name":"cycloid_rotor","id":"cycloid_rotor.STL id:0 copy 0","object_center":[60.000000,60.000000,0.000000],"boundingbox_center":[60.000000,60.000000,2.500000],"boundingbox_size":[58.644962,59.307716,5.000000]}
EXCLUDE_OBJECT_DEFINE NAME=cycloid_rotor_STL_id_0_copy_0 CENTER=60.000000,60.000000 POLYGON=[[30.68,59.80],[30.80,58.64],[30.97,57.91],[31.11,57.46],[36.30,43.21],[36.53,42.62],[37.09,41.55],[37.43,41.06],[37.83,40.56],[38.27,40.10],[38.66,39.76],[39.66,39.05],[52.64,31.56],[53.21,31.24],[53.42,31.13],[54.06,30.85],[54.54,30.68],[54.91,30.58],[55.75,30.41],[56.22,30.36],[56.91,30.35],[57.60,30.39],[58.14,30.46],[72.72,33.04],[73.50,33.18],[73.95,33.30],[74.39,33.43],[75.08,33.71],[75.67,34.01],[76.16,34.32],[76.72,34.75],[77.07,35.07],[77.40,35.39],[77.92,35.99],[87.50,47.40],[87.72,47.67],[88.05,48.14],[88.07,48.16],[88.39,48.69],[88.89,49.80],[89.18,50.91],[89.27,51.47],[89.27,51.47],[89.32,52.11],[89.32,52.49],[89.32,52.50],[89.32,67.37],[89.31,68.03],[89.21,68.91],[89.16,69.23],[89.02,69.80],[88.97,69.96],[88.81,70.40],[88.70,70.67],[88.63,70.83],[88.31,71.45],[87.78,72.24],[87.62,72.45],[77.67,84.31],[77.54,84.46],[77.42,84.59],[77.01,84.99],[76.88,85.11],[76.53,85.40],[76.33,85.55],[76.18,85.66],[75.51,86.07],[74.79,86.42],[74.45,86.54],[73.92,86.71],[73.71,86.77],[73.27,86.87],[72.89,86.93],[58.10,89.54],[57.74,89.59],[57.59,89.61],[56.82,89.65],[56.38,89.65],[55.93,89.61],[55.16,89.48],[54.54,89.32],[54.04,89.14],[53.70,89.00],[53.31,88.81],[52.93,88.61],[52.76,88.51],[39.43,80.80],[38.47,80.07],[38.07,79.70],[37.93,79.55],[37.62,79.19],[37.34,78.82],[36.96,78.24],[36.44,77.15],[31.27,62.97],[31.08,62.42],[30.89,61.78],[30.75,61.07],[30.70,60.60],[30.68,59.80]]
; plater:{"center":[60.000000,60.000000,0.000000],"boundingbox_center":[60.000000,60.000000,2.500000],"boundingbox_size":[58.644962,59.307716,5.000000]}

M107
;TYPE:Custom
; M190 S0
;M109 S0 ; uncomment to remove set&wait temp gcode added automatically after this start gcode
print_start EXTRUDER=245 BED=90 CHAMBER=50

;G92 E0
;G1 E10 F1500 ; prime the nozzle
M107
G21 ; set units to millimeters
G90 ; use absolute coordinates
M83 ; use relative distances for extrusion
SET_PRESSURE_ADVANCE ADVANCE=0.04
M104 S245 ; set temperature
M109 S245 ; set temperature and wait for it to be reached
M190 S90 ; set bed temperature and wait for it to be reached
;LAYER_CHANGE
;Z:0.2
;HEIGHT:0.2
;BEFORE_LAYER_CHANGE
;0.2


G1 Z0.2 F18000
;AFTER_LAYER_CHANGE
;0.2
TIMELAPSE_TAKE_FRAME
G92 E0
G1 E-2.000000 F3000
G1 Z0.6 F18000
M204 S1000
G1 X35.589 Y38.58
G1 Z0.2
G1 E2.000000 F1800
;TYPE:Skirt
;WIDTH:0.52
M107
G1 X34.483 Y40.076 E0.0701
G1 X33.94 Y41.093 E0.04349
G1 X33.436 Y42.295 E0.04908
G1 X28.17 Y56.826 E0.58249
G1 X27.788 Y58.536 E0.06603
G1 X27.686 Y59.827 E0.04881
G1 X27.849 Y61.83 E0.07573
G1 X28.301 Y63.583 E0.06823
G1 X33.597 Y78.13 E0.58341
G1 X34.358 Y79.712 E0.06616
G1 X35.526 Y81.345 E0.07565
G1 X36.442 Y82.274 E0.04915
G1 X37.905 Y83.379 E0.06912
G1 X51.406 Y91.188 E0.58776
G1 X52.654 Y91.805 E0.05246
G1 X53.853 Y92.231 E0.04798
G1 X55.046 Y92.501 E0.04608
G1 X56.379 Y92.635 E0.05048
G1 X57.626 Y92.609 E0.04701
G1 X58.636 Y92.49 E0.03832
G1 X73.57 Y89.856 E0.57149
G1 X75.661 Y89.279 E0.08176
G1 X76.774 Y88.78 E0.04597
G1 X77.885 Y88.108 E0.04893
G1 X78.888 Y87.32 E0.04808
G1 X79.985 Y86.211 E0.05876
G1 X90.282 Y73.883 E0.60533
G1 X91.329 Y72.098 E0.07801
G1 X91.804 Y70.874 E0.04949
G1 X92.2 Y69.131 E0.06736
G1 X92.316 Y67.407 E0.06511
G1 X92.311 Y52.317 E0.56867
G1 X92.084 Y50.196 E0.08038
G1 X91.579 Y48.488 E0.06714
G1 X90.677 Y46.705 E0.0753
G1 X89.774 Y45.459 E0.05798
G1 X80.117 Y33.941 E0.56647
G1 X78.964 Y32.747 E0.06255
G1 X77.952 Y31.937 E0.04884
G1 X76.253 Y30.966 E0.07376
G1 X75.029 Y30.5 E0.04933
G1 X73.366 Y30.103 E0.06445
G1 X58.702 Y27.517 E0.56116
G1 X57.208 Y27.37 E0.05654
G1 X55.792 Y27.4 E0.05338
G1 X54.614 Y27.58 E0.04493
G1 X53.324 Y27.937 E0.05043
G1 X52.124 Y28.434 E0.04895
G1 X38.25 Y36.402 E0.60293
G1 X36.986 Y37.268 E0.05777
G1 X35.633 Y38.539 E0.06994
M107
G1 X35.934 Y38.91 F18000
M107
G1 F1800
G1 X34.899 Y40.31 E0.06561
G1 X34.379 Y41.28 E0.04148
G1 X33.885 Y42.458 E0.04814
G1 X28.621 Y56.982 E0.58221
G1 X28.263 Y58.585 E0.06191
G1 X28.163 Y59.817 E0.04657
G1 X28.321 Y61.76 E0.07348
G1 X28.75 Y63.42 E0.06459
G1 X34.045 Y77.967 E0.58341
G1 X34.762 Y79.459 E0.06239
G1 X35.896 Y81.045 E0.07346
G1 X36.773 Y81.931 E0.04697
G1 X38.145 Y82.966 E0.06479
G1 X51.625 Y90.765 E0.5869
G1 X52.824 Y91.359 E0.0504
G1 X53.97 Y91.769 E0.04588
G1 X55.106 Y92.027 E0.0439
G1 X56.378 Y92.158 E0.04819
G1 X57.574 Y92.135 E0.0451
G1 X58.553 Y92.021 E0.03712
G1 X73.468 Y89.39 E0.57077
G1 X75.507 Y88.828 E0.07972
G1 X76.568 Y88.349 E0.04386
G1 X77.628 Y87.705 E0.04673
G1 X78.585 Y86.952 E0.0459
G1 X79.619 Y85.904 E0.05547
G1 X89.885 Y73.619 E0.60334
G1 X90.904 Y71.882 E0.07591
G1 X91.356 Y70.712 E0.04726
G1 X91.726 Y69.081 E0.06304
G1 X91.839 Y67.398 E0.06356
G1 X91.835 Y52.343 E0.56736
G1 X91.613 Y50.276 E0.07833
G1 X91.142 Y48.679 E0.06277
G1 X90.266 Y46.946 E0.07316
G1 X89.393 Y45.746 E0.05593
G1 X79.751 Y34.247 E0.56552
G1 X78.657 Y33.112 E0.0594
G1 X77.1 Y31.949 E0.07324
G1 X75.629 Y31.219 E0.06192
G1 X74.43 Y30.823 E0.04757
G1 X58.619 Y27.987 E0.60537
G1 X57.207 Y27.847 E0.05348
G1 X55.852 Y27.874 E0.05105
G1 X54.729 Y28.042 E0.04279
G1 X53.497 Y28.381 E0.04817
G1 X52.348 Y28.856 E0.04684
G1 X38.489 Y36.815 E0.60231
G1 X37.292 Y37.634 E0.05465
G1 X35.978 Y38.869 E0.06795
M107
G1 X36.279 Y39.24 F18000
M107
G1 F1800
G1 X35.315 Y40.544 E0.06112
G1 X34.818 Y41.466 E0.03947
G1 X34.333 Y42.621 E0.0472
G1 X29.072 Y57.138 E0.58192
G1 X28.737 Y58.635 E0.05781
G1 X28.64 Y59.807 E0.04432
G1 X28.793 Y61.691 E0.07123
G1 X29.198 Y63.257 E0.06095
G1 X34.493 Y77.804 E0.58341
G1 X35.167 Y79.206 E0.05862
G1 X36.267 Y80.745 E0.07128
G1 X37.105 Y81.588 E0.04479
G1 X38.385 Y82.554 E0.06045
G1 X51.845 Y90.341 E0.58603
G1 X52.993 Y90.913 E0.04834
G1 X54.087 Y91.306 E0.0438
G1 X55.166 Y91.554 E0.04171
G1 X56.377 Y91.681 E0.04591
G1 X58.47 Y91.551 E0.07902
G1 X73.366 Y88.924 E0.57004
G1 X75.353 Y88.376 E0.07767
G1 X76.362 Y87.919 E0.04176
G1 X77.372 Y87.303 E0.04454
G1 X78.281 Y86.584 E0.04371
G1 X79.253 Y85.598 E0.05217
G1 X89.487 Y73.355 E0.60136
G1 X90.478 Y71.666 E0.0738
G1 X90.907 Y70.55 E0.04504
G1 X91.251 Y69.031 E0.05871
G1 X91.362 Y67.389 E0.06201
G1 X91.359 Y52.369 E0.56607
G1 X91.143 Y50.356 E0.07628
G1 X90.704 Y48.87 E0.05839
G1 X89.855 Y47.188 E0.07101
G1 X89.012 Y46.033 E0.05389
G1 X79.386 Y34.554 E0.56457
G1 X78.351 Y33.478 E0.05625
G1 X76.839 Y32.348 E0.07114
G1 X75.469 Y31.668 E0.05762
G1 X74.327 Y31.289 E0.04536
G1 X58.536 Y28.457 E0.6046
G1 X57.205 Y28.325 E0.05041
G1 X55.912 Y28.347 E0.04872
G1 X54.845 Y28.505 E0.04065
G1 X53.67 Y28.826 E0.04591
G1 X52.572 Y29.277 E0.04473
G1 X38.727 Y37.228 E0.60168
G1 X37.598 Y38 E0.05154
G1 X36.322 Y39.199 E0.06596
M107
G1 E-2.000000 F3000
M204 S1500
G1 Z0.6 F18000
; printing object cycloid_rotor.STL id:0 copy 0
EXCLUDE_OBJECT_START NAME=cycloid_rotor_STL_id_0_copy_0
; acceleration to travel
G1 X47.536 Y39.061
; decel to extrusion
M204 S1000
G1 X55.012 Y38.969
; end travel
G1 Z0.2
G1 E2.000000 F1800
;TYPE:Internal perimeter
;WIDTH:0.56
M107
G1 X54.325 Y39.951 E0.04893
G1 X53.785 Y41.108 E0.05216
G1 X53.454 Y42.342 E0.05217
G1 X53.343 Y43.614 E0.05217
G1 X53.454 Y44.886 E0.05216
G1 X53.785 Y46.12 E0.05217
G1 X54.325 Y47.277 E0.05216
G1 X55.057 Y48.324 E0.05217
G1 X55.96 Y49.227 E0.05217
G1 X57.007 Y49.959 E0.05216
G1 X58.164 Y50.499 E0.05217
G1 X59.353 Y50.818 E0.05027
G1 X59.323 Y51.163 E0.01418
G1 X59.115 Y51.182 E0.00851
G1 X57.608 Y51.585 E0.06375
G1 X56.193 Y52.245 E0.06375
G1 X54.915 Y53.14 E0.06375
G1 X53.811 Y54.244 E0.06375
G1 X53.692 Y54.414 E0.00851
G1 X53.377 Y54.268 E0.01417
G1 X53.695 Y53.079 E0.05028
G1 X53.807 Y51.807 E0.05216
G1 X53.695 Y50.534 E0.05217
G1 X53.365 Y49.301 E0.05216
G1 X52.825 Y48.143 E0.05217
G1 X52.093 Y47.097 E0.05217
G1 X51.19 Y46.194 E0.05216
G1 X50.143 Y45.461 E0.05217
G1 X48.986 Y44.922 E0.05217
G1 X47.752 Y44.591 E0.05216
G1 X46.48 Y44.48 E0.05217
G1 X45.208 Y44.591 E0.05217
G1 X43.974 Y44.922 E0.05216
G1 X42.816 Y45.461 E0.05217
G1 X41.77 Y46.194 E0.05217
G1 X40.867 Y47.097 E0.05216
G1 X40.135 Y48.143 E0.05217
G1 X39.595 Y49.301 E0.05216
G1 X39.264 Y50.534 E0.05217
G1 X39.153 Y51.807 E0.05217
G1 X39.264 Y53.079 E0.05216
G1 X39.595 Y54.313 E0.05217
G1 X40.135 Y55.47 E0.05217
G1 X40.867 Y56.516 E0.05216
G1 X41.77 Y57.419 E0.05217
G1 X42.816 Y58.152 E0.05217
G1 X43.974 Y58.692 E0.05216
G1 X45.208 Y59.022 E0.05217
G1 X46.48 Y59.134 E0.05217
G1 X47.752 Y59.022 E0.05216
G1 X48.986 Y58.692 E0.05217
G1 X50.143 Y58.152 E0.05216
G1 X51.19 Y57.419 E0.05217
G1 X52.06 Y56.549 E0.05027
G1 X52.344 Y56.748 E0.01418
G1 X52.256 Y56.937 E0.00851
G1 X51.852 Y58.444 E0.06375
G1 X51.716 Y59.999 E0.06375
G1 X51.852 Y61.554 E0.06375
G1 X52.256 Y63.062 E0.06375
G1 X52.344 Y63.25 E0.00851
G1 X52.06 Y63.45 E0.01417
G1 X51.19 Y62.579 E0.05028
G1 X50.143 Y61.847 E0.05216
G1 X48.986 Y61.307 E0.05217
G1 X47.752 Y60.976 E0.05217
G1 X46.48 Y60.865 E0.05216
G1 X45.208 Y60.976 E0.05217
G1 X43.974 Y61.307 E0.05216
G1 X42.816 Y61.847 E0.05217
G1 X41.77 Y62.579 E0.05217
G1 X40.867 Y63.482 E0.05216
G1 X40.135 Y64.528 E0.05217
G1 X39.595 Y65.686 E0.05217
G1 X39.264 Y66.92 E0.05216
G1 X39.153 Y68.192 E0.05217
G1 X39.264 Y69.464 E0.05217
G1 X39.595 Y70.698 E0.05216
G1 X40.135 Y71.855 E0.05217
G1 X40.867 Y72.902 E0.05217
G1 X41.77 Y73.805 E0.05216
G1 X42.816 Y74.537 E0.05217
G1 X43.974 Y75.077 E0.05217
G1 X45.208 Y75.408 E0.05216
G1 X46.48 Y75.519 E0.05217
G1 X47.752 Y75.408 E0.05216
G1 X48.986 Y75.077 E0.05217
G1 X50.143 Y74.537 E0.05217
G1 X51.19 Y73.805 E0.05216
G1 X52.093 Y72.902 E0.05217
G1 X52.825 Y71.855 E0.05217
G1 X53.365 Y70.698 E0.05216
G1 X53.695 Y69.464 E0.05217
G1 X53.807 Y68.192 E0.05217
G1 X53.695 Y66.92 E0.05216
G1 X53.377 Y65.731 E0.05028
G1 X53.692 Y65.584 E0.01417
G1 X53.811 Y65.755 E0.00851
G1 X54.915 Y66.858 E0.06375
G1 X56.193 Y67.754 E0.06375
G1 X57.608 Y68.413 E0.06375
G1 X59.115 Y68.817 E0.06375
G1 X59.323 Y68.835 E0.00851
G1 X59.353 Y69.181 E0.01417
G1 X58.164 Y69.5 E0.05028
G1 X57.007 Y70.039 E0.05216
G1 X55.96 Y70.772 E0.05217
G1 X55.057 Y71.675 E0.05217
G1 X54.325 Y72.721 E0.05216
G1 X53.785 Y73.879 E0.05217
G1 X53.454 Y75.112 E0.05217
G1 X53.343 Y76.385 E0.05216
G1 X53.454 Y77.657 E0.05217
G1 X53.785 Y78.891 E0.05217
G1 X54.325 Y80.048 E0.05216
G1 X55.057 Y81.094 E0.05217
G1 X55.96 Y81.997 E0.05216
G1 X57.007 Y82.73 E0.05217
G1 X58.164 Y83.27 E0.05217
G1 X59.398 Y83.6 E0.05216
G1 X60.67 Y83.711 E0.05217
G1 X61.942 Y83.6 E0.05217
G1 X63.176 Y83.27 E0.05216
G1 X64.333 Y82.73 E0.05217
G1 X65.38 Y81.997 E0.05217
G1 X66.283 Y81.094 E0.05216
G1 X67.015 Y80.048 E0.05217
G1 X67.555 Y78.891 E0.05217
G1 X67.886 Y77.657 E0.05216
G1 X67.997 Y76.385 E0.05217
G1 X67.886 Y75.112 E0.05216
G1 X67.555 Y73.879 E0.05217
G1 X67.015 Y72.721 E0.05217
G1 X66.283 Y71.675 E0.05216
G1 X65.38 Y70.772 E0.05217
G1 X64.333 Y70.039 E0.05217
G1 X63.176 Y69.5 E0.05216
G1 X61.987 Y69.181 E0.05028
G1 X62.017 Y68.835 E0.01417
G1 X62.225 Y68.817 E0.00851
G1 X63.732 Y68.413 E0.06375
G1 X65.147 Y67.754 E0.06375
G1 X66.425 Y66.858 E0.06375
G1 X67.529 Y65.755 E0.06375
G1 X67.648 Y65.584 E0.00851
G1 X67.963 Y65.731 E0.01418
G1 X67.645 Y66.92 E0.05027
G1 X67.533 Y68.192 E0.05217
G1 X67.645 Y69.464 E0.05216
G1 X67.975 Y70.698 E0.05217
G1 X68.515 Y71.855 E0.05216
G1 X69.247 Y72.902 E0.05217
G1 X70.15 Y73.805 E0.05217
G1 X71.197 Y74.537 E0.05216
G1 X72.354 Y75.077 E0.05217
G1 X73.588 Y75.408 E0.05217
G1 X74.86 Y75.519 E0.05216
G1 X76.132 Y75.408 E0.05217
G1 X77.366 Y75.077 E0.05217
G1 X78.524 Y74.537 E0.05216
G1 X79.57 Y73.805 E0.05217
G1 X80.473 Y72.902 E0.05216
G1 X81.205 Y71.855 E0.05217
G1 X81.745 Y70.698 E0.05217
G1 X82.076 Y69.464 E0.05216
G1 X82.187 Y68.192 E0.05217
G1 X82.076 Y66.92 E0.05217
G1 X81.745 Y65.686 E0.05216
G1 X81.205 Y64.528 E0.05217
G1 X80.473 Y63.482 E0.05217
G1 X79.57 Y62.579 E0.05216
G1 X78.524 Y61.847 E0.05217
G1 X77.366 Y61.307 E0.05217
G1 X76.132 Y60.976 E0.05216
G1 X74.86 Y60.865 E0.05217
G1 X73.588 Y60.976 E0.05217
G1 X72.354 Y61.307 E0.05216
G1 X71.197 Y61.847 E0.05217
G1 X70.15 Y62.579 E0.05216
G1 X69.28 Y63.45 E0.05028
G1 X68.996 Y63.25 E0.01418
G1 X69.084 Y63.062 E0.0085
G1 X69.488 Y61.554 E0.06375
G1 X69.624 Y59.999 E0.06375
G1 X69.488 Y58.444 E0.06375
G1 X69.084 Y56.937 E0.06375
G1 X68.996 Y56.748 E0.00851
G1 X69.28 Y56.549 E0.01418
G1 X70.15 Y57.419 E0.05027
G1 X71.197 Y58.152 E0.05217
G1 X72.354 Y58.692 E0.05216
G1 X73.588 Y59.022 E0.05217
G1 X74.86 Y59.134 E0.05217
G1 X76.132 Y59.022 E0.05216
G1 X77.366 Y58.692 E0.05217
G1 X78.524 Y58.152 E0.05216
G1 X79.57 Y57.419 E0.05217
G1 X80.473 Y56.516 E0.05217
G1 X81.205 Y55.47 E0.05216
G1 X81.745 Y54.313 E0.05217
G1 X82.076 Y53.079 E0.05217
G1 X82.187 Y51.807 E0.05216
G1 X82.076 Y50.534 E0.05217
G1 X81.745 Y49.301 E0.05217
G1 X81.205 Y48.143 E0.05216
G1 X80.473 Y47.097 E0.05217
G1 X79.57 Y46.194 E0.05216
G1 X78.524 Y45.461 E0.05217
G1 X77.366 Y44.922 E0.05217
G1 X76.132 Y44.591 E0.05216
G1 X74.86 Y44.48 E0.05217
G1 X73.588 Y44.591 E0.05217
G1 X72.354 Y44.922 E0.05216
G1 X71.197 Y45.461 E0.05217
G1 X70.15 Y46.194 E0.05217
G1 X69.247 Y47.097 E0.05216
G1 X68.515 Y48.143 E0.05217
G1 X67.975 Y49.301 E0.05217
G1 X67.645 Y50.534 E0.05216
G1 X67.533 Y51.807 E0.05217
G1 X67.645 Y53.079 E0.05217
G1 X67.963 Y54.268 E0.05027
G1 X67.648 Y54.414 E0.01418
G1 X67.529 Y54.244 E0.0085
G1 X66.425 Y53.14 E0.06375
G1 X65.147 Y52.245 E0.06375
G1 X63.732 Y51.585 E0.06375
G1 X62.225 Y51.182 E0.06375
G1 X62.017 Y51.163 E0.00851
G1 X61.987 Y50.818 E0.01418
G1 X63.176 Y50.499 E0.05027
G1 X64.333 Y49.959 E0.05217
G1 X65.38 Y49.227 E0.05216
G1 X66.283 Y48.324 E0.05217
G1 X67.015 Y47.277 E0.05217
G1 X67.555 Y46.12 E0.05216
G1 X67.886 Y44.886 E0.05217
G1 X67.997 Y43.614 E0.05217
G1 X67.886 Y42.342 E0.05216
G1 X67.555 Y41.108 E0.05217
G1 X67.015 Y39.951 E0.05216
G1 X66.283 Y38.904 E0.05217
G1 X65.38 Y38.001 E0.05217
G1 X64.333 Y37.269 E0.05216
G1 X63.176 Y36.729 E0.05217
G1 X61.942 Y36.398 E0.05217
G1 X60.67 Y36.287 E0.05216
G1 X60.203 Y36.328 E0.01913
G1 X59.398 Y36.398 E0.03304
G1 X58.164 Y36.729 E0.05217
G1 X57.007 Y37.269 E0.05216
G1 X55.96 Y38.001 E0.05217
G1 X55.057 Y38.904 E0.05217
G1 X55.046 Y38.92 E0.00078
M107
G1 X55.432 Y39.27 F18000
M107
G1 F1800
G1 X54.774 Y40.21 E0.04686
G1 X54.273 Y41.286 E0.04847
G1 X53.966 Y42.432 E0.04847
G1 X53.862 Y43.614 E0.04847
G1 X53.966 Y44.796 E0.04847
G1 X54.273 Y45.942 E0.04847
G1 X54.774 Y47.018 E0.04847
G1 X55.455 Y47.99 E0.04847
G1 X56.294 Y48.829 E0.04847
G1 X57.266 Y49.51 E0.04847
G1 X58.342 Y50.011 E0.04847
G1 X59.488 Y50.318 E0.04847
G1 X60.67 Y50.422 E0.04848
G1 X61.852 Y50.318 E0.04847
G1 X62.998 Y50.011 E0.04847
G1 X64.074 Y49.51 E0.04847
G1 X65.046 Y48.829 E0.04847
G1 X65.885 Y47.99 E0.04847
G1 X66.566 Y47.018 E0.04847
G1 X67.067 Y45.942 E0.04847
G1 X67.374 Y44.796 E0.04847
G1 X67.478 Y43.614 E0.04847
G1 X67.374 Y42.432 E0.04847
G1 X67.067 Y41.286 E0.04847
G1 X66.566 Y40.21 E0.04848
G1 X65.885 Y39.238 E0.04847
G1 X65.046 Y38.399 E0.04847
G1 X64.074 Y37.718 E0.04847
G1 X62.998 Y37.217 E0.04847
G1 X61.852 Y36.91 E0.04847
G1 X60.67 Y36.806 E0.04847
G1 X60.248 Y36.843 E0.01728
G1 X59.488 Y36.91 E0.03119
G1 X58.342 Y37.217 E0.04847
G1 X57.266 Y37.718 E0.04847
G1 X56.294 Y38.399 E0.04847
G1 X55.469 Y39.224 E0.04764
M107
G1 X55.853 Y39.572 F18000
;TYPE:External perimeter
M107
G1 F1800
G1 X55.224 Y40.47 E0.04478
G1 X54.76 Y41.463 E0.04477
G1 X54.477 Y42.522 E0.04478
G1 X54.381 Y43.614 E0.04477
G1 X54.477 Y44.706 E0.04478
G1 X54.76 Y45.765 E0.04478
G1 X55.224 Y46.758 E0.04477
G1 X55.853 Y47.656 E0.04478
