; generated by SuperSlicer 2.5.59.12 on 2024-07-30 at 02:17:22 UTC


;
;

;
;
; TODO: check the size of the extruder and the y-bar clearance. Optimize & test supports.

; external perimeters extrusion width = 0.56mm
; perimeters extrusion width = 0.56mm
; infill extrusion width = 0.56mm
; solid infill extrusion width = 0.56mm
; top infill extrusion width = 0.56mm
; first layer extrusion width = 0.56mm

; object:{"name":"cycloid_stator_3_top","id":"cycloid_stator_3_top.STL id:0 copy 0","object_center":[60.000000,60.000000,0.000000],"boundingbox_center":[60.000000,60.000000,3.000000],"boundingbox_size":[74.000000,73.905022,6.000000]}
EXCLUDE_OBJECT_DEFINE NAME=cycloid_stator_3_top_STL_id_0_copy_0 CENTER=60.000000,60.000000 POLYGON=[[23.00,60.00],[23.19,56.26],[23.76,52.55],[24.70,48.92],[26.00,45.41],[27.65,42.04],[29.63,38.86],[31.93,35.90],[34.51,33.18],[37.35,30.74],[40.43,28.60],[43.71,26.78],[47.15,25.30],[50.73,24.18],[54.40,23.43],[58.13,23.05],[61.87,23.05],[65.60,23.43],[69.27,24.18],[72.85,25.30],[76.29,26.78],[79.57,28.60],[82.65,30.74],[85.49,33.18],[88.07,35.90],[90.37,38.86],[92.35,42.04],[94.00,45.41],[95.30,48.92],[96.24,52.55],[96.81,56.26],[97.00,60.00],[96.81,63.74],[96.24,67.45],[95.30,71.08],[94.00,74.59],[92.35,77.96],[90.37,81.14],[88.07,84.10],[85.49,86.82],[82.65,89.26],[79.57,91.40],[76.29,93.22],[72.85,94.70],[69.27,95.82],[65.60,96.57],[61.87,96.95],[58.13,96.95],[54.40,96.57],[50.73,95.82],[47.15,94.70],[43.71,93.22],[40.43,91.40],[37.35,89.26],[34.51,86.82],[31.93,84.10],[29.63,81.14],[27.65,77.96],[26.00,74.59],[24.70,71.08],[23.76,67.45],[23.19,63.74],[23.00,60.00]]
; plater:{"center":[60.000000,60.000000,0.000000],"boundingbox_center":[60.000000,60.000000,3.000000],"boundingbox_size":[74.000000,73.905022,6.000000]}

M107
;TYPE:Custom
; M190 S0
;M109 S0 ; uncomment to remove set&wait temp gcode added automatically after this start gcode
print_start EXTRUDER=245 BED=90 CHAMBER=50

;G92 E0
;G1 E10 F1500 ; prime the nozzle
M107
G21 ; set units to millimeters
G90 ; use absolute coordinates
M83 ; use relative distances for extrusion
SET_PRESSURE_ADVANCE ADVANCE=0.04
M104 S245 ; set temperature
M109 S245 ; set temperature and wait for it to be reached
M190 S90 ; set bed temperature and wait for it to be reached
;LAYER_CHANGE
;Z:0.2
;HEIGHT:0.2
;BEFORE_LAYER_CHANGE
;0.2


G1 Z0.2 F18000
;AFTER_LAYER_CHANGE
;0.2
TIMELAPSE_TAKE_FRAME
G92 E0
G1 E-2.000000 F3000
G1 Z0.6 F18000
M204 S1000
G1 X32.023 Y30.26
G1 Z0.2
G1 E2.000000 F1800
;TYPE:Skirt
;WIDTH:0.52
M107
G1 X29.158 Y33.243 E0.15587
G1 X26.61 Y36.501 E0.15587
G1 X24.403 Y39.999 E0.15587
G1 X22.563 Y43.703 E0.15588
G1 X21.106 Y47.574 E0.15587
G1 X20.049 Y51.573 E0.15587
G1 X19.358 Y56.081 E0.17185
G1 X19.17 Y60.212 E0.15587
G1 X19.401 Y64.342 E0.15587
G1 X20.049 Y68.427 E0.15588
G1 X21.106 Y72.426 E0.15587
G1 X22.563 Y76.297 E0.15587
G1 X24.403 Y80.001 E0.15587
G1 X26.61 Y83.499 E0.15587
G1 X29.158 Y86.757 E0.15587
G1 X31.716 Y89.447 E0.13989
G1 X34.84 Y92.157 E0.15587
G1 X38.222 Y94.538 E0.15587
G1 X41.828 Y96.564 E0.15587
G1 X45.62 Y98.215 E0.15587
G1 X49.56 Y99.473 E0.15587
G1 X53.607 Y100.327 E0.15587
G1 X57.72 Y100.767 E0.15587
G1 X61.856 Y100.788 E0.15587
G1 X65.973 Y100.391 E0.15588
G1 X70.029 Y99.58 E0.15587
G1 X73.981 Y98.362 E0.15587
G1 X77.791 Y96.751 E0.15587
G1 X81.417 Y94.762 E0.15587
G1 X84.824 Y92.417 E0.15587
G1 X87.977 Y89.74 E0.15587
G1 X90.842 Y86.757 E0.15587
G1 X93.39 Y83.499 E0.15588
G1 X95.597 Y80.001 E0.15587
G1 X97.437 Y76.297 E0.15587
G1 X98.894 Y72.426 E0.15587
G1 X99.951 Y68.427 E0.15587
G1 X100.642 Y63.919 E0.17185
G1 X100.83 Y59.788 E0.15588
G1 X100.599 Y55.658 E0.15587
G1 X99.951 Y51.573 E0.15587
G1 X98.894 Y47.574 E0.15587
G1 X97.437 Y43.703 E0.15587
G1 X95.597 Y39.999 E0.15587
G1 X93.39 Y36.501 E0.15587
G1 X90.842 Y33.243 E0.15587
G1 X88.284 Y30.553 E0.13989
G1 X85.16 Y27.843 E0.15587
G1 X81.778 Y25.462 E0.15587
G1 X78.172 Y23.436 E0.15587
G1 X74.38 Y21.785 E0.15587
G1 X70.44 Y20.527 E0.15587
G1 X66.393 Y19.673 E0.15588
G1 X62.28 Y19.233 E0.15587
G1 X58.144 Y19.212 E0.15587
G1 X54.027 Y19.609 E0.15587
G1 X49.971 Y20.42 E0.15587
G1 X46.019 Y21.638 E0.15587
G1 X42.209 Y23.249 E0.15587
G1 X38.583 Y25.238 E0.15587
G1 X35.176 Y27.583 E0.15588
G1 X32.069 Y30.222 E0.15361
M107
G1 X32.334 Y30.622 F18000
M107
G1 F1800
G1 X29.504 Y33.572 E0.15405
G1 X26.987 Y36.793 E0.15405
G1 X24.808 Y40.252 E0.15405
G1 X22.991 Y43.913 E0.15405
G1 X21.553 Y47.74 E0.15405
G1 X20.51 Y51.693 E0.15406
G1 X19.834 Y56.105 E0.16821
G1 X19.646 Y60.188 E0.15406
G1 X19.873 Y64.27 E0.15405
G1 X20.51 Y68.307 E0.15405
G1 X21.553 Y72.26 E0.15405
G1 X22.991 Y76.087 E0.15405
G1 X24.808 Y79.748 E0.15405
G1 X26.772 Y82.898 E0.13989
G1 X29.259 Y86.142 E0.15405
G1 X32.061 Y89.118 E0.15405
G1 X35.151 Y91.795 E0.15405
G1 X38.495 Y94.146 E0.15406
G1 X42.06 Y96.147 E0.15405
G1 X45.809 Y97.776 E0.15405
G1 X49.703 Y99.018 E0.15405
G1 X53.703 Y99.86 E0.15405
G1 X57.768 Y100.292 E0.15406
G1 X61.856 Y100.311 E0.15405
G1 X65.925 Y99.917 E0.15405
G1 X69.933 Y99.112 E0.15405
G1 X73.839 Y97.907 E0.15405
G1 X77.602 Y96.312 E0.15405
G1 X81.186 Y94.345 E0.15406
G1 X84.552 Y92.026 E0.15405
G1 X87.666 Y89.378 E0.15405
G1 X90.496 Y86.428 E0.15405
G1 X93.013 Y83.207 E0.15405
G1 X95.192 Y79.748 E0.15406
G1 X97.009 Y76.087 E0.15405
G1 X98.447 Y72.26 E0.15405
G1 X99.49 Y68.307 E0.15405
G1 X100.166 Y63.895 E0.16822
G1 X100.354 Y59.812 E0.15405
G1 X100.127 Y55.73 E0.15405
G1 X99.49 Y51.693 E0.15405
G1 X98.447 Y47.74 E0.15406
G1 X97.009 Y43.913 E0.15405
G1 X95.192 Y40.252 E0.15405
G1 X93.228 Y37.102 E0.13988
G1 X90.741 Y33.858 E0.15405
G1 X87.939 Y30.882 E0.15406
G1 X84.849 Y28.205 E0.15405
G1 X81.505 Y25.854 E0.15405
G1 X77.94 Y23.853 E0.15405
G1 X74.191 Y22.224 E0.15405
G1 X70.297 Y20.982 E0.15406
G1 X66.297 Y20.14 E0.15405
G1 X62.232 Y19.708 E0.15405
G1 X58.144 Y19.689 E0.15405
G1 X54.075 Y20.083 E0.15405
G1 X50.067 Y20.888 E0.15406
G1 X46.161 Y22.093 E0.15405
G1 X42.398 Y23.688 E0.15405
G1 X38.814 Y25.655 E0.15405
G1 X35.448 Y27.974 E0.15405
G1 X32.38 Y30.584 E0.15179
M107
G1 X32.645 Y30.984 F18000
M107
G1 F1800
G1 X29.85 Y33.901 E0.15224
G1 X27.364 Y37.085 E0.15223
G1 X25.213 Y40.504 E0.15223
G1 X23.419 Y44.124 E0.15223
G1 X22.001 Y47.906 E0.15224
G1 X20.972 Y51.812 E0.15223
G1 X20.311 Y56.129 E0.16458
G1 X20.123 Y60.164 E0.15223
G1 X20.344 Y64.197 E0.15223
G1 X20.972 Y68.188 E0.15223
G1 X22.001 Y72.094 E0.15224
G1 X23.419 Y75.876 E0.15223
G1 X25.213 Y79.496 E0.15223
G1 X27.364 Y82.915 E0.15224
G1 X29.85 Y86.099 E0.15223
G1 X32.645 Y89.016 E0.15223
G1 X35.721 Y91.634 E0.15223
G1 X39.046 Y93.928 E0.15224
G1 X42.586 Y95.874 E0.15223
G1 X45.997 Y97.338 E0.13988
G1 X49.846 Y98.563 E0.15223
G1 X53.799 Y99.392 E0.15224
G1 X57.816 Y99.818 E0.15223
G1 X61.856 Y99.834 E0.15223
G1 X65.876 Y99.442 E0.15223
G1 X69.836 Y98.645 E0.15224
G1 X73.696 Y97.452 E0.15223
G1 X77.414 Y95.874 E0.15223
G1 X80.954 Y93.928 E0.15223
G1 X84.279 Y91.634 E0.15224
G1 X87.355 Y89.016 E0.15223
G1 X90.15 Y86.099 E0.15223
G1 X92.636 Y82.915 E0.15224
G1 X94.787 Y79.496 E0.15223
G1 X96.581 Y75.876 E0.15223
G1 X97.999 Y72.094 E0.15223
G1 X99.028 Y68.188 E0.15224
G1 X99.689 Y63.871 E0.16457
G1 X99.877 Y59.836 E0.15224
G1 X99.656 Y55.803 E0.15223
G1 X99.028 Y51.812 E0.15223
G1 X97.999 Y47.906 E0.15223
G1 X96.581 Y44.124 E0.15224
G1 X94.787 Y40.504 E0.15223
G1 X92.636 Y37.085 E0.15223
G1 X90.15 Y33.901 E0.15223
G1 X87.355 Y30.984 E0.15224
G1 X84.279 Y28.366 E0.15223
G1 X80.954 Y26.072 E0.15223
G1 X77.414 Y24.126 E0.15223
G1 X74.003 Y22.662 E0.13989
G1 X70.154 Y21.437 E0.15223
G1 X66.201 Y20.608 E0.15223
G1 X62.184 Y20.182 E0.15224
G1 X58.144 Y20.166 E0.15223
G1 X54.124 Y20.558 E0.15223
G1 X50.164 Y21.355 E0.15223
G1 X46.304 Y22.548 E0.15224
G1 X42.586 Y24.126 E0.15223
G1 X39.046 Y26.072 E0.15223
G1 X35.721 Y28.366 E0.15223
G1 X32.691 Y30.945 E0.14998
M107
G1 E-2.000000 F3000
M204 S1500
G1 Z0.6 F18000
; printing object cycloid_stator_3_top.STL id:0 copy 0
EXCLUDE_OBJECT_START NAME=cycloid_stator_3_top_STL_id_0_copy_0
; acceleration to travel
G1 X52.586 Y32.805
; decel to extrusion
M204 S1000
G1 X65.85 Y34.044
; end travel
G1 Z0.2
G1 E2.000000 F1800
;TYPE:Internal perimeter
;WIDTH:0.56
M107
G1 X66.355 Y33.909 E0.02136
G1 X66.901 Y33.654 E0.02461
G1 X67.395 Y33.308 E0.02461
G1 X67.821 Y32.883 E0.0246
G1 X68.166 Y32.389 E0.02461
G1 X68.421 Y31.843 E0.0246
G1 X68.577 Y31.261 E0.02461
G1 X68.629 Y30.661 E0.0246
G1 X68.577 Y30.061 E0.02461
G1 X68.421 Y29.479 E0.0246
G1 X68.166 Y28.933 E0.02461
G1 X67.821 Y28.44 E0.0246
G1 X67.395 Y28.014 E0.02461
G1 X66.901 Y27.668 E0.0246
G1 X66.355 Y27.414 E0.02461
G1 X65.773 Y27.258 E0.0246
G1 X65.173 Y27.205 E0.02461
G1 X64.573 Y27.258 E0.0246
G1 X63.991 Y27.414 E0.02461
G1 X63.445 Y27.668 E0.0246
G1 X62.952 Y28.014 E0.02461
G1 X62.526 Y28.44 E0.0246
G1 X62.18 Y28.933 E0.02461
G1 X61.926 Y29.479 E0.0246
G1 X61.77 Y30.061 E0.02461
G1 X61.717 Y30.661 E0.0246
G1 X61.77 Y31.261 E0.02461
G1 X61.926 Y31.843 E0.0246
G1 X62.18 Y32.389 E0.02461
G1 X62.526 Y32.883 E0.0246
G1 X62.952 Y33.308 E0.02461
G1 X63.529 Y33.713 E0.02877
G1 X63.419 Y34.011 E0.013
G1 X60.808 Y33.769 E0.10712
G1 X57.579 Y33.869 E0.13197
G1 X54.386 Y34.365 E0.13198
G1 X51.278 Y35.249 E0.13197
G1 X48.302 Y36.508 E0.13198
G1 X47.94 Y36.718 E0.01711
G1 X47.715 Y36.473 E0.01356
G1 X48.097 Y35.928 E0.02717
G1 X48.352 Y35.382 E0.02461
G1 X48.508 Y34.8 E0.0246
G1 X48.56 Y34.2 E0.02461
G1 X48.508 Y33.6 E0.0246
G1 X48.352 Y33.018 E0.02461
G1 X48.097 Y32.472 E0.0246
G1 X47.752 Y31.978 E0.02461
G1 X47.326 Y31.553 E0.0246
G1 X46.832 Y31.207 E0.02461
G1 X46.286 Y30.952 E0.02461
G1 X45.704 Y30.796 E0.0246
G1 X45.104 Y30.744 E0.02461
G1 X44.504 Y30.796 E0.0246
G1 X43.922 Y30.952 E0.02461
G1 X43.376 Y31.207 E0.0246
G1 X42.883 Y31.553 E0.02461
G1 X42.457 Y31.978 E0.0246
G1 X42.111 Y32.472 E0.02461
G1 X41.857 Y33.018 E0.0246
G1 X41.701 Y33.6 E0.02461
G1 X41.648 Y34.2 E0.0246
G1 X41.701 Y34.8 E0.02461
G1 X41.857 Y35.382 E0.0246
G1 X42.111 Y35.928 E0.02461
G1 X42.457 Y36.421 E0.0246
G1 X42.883 Y36.847 E0.02461
G1 X43.376 Y37.193 E0.0246
G1 X43.922 Y37.447 E0.02461
G1 X44.504 Y37.603 E0.0246
G1 X45.104 Y37.656 E0.02461
G1 X45.767 Y37.598 E0.02717
G1 X45.867 Y37.914 E0.01356
G1 X45.504 Y38.124 E0.01711
G1 X42.926 Y40.071 E0.13198
G1 X40.606 Y42.32 E0.13197
G1 X38.58 Y44.837 E0.13198
G1 X36.88 Y47.585 E0.13197
G1 X35.783 Y49.967 E0.10712
G1 X35.47 Y49.912 E0.013
G1 X35.409 Y49.211 E0.02877
G1 X35.253 Y48.629 E0.02461
G1 X34.998 Y48.083 E0.0246
G1 X34.653 Y47.589 E0.02461
G1 X34.227 Y47.163 E0.0246
G1 X33.733 Y46.818 E0.02461
G1 X33.187 Y46.563 E0.0246
G1 X32.605 Y46.407 E0.02461
G1 X32.005 Y46.355 E0.0246
G1 X31.405 Y46.407 E0.02461
G1 X30.823 Y46.563 E0.0246
G1 X30.277 Y46.818 E0.02461
G1 X29.784 Y47.163 E0.0246
G1 X29.358 Y47.589 E0.02461
G1 X29.012 Y48.083 E0.0246
G1 X28.758 Y48.629 E0.02461
G1 X28.602 Y49.211 E0.0246
G1 X28.549 Y49.811 E0.02461
G1 X28.602 Y50.411 E0.0246
G1 X28.758 Y50.993 E0.02461
G1 X29.012 Y51.539 E0.0246
G1 X29.358 Y52.032 E0.02461
G1 X29.784 Y52.458 E0.0246
G1 X30.277 Y52.804 E0.02461
G1 X30.823 Y53.058 E0.0246
G1 X31.405 Y53.214 E0.02461
G1 X32.005 Y53.267 E0.02461
G1 X32.605 Y53.214 E0.0246
G1 X33.187 Y53.058 E0.02461
G1 X33.733 Y52.804 E0.0246
G1 X34.227 Y52.458 E0.02461
G1 X34.746 Y51.938 E0.03003
G1 X35.024 Y52.107 E0.01327
G1 X34.55 Y53.599 E0.06395
G1 X33.956 Y56.775 E0.13197
G1 X33.757 Y60.000000 E0.13198
G1 X33.956 Y63.225 E0.13197
G1 X34.55 Y66.401 E0.13198
G1 X35.024 Y67.893 E0.06394
G1 X34.746 Y68.062 E0.01328
G1 X34.227 Y67.542 E0.03003
G1 X33.733 Y67.196 E0.02461
G1 X33.187 Y66.942 E0.0246
G1 X32.605 Y66.786 E0.02461
G1 X32.005 Y66.733 E0.0246
G1 X31.405 Y66.786 E0.02461
G1 X30.823 Y66.942 E0.0246
G1 X30.277 Y67.196 E0.02461
G1 X29.784 Y67.542 E0.0246
G1 X29.358 Y67.968 E0.02461
G1 X29.012 Y68.461 E0.0246
G1 X28.758 Y69.007 E0.02461
G1 X28.602 Y69.589 E0.0246
G1 X28.549 Y70.189 E0.02461
G1 X28.602 Y70.789 E0.0246
G1 X28.758 Y71.371 E0.02461
G1 X29.012 Y71.917 E0.0246
G1 X29.358 Y72.411 E0.02461
G1 X29.784 Y72.837 E0.0246
G1 X30.277 Y73.182 E0.02461
G1 X30.823 Y73.437 E0.0246
G1 X31.405 Y73.593 E0.02461
G1 X32.005 Y73.645 E0.0246
G1 X32.605 Y73.593 E0.02461
G1 X33.187 Y73.437 E0.0246
G1 X33.733 Y73.182 E0.02461
G1 X34.227 Y72.837 E0.0246
G1 X34.653 Y72.411 E0.02461
G1 X34.998 Y71.917 E0.0246
G1 X35.253 Y71.371 E0.02461
G1 X35.409 Y70.789 E0.0246
G1 X35.47 Y70.088 E0.02878
G1 X35.783 Y70.033 E0.013
G1 X36.88 Y72.415 E0.10711
G1 X38.58 Y75.163 E0.13198
G1 X40.606 Y77.68 E0.13197
G1 X42.926 Y79.929 E0.13198
G1 X45.504 Y81.876 E0.13198
G1 X45.867 Y82.086 E0.0171
G1 X45.767 Y82.402 E0.01356
G1 X45.104 Y82.344 E0.02718
G1 X44.504 Y82.397 E0.0246
G1 X43.922 Y82.553 E0.02461
G1 X43.376 Y82.807 E0.0246
G1 X42.883 Y83.153 E0.02461
G1 X42.457 Y83.579 E0.0246
G1 X42.111 Y84.072 E0.02461
G1 X41.857 Y84.618 E0.0246
G1 X41.701 Y85.2 E0.02461
G1 X41.648 Y85.8 E0.0246
G1 X41.701 Y86.4 E0.02461
G1 X41.857 Y86.982 E0.02461
G1 X42.111 Y87.528 E0.0246
G1 X42.457 Y88.022 E0.02461
G1 X42.883 Y88.447 E0.0246
G1 X43.376 Y88.793 E0.02461
G1 X43.922 Y89.048 E0.0246
G1 X44.504 Y89.204 E0.02461
G1 X45.104 Y89.256 E0.0246
G1 X45.704 Y89.204 E0.02461
G1 X46.286 Y89.048 E0.0246
G1 X46.832 Y88.793 E0.02461
G1 X47.326 Y88.447 E0.0246
G1 X47.752 Y88.022 E0.02461
G1 X48.097 Y87.528 E0.0246
G1 X48.352 Y86.982 E0.02461
G1 X48.508 Y86.4 E0.0246
G1 X48.56 Y85.8 E0.02461
G1 X48.508 Y85.2 E0.0246
G1 X48.352 Y84.618 E0.02461
G1 X48.097 Y84.072 E0.0246
G1 X47.715 Y83.527 E0.02718
G1 X47.94 Y83.282 E0.01356
G1 X48.302 Y83.492 E0.01711
G1 X51.278 Y84.751 E0.13197
G1 X54.386 Y85.635 E0.13198
G1 X57.579 Y86.131 E0.13197
G1 X60.808 Y86.231 E0.13198
G1 X63.419 Y85.989 E0.10711
G1 X63.529 Y86.287 E0.013
G1 X62.952 Y86.692 E0.02878
G1 X62.526 Y87.117 E0.0246
G1 X62.18 Y87.611 E0.02461
G1 X61.926 Y88.157 E0.0246
G1 X61.77 Y88.739 E0.02461
G1 X61.717 Y89.339 E0.0246
G1 X61.77 Y89.939 E0.02461
G1 X61.926 Y90.521 E0.0246
G1 X62.18 Y91.067 E0.02461
G1 X62.526 Y91.56 E0.0246
G1 X62.952 Y91.986 E0.02461
G1 X63.445 Y92.332 E0.0246
G1 X63.991 Y92.586 E0.02461
G1 X64.573 Y92.742 E0.0246
G1 X65.173 Y92.795 E0.02461
G1 X65.773 Y92.742 E0.0246
G1 X66.355 Y92.586 E0.02461
G1 X66.901 Y92.332 E0.0246
G1 X67.395 Y91.986 E0.02461
G1 X67.821 Y91.56 E0.0246
G1 X68.166 Y91.067 E0.02461
G1 X68.421 Y90.521 E0.02461
G1 X68.577 Y89.939 E0.0246
G1 X68.629 Y89.339 E0.02461
G1 X68.577 Y88.739 E0.0246
G1 X68.421 Y88.157 E0.02461
G1 X68.166 Y87.611 E0.0246
G1 X67.821 Y87.117 E0.02461
G1 X67.395 Y86.692 E0.0246
G1 X66.901 Y86.346 E0.02461
G1 X66.355 Y86.091 E0.0246
G1 X65.645 Y85.901 E0.03003
G1 X65.653 Y85.576 E0.01328
G1 X67.182 Y85.241 E0.06394
G1 X70.229 Y84.167 E0.13198
G1 X73.122 Y82.727 E0.13197
G1 X75.815 Y80.942 E0.13198
G1 X78.269 Y78.84 E0.13198
G1 X79.323 Y77.683 E0.06394
G1 X79.609 Y77.839 E0.01328
G1 X79.418 Y78.549 E0.03003
G1 X79.366 Y79.15 E0.0246
G1 X79.418 Y79.75 E0.02461
G1 X79.574 Y80.332 E0.0246
G1 X79.829 Y80.878 E0.02461
G1 X80.174 Y81.371 E0.0246
G1 X80.6 Y81.797 E0.02461
G1 X81.094 Y82.142 E0.0246
G1 X81.64 Y82.397 E0.02461
G1 X82.221 Y82.553 E0.0246
G1 X82.822 Y82.605 E0.02461
G1 X83.422 Y82.553 E0.0246
G1 X84.004 Y82.397 E0.02461
G1 X84.549 Y82.142 E0.0246
G1 X85.043 Y81.797 E0.02461
G1 X85.469 Y81.371 E0.0246
G1 X85.814 Y80.878 E0.02461
G1 X86.069 Y80.332 E0.0246
G1 X86.225 Y79.75 E0.02461
G1 X86.277 Y79.15 E0.0246
G1 X86.225 Y78.549 E0.02461
G1 X86.069 Y77.968 E0.0246
G1 X85.814 Y77.422 E0.02461
G1 X85.469 Y76.928 E0.0246
G1 X85.043 Y76.502 E0.02461
G1 X84.549 Y76.157 E0.0246
G1 X84.004 Y75.902 E0.02461
G1 X83.422 Y75.746 E0.0246
G1 X82.822 Y75.694 E0.02461
G1 X82.221 Y75.746 E0.02461
G1 X81.64 Y75.902 E0.0246
G1 X81.001 Y76.2 E0.02878
G1 X80.797 Y75.956 E0.013
G1 X82.312 Y73.815 E0.10711
G1 X83.841 Y70.969 E0.13197
G1 X85.008 Y67.956 E0.13198
G1 X85.796 Y64.822 E0.13198
G1 X86.191 Y61.637 E0.13108
G1 X86.204 Y61.205 E0.01767
G1 X86.524 Y61.139 E0.01334
G1 X86.799 Y61.728 E0.02654
G1 X87.144 Y62.221 E0.02461
G1 X87.57 Y62.647 E0.0246
G1 X88.064 Y62.993 E0.02461
G1 X88.609 Y63.247 E0.0246
G1 X89.191 Y63.403 E0.02461
