; generated by SuperSlicer 2.5.59.12 on 2024-07-29 at 15:33:45 UTC


;
;

;
;
; TODO: check the size of the extruder and the y-bar clearance. Optimize & test supports.

; external perimeters extrusion width = 0.56mm
; perimeters extrusion width = 0.56mm
; infill extrusion width = 0.56mm
; solid infill extrusion width = 0.56mm
; top infill extrusion width = 0.56mm
; first layer extrusion width = 0.56mm

; object:{"name":"cycloid_stator_2_test","id":"cycloid_stator_2_test.STL id:0 copy 0","object_center":[60.000000,60.000000,0.000000],"boundingbox_center":[60.000000,60.000000,3.000000],"boundingbox_size":[74.000000,73.905022,6.000000]}
EXCLUDE_OBJECT_DEFINE NAME=cycloid_stator_2_test_STL_id_0_copy_0 CENTER=60.000000,60.000000 POLYGON=[[23.00,60.00],[23.19,56.26],[23.76,52.55],[24.70,48.92],[26.00,45.41],[27.65,42.04],[29.63,38.86],[31.93,35.90],[34.51,33.18],[37.35,30.74],[40.43,28.60],[43.71,26.78],[47.15,25.30],[50.73,24.18],[54.40,23.43],[58.13,23.05],[61.87,23.05],[65.60,23.43],[69.27,24.18],[72.85,25.30],[76.29,26.78],[79.57,28.60],[82.65,30.74],[85.49,33.18],[88.07,35.90],[90.37,38.86],[92.35,42.04],[94.00,45.41],[95.30,48.92],[96.24,52.55],[96.81,56.26],[97.00,60.00],[96.81,63.74],[96.24,67.45],[95.30,71.08],[94.00,74.59],[92.35,77.96],[90.37,81.14],[88.07,84.10],[85.49,86.82],[82.65,89.26],[79.57,91.40],[76.29,93.22],[72.85,94.70],[69.27,95.82],[65.60,96.57],[61.87,96.95],[58.13,96.95],[54.40,96.57],[50.73,95.82],[47.15,94.70],[43.71,93.22],[40.43,91.40],[37.35,89.26],[34.51,86.82],[31.93,84.10],[29.63,81.14],[27.65,77.96],[26.00,74.59],[24.70,71.08],[23.76,67.45],[23.19,63.74],[23.00,60.00]]
; plater:{"center":[60.000000,60.000000,0.000000],"boundingbox_center":[60.000000,60.000000,3.000000],"boundingbox_size":[74.000000,73.905022,6.000000]}

M107
;TYPE:Custom
; M190 S0
;M109 S0 ; uncomment to remove set&wait temp gcode added automatically after this start gcode
print_start EXTRUDER=245 BED=90 CHAMBER=50

;G92 E0
;G1 E10 F1500 ; prime the nozzle
M107
G21 ; set units to millimeters
G90 ; use absolute coordinates
M83 ; use relative distances for extrusion
SET_PRESSURE_ADVANCE ADVANCE=0.04
M104 S245 ; set temperature
M109 S245 ; set temperature and wait for it to be reached
M190 S90 ; set bed temperature and wait for it to be reached
;LAYER_CHANGE
;Z:0.2
;HEIGHT:0.2
;BEFORE_LAYER_CHANGE
;0.2


G1 Z0.2 F18000
;AFTER_LAYER_CHANGE
;0.2
TIMELAPSE_TAKE_FRAME
G92 E0
G1 E-2.000000 F3000
G1 Z0.6 F18000
M204 S1000
G1 X32.023 Y30.26
G1 Z0.2
G1 E2.000000 F1800
;TYPE:Skirt
;WIDTH:0.52
M107
G1 X29.158 Y33.243 E0.15587
G1 X26.61 Y36.501 E0.15587
G1 X24.403 Y39.999 E0.15587
G1 X22.563 Y43.703 E0.15588
G1 X21.106 Y47.574 E0.15587
G1 X20.049 Y51.573 E0.15587
G1 X19.401 Y55.658 E0.15587
G1 X19.17 Y59.788 E0.15587
G1 X19.358 Y63.919 E0.15587
G1 X19.963 Y68.011 E0.15587
G1 X20.979 Y72.02 E0.15587
G1 X22.395 Y75.906 E0.15587
G1 X24.197 Y79.629 E0.15588
G1 X26.367 Y83.151 E0.15587
G1 X28.882 Y86.434 E0.15587
G1 X31.716 Y89.447 E0.15587
G1 X34.84 Y92.157 E0.15587
G1 X38.222 Y94.538 E0.15587
G1 X41.828 Y96.564 E0.15587
G1 X45.62 Y98.215 E0.15587
G1 X49.56 Y99.473 E0.15588
G1 X53.607 Y100.327 E0.15587
G1 X59.535 Y100.888 E0.22438
G1 X62.153 Y100.779 E0.09874
G1 X66.393 Y100.327 E0.1607
G1 X70.44 Y99.473 E0.15587
G1 X74.38 Y98.215 E0.15587
G1 X78.172 Y96.564 E0.15587
G1 X81.778 Y94.538 E0.15587
G1 X85.16 Y92.157 E0.15587
G1 X88.284 Y89.447 E0.15587
G1 X91.118 Y86.434 E0.15587
G1 X93.633 Y83.151 E0.15588
G1 X95.597 Y80.001 E0.13988
G1 X97.437 Y76.297 E0.15587
G1 X98.894 Y72.426 E0.15587
G1 X99.951 Y68.427 E0.15587
G1 X100.599 Y64.342 E0.15587
G1 X100.83 Y60.212 E0.15588
G1 X100.642 Y56.081 E0.15587
G1 X100.037 Y51.989 E0.15587
G1 X99.021 Y47.98 E0.15587
G1 X97.605 Y44.094 E0.15587
G1 X95.803 Y40.371 E0.15587
G1 X93.633 Y36.849 E0.15587
G1 X90.842 Y33.243 E0.17186
G1 X88.284 Y30.553 E0.13988
G1 X85.16 Y27.843 E0.15587
G1 X81.778 Y25.462 E0.15587
G1 X78.172 Y23.436 E0.15587
G1 X74.38 Y21.785 E0.15588
G1 X70.44 Y20.527 E0.15587
G1 X66.393 Y19.673 E0.15587
G1 X62.28 Y19.233 E0.15587
G1 X58.144 Y19.212 E0.15587
G1 X54.027 Y19.609 E0.15587
G1 X49.971 Y20.42 E0.15587
G1 X46.019 Y21.638 E0.15587
G1 X42.209 Y23.249 E0.15588
G1 X38.583 Y25.238 E0.15587
G1 X35.176 Y27.583 E0.15587
G1 X32.069 Y30.222 E0.15361
M107
G1 X32.334 Y30.622 F18000
M107
G1 F1800
G1 X29.504 Y33.572 E0.15405
G1 X26.987 Y36.793 E0.15405
G1 X24.808 Y40.252 E0.15405
G1 X22.991 Y43.913 E0.15406
G1 X21.553 Y47.74 E0.15405
G1 X20.51 Y51.693 E0.15405
G1 X19.873 Y55.73 E0.15405
G1 X19.646 Y59.812 E0.15405
G1 X19.834 Y63.895 E0.15406
G1 X20.435 Y67.939 E0.15405
G1 X21.441 Y71.901 E0.15405
G1 X22.843 Y75.741 E0.15405
G1 X24.626 Y79.419 E0.15405
G1 X26.772 Y82.898 E0.15405
G1 X29.259 Y86.142 E0.15406
G1 X32.061 Y89.118 E0.15405
G1 X35.151 Y91.795 E0.15405
G1 X38.495 Y94.146 E0.15405
G1 X42.06 Y96.147 E0.15405
G1 X45.809 Y97.776 E0.15406
G1 X49.703 Y99.018 E0.15405
G1 X53.703 Y99.86 E0.15405
G1 X59.535 Y100.411 E0.22074
G1 X62.119 Y100.303 E0.09747
G1 X66.297 Y99.86 E0.15833
G1 X70.297 Y99.018 E0.15405
G1 X74.191 Y97.776 E0.15405
G1 X77.94 Y96.147 E0.15406
G1 X81.505 Y94.146 E0.15405
G1 X84.849 Y91.795 E0.15405
G1 X87.939 Y89.118 E0.15405
G1 X90.741 Y86.142 E0.15405
G1 X93.228 Y82.898 E0.15406
G1 X95.374 Y79.419 E0.15405
G1 X97.157 Y75.741 E0.15405
G1 X98.447 Y72.26 E0.13988
G1 X99.49 Y68.307 E0.15405
G1 X100.127 Y64.27 E0.15406
G1 X100.354 Y60.188 E0.15405
G1 X100.166 Y56.105 E0.15405
G1 X99.565 Y52.061 E0.15405
G1 X98.559 Y48.099 E0.15405
G1 X97.157 Y44.259 E0.15406
G1 X95.374 Y40.581 E0.15405
G1 X93.228 Y37.102 E0.15405
G1 X90.496 Y33.572 E0.16822
G1 X87.666 Y30.622 E0.15405
G1 X84.552 Y27.974 E0.15405
G1 X81.505 Y25.854 E0.13988
G1 X77.94 Y23.853 E0.15406
G1 X74.191 Y22.224 E0.15405
G1 X70.297 Y20.982 E0.15405
G1 X66.297 Y20.14 E0.15405
G1 X62.232 Y19.708 E0.15405
G1 X58.144 Y19.689 E0.15405
G1 X54.075 Y20.083 E0.15406
G1 X50.067 Y20.888 E0.15405
G1 X46.161 Y22.093 E0.15405
G1 X42.398 Y23.688 E0.15405
G1 X38.814 Y25.655 E0.15405
G1 X35.448 Y27.974 E0.15406
G1 X32.38 Y30.584 E0.15179
M107
G1 X32.645 Y30.984 F18000
M107
G1 F1800
G1 X29.85 Y33.901 E0.15223
G1 X27.364 Y37.085 E0.15223
G1 X25.213 Y40.504 E0.15223
G1 X23.419 Y44.124 E0.15224
G1 X22.001 Y47.906 E0.15223
G1 X20.972 Y51.812 E0.15223
G1 X20.344 Y55.803 E0.15223
G1 X20.123 Y59.836 E0.15224
G1 X20.311 Y63.871 E0.15223
G1 X20.906 Y67.867 E0.15223
G1 X21.903 Y71.781 E0.15223
G1 X23.29 Y75.575 E0.15224
G1 X25.054 Y79.209 E0.15223
G1 X27.177 Y82.646 E0.15223
G1 X29.636 Y85.85 E0.15224
G1 X32.407 Y88.79 E0.15223
G1 X35.461 Y91.433 E0.15223
G1 X38.767 Y93.755 E0.15223
G1 X42.291 Y95.73 E0.15224
G1 X45.997 Y97.338 E0.15223
G1 X49.846 Y98.563 E0.15223
G1 X53.799 Y99.392 E0.15223
G1 X59.535 Y99.934 E0.21711
G1 X62.085 Y99.827 E0.09619
G1 X66.201 Y99.392 E0.15597
G1 X70.154 Y98.563 E0.15223
G1 X74.003 Y97.338 E0.15223
G1 X77.709 Y95.73 E0.15223
G1 X81.233 Y93.755 E0.15223
G1 X84.539 Y91.433 E0.15224
G1 X87.593 Y88.79 E0.15223
G1 X90.15 Y86.099 E0.13988
G1 X92.636 Y82.915 E0.15224
G1 X94.787 Y79.496 E0.15223
G1 X96.581 Y75.876 E0.15223
G1 X97.999 Y72.094 E0.15223
G1 X99.028 Y68.188 E0.15224
G1 X99.656 Y64.197 E0.15223
G1 X99.877 Y60.164 E0.15223
G1 X99.689 Y56.129 E0.15223
G1 X99.094 Y52.133 E0.15224
G1 X98.097 Y48.219 E0.15223
G1 X96.71 Y44.425 E0.15223
G1 X94.946 Y40.791 E0.15224
G1 X92.823 Y37.354 E0.15223
G1 X90.15 Y33.901 E0.16458
G1 X87.355 Y30.984 E0.15223
G1 X84.279 Y28.366 E0.15223
G1 X80.954 Y26.072 E0.15223
G1 X77.414 Y24.126 E0.15224
G1 X74.003 Y22.662 E0.13988
G1 X70.154 Y21.437 E0.15223
G1 X66.201 Y20.608 E0.15224
G1 X62.184 Y20.182 E0.15223
G1 X58.144 Y20.166 E0.15223
G1 X54.124 Y20.558 E0.15223
G1 X50.164 Y21.355 E0.15224
G1 X46.304 Y22.548 E0.15223
G1 X42.586 Y24.126 E0.15223
G1 X39.046 Y26.072 E0.15223
G1 X35.721 Y28.366 E0.15224
G1 X32.691 Y30.945 E0.14997
M107
G1 E-2.000000 F3000
M204 S1500
G1 Z0.6 F18000
; printing object cycloid_stator_2_test.STL id:0 copy 0
EXCLUDE_OBJECT_START NAME=cycloid_stator_2_test_STL_id_0_copy_0
; acceleration to travel
G1 X49.076 Y70.138
; decel to extrusion
M204 S1000
G1 X60.000000 Y96.267
; end travel
G1 Z0.2
G1 E2.000000 F1800
;TYPE:External perimeter
;WIDTH:0.56
M107
G1 X60.876 Y95.344 E0.05196
G1 X62.234 Y93.647 E0.0888
G1 X62.026 Y93.217 E0.0195
G1 X61.136 Y93.217 E0.03636
G1 X61.131 Y92.236 E0.04008
G1 X61.102 Y91.765 E0.01926
G1 X61.026 Y91.249 E0.02131
M107
;TYPE:Thin wall
;WIDTH:0.019429
M107
G1 X60.968 Y91.194
M107
;WIDTH:0.174857
M107
G1 X60.845 Y91.156 E0.00139
M107
;WIDTH:0.36
M107
G1 X59.146 Y91.187 E0.04312
M107
;WIDTH:0.221143
M107
G1 X59.027 Y91.216 E0.00177
M107
;WIDTH:0.00698
M107
G1 X59.01 Y91.22 E0.00002
G1 X59.027 Y91.216 E0.00002
M107
;WIDTH:0.024571
M107
G1 X59.146 Y91.187 E0.00019
M107
;WIDTH:0.04
M107
G1 X60.845 Y91.156 E0.0048
M107
;WIDTH:0.019429
M107
G1 X60.968 Y91.194 E0.00015
M107
;WIDTH:0.194285
M107
G1 X61.026 Y91.249
M107
;TYPE:External perimeter
;WIDTH:0.56
M107
G1 X61.575 Y91.234 E0.02243
G1 X62.057 Y91.287 E0.01981
G1 X62.586 Y91.302 E0.0216
G1 X66.022 Y90.831 E0.14168
G1 X69.377 Y89.981 E0.14137
G1 X72.619 Y88.768 E0.14137
G1 X75.707 Y87.205 E0.14136
G1 X78.604 Y85.312 E0.14137
G1 X81.276 Y83.112 E0.14136
G1 X83.689 Y80.631 E0.14137
G1 X85.815 Y77.9 E0.14137
G1 X87.627 Y74.951 E0.14136
G1 X89.104 Y71.821 E0.14137
G1 X90.228 Y68.548 E0.14136
G1 X90.985 Y65.17 E0.14137
G1 X91.365 Y61.736 E0.14115
G1 X91.413 Y60.000000 E0.07092
G1 X91.365 Y58.264 E0.07093
G1 X90.985 Y54.83 E0.14115
G1 X90.228 Y51.452 E0.14136
G1 X89.104 Y48.179 E0.14137
G1 X87.627 Y45.049 E0.14136
G1 X85.815 Y42.1 E0.14137
G1 X83.689 Y39.369 E0.14137
G1 X81.276 Y36.888 E0.14136
G1 X78.604 Y34.688 E0.14137
G1 X75.707 Y32.795 E0.14136
G1 X72.619 Y31.232 E0.14137
G1 X69.377 Y30.019 E0.14136
G1 X66.022 Y29.169 E0.14137
G1 X62.594 Y28.694 E0.14137
G1 X59.134 Y28.599 E0.14136
G1 X58.627 Y28.641 E0.02081
M107
M107
G1 X55.685 Y28.884 E0.12056
G1 X52.288 Y29.548 E0.14136
G1 X48.985 Y30.581 E0.14137
G1 X45.816 Y31.971 E0.14137
G1 X42.819 Y33.702 E0.14136
G1 X40.03 Y35.752 E0.14137
G1 X37.483 Y38.096 E0.14136
G1 X35.21 Y40.706 E0.14137
G1 X33.238 Y43.55 E0.14136
G1 X31.591 Y46.594 E0.14137
G1 X30.289 Y49.8 E0.14137
G1 X29.347 Y53.13 E0.14136
G1 X28.777 Y56.544 E0.14137
G1 X28.587 Y60.000000 E0.14136
G1 X28.777 Y63.456 E0.14137
G1 X29.347 Y66.87 E0.14137
G1 X30.289 Y70.2 E0.14136
G1 X31.591 Y73.406 E0.14137
G1 X33.238 Y76.45 E0.14136
G1 X35.21 Y79.294 E0.14137
G1 X37.483 Y81.904 E0.14136
G1 X40.03 Y84.248 E0.14137
G1 X42.819 Y86.298 E0.14137
G1 X45.816 Y88.029 E0.14136
G1 X48.985 Y89.419 E0.14137
G1 X52.288 Y90.452 E0.14136
G1 X55.685 Y91.116 E0.14137
G1 X57.669 Y91.258 E0.08125
G1 X58.646 Y91.261 E0.0399
G1 X58.963 Y91.287 E0.01299
G1 X58.963 Y91.781 E0.02017
G1 X58.874 Y92.68 E0.03692
G1 X58.867 Y93.217 E0.02193
G1 X57.974 Y93.217 E0.03648
G1 X57.766 Y93.647 E0.01951
G1 X59.124 Y95.344 E0.08879
G1 X59.959 Y96.223 E0.04951
M107
;WIPE_START
M204 S1500
G1 X60.143 Y96.407 F18000
;WIPE_END
M204 S1000
G1 X57.709 Y95.231
;TYPE:Internal perimeter
M107
G1 F1800
G1 X54.651 Y94.919 E0.12559
G1 X51.145 Y94.199 E0.14617
G1 X47.731 Y93.128 E0.14617
G1 X44.442 Y91.717 E0.14617
G1 X41.313 Y89.98 E0.14617
G1 X38.376 Y87.936 E0.14616
G1 X35.661 Y85.605 E0.14617
G1 X33.195 Y83.011 E0.14617
G1 X31.005 Y80.181 E0.14617
G1 X29.112 Y77.144 E0.14617
G1 X27.536 Y73.931 E0.14616
G1 X26.293 Y70.576 E0.14617
G1 X25.396 Y67.111 E0.14617
G1 X24.854 Y63.574 E0.14617
G1 X24.673 Y60.000000 E0.14616
G1 X24.854 Y56.426 E0.14617
G1 X25.396 Y52.889 E0.14617
G1 X26.293 Y49.424 E0.14617
G1 X27.536 Y46.069 E0.14617
G1 X29.112 Y42.856 E0.14616
G1 X31.005 Y39.819 E0.14617
G1 X33.195 Y36.989 E0.14617
G1 X35.661 Y34.395 E0.14617
G1 X38.376 Y32.064 E0.14617
G1 X41.313 Y30.02 E0.14616
G1 X44.442 Y28.283 E0.14617
G1 X47.731 Y26.872 E0.14617
G1 X51.145 Y25.801 E0.14617
G1 X54.651 Y25.081 E0.14617
G1 X58.211 Y24.719 E0.14616
G1 X61.789 Y24.719 E0.14617
G1 X62.644 Y24.805 E0.03508
G1 X65.349 Y25.081 E0.11109
G1 X68.855 Y25.801 E0.14617
G1 X72.269 Y26.872 E0.14616
G1 X75.558 Y28.283 E0.14617
G1 X78.687 Y30.02 E0.14617
G1 X81.624 Y32.064 E0.14617
G1 X84.339 Y34.395 E0.14617
G1 X86.805 Y36.989 E0.14616
G1 X88.995 Y39.819 E0.14617
G1 X90.888 Y42.856 E0.14617
G1 X92.464 Y46.069 E0.14617
G1 X93.707 Y49.424 E0.14617
G1 X94.604 Y52.889 E0.14616
G1 X95.146 Y56.426 E0.14617
G1 X95.327 Y60.000000 E0.14617
G1 X95.146 Y63.574 E0.14617
G1 X94.604 Y67.111 E0.14616
G1 X93.707 Y70.576 E0.14617
G1 X92.464 Y73.931 E0.14617
G1 X90.888 Y77.144 E0.14617
G1 X88.995 Y80.181 E0.14617
G1 X86.805 Y83.011 E0.14616
G1 X84.339 Y85.605 E0.14617
G1 X81.624 Y87.936 E0.14617
G1 X78.687 Y89.98 E0.14617
G1 X75.558 Y91.717 E0.14617
G1 X72.269 Y93.128 E0.14616
G1 X68.855 Y94.199 E0.14617
G1 X65.349 Y94.919 E0.14618
G1 X62.291 Y95.231 E0.12558
G1 X63.449 Y93.784 E0.07574
G1 X62.742 Y92.324 E0.06624
G1 X66.22 Y91.847 E0.14337
G1 X69.687 Y90.97 E0.14607
G1 X73.035 Y89.716 E0.14603
G1 X76.225 Y88.102 E0.14602
G1 X79.217 Y86.146 E0.14603
G1 X81.977 Y83.874 E0.14603
G1 X84.47 Y81.311 E0.14602
G1 X86.666 Y78.49 E0.14603
G1 X88.538 Y75.444 E0.14603
G1 X90.064 Y72.211 E0.14602
G1 X91.225 Y68.83 E0.14603
G1 X92.007 Y65.341 E0.14603
G1 X92.398 Y61.807 E0.14523
G1 X92.447 Y60.000000 E0.07383
G1 X92.398 Y58.193 E0.07384
G1 X92.007 Y54.659 E0.14522
G1 X91.225 Y51.17 E0.14603
G1 X90.064 Y47.789 E0.14603
G1 X88.538 Y44.556 E0.14603
G1 X86.666 Y41.51 E0.14602
G1 X84.47 Y38.689 E0.14603
G1 X81.977 Y36.126 E0.14603
G1 X79.217 Y33.854 E0.14602
G1 X76.225 Y31.898 E0.14603
G1 X73.035 Y30.284 E0.14603
G1 X69.687 Y29.03 E0.14602
G1 X66.221 Y28.153 E0.14603
G1 X62.68 Y27.662 E0.14603
G1 X59.106 Y27.563 E0.14602
G1 X55.543 Y27.858 E0.14603
G1 X52.034 Y28.544 E0.14603
G1 X48.622 Y29.611 E0.14602
G1 X45.348 Y31.047 E0.14603
G1 X42.252 Y32.835 E0.14603
G1 X39.371 Y34.952 E0.14602
G1 X36.741 Y37.373 E0.14603
G1 X34.393 Y40.069 E0.14603
G1 X32.356 Y43.007 E0.14602
G1 X30.654 Y46.151 E0.14603
G1 X29.309 Y49.464 E0.14603
G1 X28.336 Y52.904 E0.14602
G1 X27.748 Y56.43 E0.14603
G1 X27.551 Y60.000000 E0.14603
G1 X27.748 Y63.57 E0.14602
G1 X28.336 Y67.096 E0.14603
G1 X29.309 Y70.536 E0.14603
G1 X30.654 Y73.849 E0.14603
G1 X32.356 Y76.993 E0.14602
G1 X34.393 Y79.931 E0.14603
G1 X36.741 Y82.627 E0.14602
G1 X39.371 Y85.048 E0.14603
G1 X42.252 Y87.165 E0.14603
G1 X45.348 Y88.953 E0.14603
G1 X48.622 Y90.389 E0.14602
G1 X52.034 Y91.456 E0.14603
G1 X55.549 Y92.143 E0.14626
G1 X57.285 Y92.267 E0.07111
G1 X56.551 Y93.784 E0.06883
G1 X57.672 Y95.184 E0.0733
M107
G1 X58.849 Y95.827 F18000
M107
G1 F1800
G1 X58.202 Y95.801 E0.02645
G1 X54.572 Y95.431 E0.14902
G1 X51.015 Y94.7 E0.14831
G1 X47.551 Y93.613 E0.14831
G1 X44.214 Y92.181 E0.14831
G1 X41.04 Y90.419 E0.14831
G1 X38.059 Y88.345 E0.14831
G1 X35.304 Y85.98 E0.14831
G1 X32.803 Y83.348 E0.14831
G1 X30.58 Y80.477 E0.14831
G1 X28.659 Y77.395 E0.14831
G1 X27.06 Y74.136 E0.14831
G1 X25.799 Y70.731 E0.14831
G1 X24.889 Y67.215 E0.14831
G1 X24.339 Y63.626 E0.14831
G1 X24.155 Y60.000000 E0.14831
G1 X24.339 Y56.374 E0.14831
G1 X24.889 Y52.785 E0.14831
G1 X25.799 Y49.269 E0.14831
G1 X27.06 Y45.864 E0.14831
G1 X28.659 Y42.605 E0.14831
G1 X30.58 Y39.523 E0.14831
G1 X32.803 Y36.652 E0.14831
G1 X35.304 Y34.02 E0.14831
G1 X38.059 Y31.655 E0.14831
G1 X41.04 Y29.581 E0.14831
G1 X44.214 Y27.819 E0.14831
G1 X47.551 Y26.387 E0.14831
G1 X51.015 Y25.3 E0.14831
G1 X54.572 Y24.569 E0.14831
G1 X58.184 Y24.201 E0.14831
G1 X61.816 Y24.201 E0.14831
G1 X62.696 Y24.291 E0.03615
G1 X65.428 Y24.569 E0.11216
G1 X68.985 Y25.3 E0.14831
G1 X72.449 Y26.387 E0.14831
G1 X75.786 Y27.819 E0.14831
G1 X78.96 Y29.581 E0.14831
G1 X81.941 Y31.655 E0.14832
G1 X84.696 Y34.02 E0.1483
G1 X87.197 Y36.652 E0.14832
G1 X89.42 Y39.523 E0.14831
G1 X91.341 Y42.605 E0.14831
G1 X92.94 Y45.864 E0.14831
G1 X94.201 Y49.269 E0.14831
G1 X95.111 Y52.785 E0.14831
G1 X95.661 Y56.374 E0.14831
G1 X95.845 Y60.000000 E0.14831
G1 X95.661 Y63.626 E0.14831
G1 X95.111 Y67.215 E0.14831
G1 X94.201 Y70.731 E0.14831
G1 X92.94 Y74.136 E0.14831
G1 X91.341 Y77.395 E0.14831
G1 X89.42 Y80.477 E0.14831
G1 X87.197 Y83.348 E0.14831
