; generated by SuperSlicer 2.5.59.12 on 2024-08-02 at 00:09:23 UTC


;
;

;
;
; TODO: check the size of the extruder and the y-bar clearance. Optimize & test supports.

; external perimeters extrusion width = 0.56mm
; perimeters extrusion width = 0.56mm
; infill extrusion width = 0.56mm
; solid infill extrusion width = 0.56mm
; top infill extrusion width = 0.56mm
; support material extrusion width = 0.44mm
; first layer extrusion width = 0.56mm

; object:{"name":"cycloid_rotor_3","id":"cycloid_rotor_3.STL id:0 copy 0","object_center":[60.000000,60.000000,0.000000],"boundingbox_center":[60.000000,60.000000,2.500000],"boundingbox_size":[53.077026,53.631908,5.000000]}
EXCLUDE_OBJECT_DEFINE NAME=cycloid_rotor_3_STL_id_0_copy_0 CENTER=60.000000,60.000000 POLYGON=[[33.46,59.91],[33.47,59.72],[33.47,59.64],[33.48,59.49],[33.58,58.57],[33.59,58.54],[33.61,58.41],[33.81,57.58],[33.87,57.41],[33.92,57.24],[38.34,45.10],[38.57,44.55],[38.67,44.33],[38.75,44.16],[39.06,43.61],[39.30,43.24],[39.65,42.77],[40.07,42.27],[40.36,41.97],[40.68,41.68],[41.01,41.41],[41.20,41.25],[41.29,41.19],[42.00,40.72],[42.13,40.64],[52.88,34.44],[53.50,34.09],[53.57,34.06],[53.77,33.97],[53.78,33.96],[54.72,33.59],[55.76,33.33],[55.76,33.33],[55.94,33.30],[56.80,33.20],[56.81,33.20],[57.21,33.18],[57.91,33.20],[57.92,33.20],[58.53,33.27],[58.95,33.34],[71.23,35.50],[72.21,35.72],[72.23,35.73],[72.46,35.80],[73.22,36.08],[73.45,36.19],[73.62,36.27],[74.15,36.55],[74.37,36.68],[74.72,36.91],[75.04,37.15],[75.25,37.32],[75.70,37.72],[75.99,38.01],[76.53,38.61],[84.75,48.42],[84.96,48.70],[84.99,48.75],[85.34,49.28],[85.52,49.60],[85.63,49.82],[85.82,50.21],[85.95,50.54],[86.11,50.98],[86.18,51.21],[86.28,51.55],[86.42,52.24],[86.48,52.63],[86.53,53.26],[86.54,53.43],[86.54,53.67],[86.54,66.44],[86.54,66.56],[86.51,67.09],[86.45,67.61],[86.43,67.70],[86.36,68.12],[86.25,68.57],[86.15,68.91],[85.91,69.56],[85.67,70.10],[85.44,70.54],[85.02,71.21],[84.89,71.39],[84.43,71.97],[76.22,81.75],[75.96,82.03],[75.81,82.18],[75.47,82.49],[75.18,82.74],[74.85,82.99],[74.66,83.12],[74.33,83.34],[73.77,83.66],[73.29,83.89],[72.60,84.15],[72.24,84.27],[71.84,84.37],[71.43,84.46],[71.22,84.50],[58.58,86.72],[58.25,86.77],[58.10,86.78],[57.33,86.82],[57.04,86.81],[56.52,86.78],[56.07,86.72],[56.01,86.71],[55.49,86.61],[54.97,86.48],[54.84,86.44],[54.46,86.32],[53.93,86.11],[53.63,85.96],[53.01,85.64],[42.33,79.46],[41.52,78.97],[41.40,78.89],[41.27,78.79],[41.10,78.67],[40.69,78.33],[40.59,78.24],[40.16,77.82],[39.95,77.59],[39.91,77.55],[39.36,76.85],[39.26,76.70],[38.70,75.74],[38.70,75.73],[38.29,74.78],[34.00,62.98],[33.80,62.38],[33.70,61.99],[33.70,61.99],[33.54,61.16],[33.52,60.96],[33.52,60.96],[33.46,59.91]]
; plater:{"center":[60.000000,60.000000,0.000000],"boundingbox_center":[60.000000,60.000000,2.500000],"boundingbox_size":[53.077026,53.631908,5.000000]}

M107
;TYPE:Custom
; M190 S0
;M109 S0 ; uncomment to remove set&wait temp gcode added automatically after this start gcode
print_start EXTRUDER=245 BED=90 CHAMBER=50

;G92 E0
;G1 E10 F1500 ; prime the nozzle
M107
G21 ; set units to millimeters
G90 ; use absolute coordinates
M83 ; use relative distances for extrusion
SET_PRESSURE_ADVANCE ADVANCE=0.04
M104 S245 ; set temperature
M109 S245 ; set temperature and wait for it to be reached
M190 S90 ; set bed temperature and wait for it to be reached
;LAYER_CHANGE
;Z:0.2
;HEIGHT:0.2
;BEFORE_LAYER_CHANGE
;0.2


G1 Z0.2 F18000
;AFTER_LAYER_CHANGE
;0.2
TIMELAPSE_TAKE_FRAME
G92 E0
G1 E-2.000000 F3000
G1 Z0.6 F18000
M204 S1000
G1 X37.663 Y39.72
G1 Z0.2
G1 E2.000000 F1800
;TYPE:Skirt
;WIDTH:0.52
M107
G1 X36.739 Y40.8 E0.05355
G1 X36.19 Y41.59 E0.03625
G1 X35.254 Y43.36 E0.07546
G1 X30.582 Y56.148 E0.51308
G1 X30.125 Y57.99 E0.07154
G1 X29.953 Y59.77 E0.06739
G1 X30.073 Y61.677 E0.07202
G1 X30.356 Y63.085 E0.05412
G1 X30.648 Y64.039 E0.03758
G1 X34.974 Y75.943 E0.47732
G1 X35.438 Y77.049 E0.04522
G1 X36.191 Y78.411 E0.05865
G1 X37.431 Y80.033 E0.07695
G1 X38.418 Y81 E0.05207
G1 X39.123 Y81.57 E0.03416
G1 X40.44 Y82.433 E0.05933
G1 X51.407 Y88.765 E0.47722
G1 X52.653 Y89.376 E0.05233
G1 X54.23 Y89.912 E0.06276
G1 X55.742 Y90.213 E0.05809
G1 X57.27 Y90.319 E0.05774
G1 X58.687 Y90.246 E0.05348
G1 X59.703 Y90.092 E0.03871
G1 X72.955 Y87.706 E0.50743
G1 X74.277 Y87.263 E0.05256
G1 X75.213 Y86.846 E0.03861
G1 X76.106 Y86.35 E0.0385
G1 X77.192 Y85.608 E0.04957
G1 X78.276 Y84.666 E0.05412
G1 X79.308 Y83.523 E0.05803
G1 X87.837 Y73.293 E0.50196
G1 X88.353 Y72.494 E0.03583
G1 X88.995 Y71.249 E0.05279
G1 X89.563 Y69.704 E0.06202
G1 X89.871 Y68.36 E0.05197
G1 X90.048 Y66.475 E0.07135
G1 X90.042 Y53.468 E0.49018
G1 X89.986 Y52.499 E0.03658
G1 X89.768 Y51.12 E0.05264
G1 X89.302 Y49.504 E0.06336
G1 X88.703 Y48.138 E0.0562
G1 X87.647 Y46.445 E0.07522
G1 X78.822 Y35.909 E0.51793
G1 X77.662 Y34.772 E0.06122
G1 X76.451 Y33.864 E0.05705
G1 X74.673 Y32.898 E0.07623
G1 X73.208 Y32.36 E0.05883
G1 X71.733 Y32.023 E0.05702
G1 X59.596 Y29.883 E0.46446
G1 X58.023 Y29.698 E0.05967
G1 X56.332 Y29.722 E0.06373
G1 X54.855 Y29.938 E0.05627
G1 X53.399 Y30.342 E0.05691
G1 X51.987 Y30.93 E0.05769
G1 X40.408 Y37.577 E0.50312
G1 X38.838 Y38.651 E0.0717
G1 X37.707 Y39.68 E0.05761
M107
G1 X38.019 Y40.038 F18000
M107
G1 F1800
G1 X37.131 Y41.073 E0.05138
G1 X36.581 Y41.862 E0.03625
G1 X35.699 Y43.53 E0.07112
G1 X31.03 Y56.311 E0.51277
G1 X30.598 Y58.05 E0.06752
G1 X30.43 Y59.787 E0.06578
G1 X30.542 Y61.593 E0.06819
G1 X30.812 Y62.946 E0.05199
G1 X31.104 Y63.899 E0.03757
G1 X35.423 Y75.779 E0.47639
G1 X35.877 Y76.863 E0.04427
G1 X36.604 Y78.172 E0.05642
G1 X37.772 Y79.699 E0.07248
G1 X38.718 Y80.629 E0.05
G1 X39.423 Y81.199 E0.03416
G1 X40.694 Y82.029 E0.0572
G1 X51.623 Y88.34 E0.4756
G1 X52.826 Y88.932 E0.05054
G1 X54.334 Y89.446 E0.06002
G1 X55.785 Y89.738 E0.05577
G1 X57.255 Y89.843 E0.05556
G1 X58.617 Y89.774 E0.05138
G1 X59.62 Y89.622 E0.03825
G1 X72.848 Y87.241 E0.5065
G1 X74.116 Y86.814 E0.05043
G1 X74.981 Y86.429 E0.0357
G1 X75.874 Y85.933 E0.0385
G1 X76.915 Y85.22 E0.04755
G1 X77.955 Y84.312 E0.05202
G1 X78.947 Y83.21 E0.05588
G1 X87.437 Y73.034 E0.49943
G1 X87.953 Y72.235 E0.03583
G1 X88.566 Y71.04 E0.05064
G1 X89.11 Y69.554 E0.05962
G1 X89.404 Y68.263 E0.0499
G1 X89.57 Y66.475 E0.06767
G1 X89.566 Y53.496 E0.48913
G1 X89.509 Y52.527 E0.03658
G1 X89.298 Y51.204 E0.05048
G1 X88.848 Y49.65 E0.06099
G1 X88.271 Y48.339 E0.05397
G1 X87.276 Y46.744 E0.07082
G1 X78.458 Y36.217 E0.51751
G1 X77.339 Y35.123 E0.059
G1 X76.172 Y34.251 E0.05489
G1 X74.499 Y33.343 E0.07174
G1 X73.069 Y32.816 E0.05744
G1 X71.65 Y32.493 E0.05484
G1 X59.513 Y30.353 E0.46446
G1 X57.993 Y30.174 E0.05769
G1 X56.391 Y30.195 E0.06035
G1 X54.972 Y30.401 E0.05405
G1 X53.574 Y30.785 E0.05462
G1 X52.213 Y31.35 E0.05555
G1 X40.647 Y37.99 E0.50261
G1 X39.152 Y39.011 E0.0682
G1 X38.063 Y39.998 E0.05539
M107
G1 X38.374 Y40.356 F18000
M107
G1 F1800
G1 X37.522 Y41.345 E0.0492
G1 X36.973 Y42.135 E0.03626
G1 X36.145 Y43.701 E0.06677
G1 X31.478 Y56.474 E0.51247
G1 X31.071 Y58.109 E0.0635
G1 X30.907 Y59.804 E0.06416
G1 X31.012 Y61.508 E0.06437
G1 X31.268 Y62.806 E0.04985
G1 X31.56 Y63.759 E0.03758
G1 X35.871 Y75.616 E0.47545
G1 X36.316 Y76.676 E0.04332
G1 X37.017 Y77.932 E0.0542
G1 X38.113 Y79.365 E0.06799
G1 X39.018 Y80.259 E0.04794
G1 X39.723 Y80.829 E0.03416
G1 X40.948 Y81.625 E0.05506
G1 X51.84 Y87.915 E0.47398
G1 X53 Y88.487 E0.04877
G1 X54.437 Y88.981 E0.05727
G1 X55.827 Y89.263 E0.05345
G1 X57.24 Y89.366 E0.05338
G1 X58.546 Y89.302 E0.04928
G1 X59.538 Y89.153 E0.03779
G1 X72.741 Y86.777 E0.50557
G1 X74.75 Y86.011 E0.081
G1 X75.643 Y85.516 E0.03851
G1 X76.639 Y84.831 E0.04553
G1 X77.635 Y83.958 E0.04991
G1 X78.587 Y82.897 E0.05374
G1 X87.036 Y72.775 E0.4969
G1 X87.552 Y71.976 E0.03583
G1 X88.138 Y70.83 E0.04849
G1 X88.657 Y69.403 E0.05723
G1 X88.937 Y68.166 E0.04783
G1 X89.093 Y66.475 E0.06398
G1 X89.09 Y53.524 E0.48808
G1 X89.033 Y52.555 E0.03658
G1 X88.829 Y51.289 E0.04831
G1 X88.394 Y49.795 E0.05864
G1 X87.838 Y48.54 E0.05172
G1 X86.905 Y47.044 E0.06644
G1 X78.095 Y36.526 E0.51708
G1 X77.016 Y35.474 E0.05677
G1 X75.894 Y34.638 E0.05274
G1 X74.326 Y33.787 E0.06725
G1 X72.93 Y33.273 E0.05605
G1 X71.567 Y32.963 E0.05267
G1 X59.43 Y30.822 E0.46446
G1 X57.962 Y30.65 E0.05569
G1 X56.45 Y30.669 E0.05699
G1 X55.089 Y30.863 E0.05182
G1 X53.749 Y31.229 E0.05234
G1 X52.439 Y31.77 E0.05341
G1 X40.885 Y38.404 E0.50208
G1 X39.466 Y39.37 E0.06472
G1 X38.419 Y40.316 E0.05317
M107
G1 E-2.000000 F3000
M204 S1500
G1 Z0.6 F18000
; printing object cycloid_rotor_3.STL id:0 copy 0
EXCLUDE_OBJECT_START NAME=cycloid_rotor_3_STL_id_0_copy_0
; acceleration to travel
G1 X43.054 Y42.978
; decel to extrusion
M204 S1000
G1 X46.144 Y44.753
; end travel
G1 Z0.2
G1 E2.000000 F1800
;TYPE:Internal perimeter
;WIDTH:0.56
M107
G1 X46.051 Y45.81 E0.04333
G1 X46.147 Y46.906 E0.04495
G1 X46.432 Y47.969 E0.04495
G1 X46.897 Y48.966 E0.04494
G1 X47.528 Y49.868 E0.04495
G1 X48.306 Y50.646 E0.04495
G1 X48.757 Y50.961 E0.02248
G1 X49.208 Y51.277 E0.02247
G1 X50.205 Y51.742 E0.04495
G1 X51.268 Y52.027 E0.04495
G1 X52.365 Y52.123 E0.04495
G1 X53.461 Y52.027 E0.04495
G1 X54.524 Y51.742 E0.04495
G1 X55.521 Y51.277 E0.04494
G1 X56.423 Y50.646 E0.04495
G1 X57.201 Y49.868 E0.04495
G1 X57.832 Y48.966 E0.04495
G1 X58.297 Y47.969 E0.04495
G1 X58.582 Y46.906 E0.04495
G1 X58.678 Y45.81 E0.04495
G1 X58.582 Y44.713 E0.04495
G1 X58.297 Y43.65 E0.04494
G1 X57.832 Y42.653 E0.04495
G1 X57.201 Y41.752 E0.04495
G1 X56.423 Y40.973 E0.04495
G1 X55.521 Y40.342 E0.04495
G1 X54.524 Y39.877 E0.04495
G1 X53.461 Y39.592 E0.04495
G1 X52.365 Y39.496 E0.04495
G1 X51.816 Y39.544 E0.02247
G1 X51.268 Y39.592 E0.02247
G1 X50.205 Y39.877 E0.04495
G1 X49.208 Y40.342 E0.04495
G1 X48.306 Y40.973 E0.04495
G1 X47.528 Y41.752 E0.04495
G1 X46.897 Y42.653 E0.04495
G1 X46.432 Y43.65 E0.04495
G1 X46.153 Y44.694 E0.04411
M107
G1 X46.658 Y44.803 F18000
;TYPE:External perimeter
M107
G1 F1800
G1 X46.57 Y45.81 E0.04126
G1 X46.658 Y46.816 E0.04125
G1 X46.92 Y47.791 E0.04125
G1 X47.347 Y48.707 E0.04126
G1 X47.926 Y49.534 E0.04125
G1 X48.64 Y50.248 E0.04125
G1 X49.054 Y50.538 E0.02063
G1 X49.467 Y50.827 E0.02063
G1 X50.383 Y51.254 E0.04125
G1 X51.358 Y51.516 E0.04125
G1 X52.365 Y51.604 E0.04126
G1 X53.371 Y51.516 E0.04125
G1 X54.346 Y51.254 E0.04125
G1 X55.262 Y50.827 E0.04126
G1 X56.089 Y50.248 E0.04125
G1 X56.803 Y49.534 E0.04125
G1 X57.382 Y48.707 E0.04126
G1 X57.809 Y47.791 E0.04125
G1 X58.071 Y46.816 E0.04125
G1 X58.159 Y45.81 E0.04126
G1 X58.071 Y44.803 E0.04125
G1 X57.809 Y43.828 E0.04125
G1 X57.382 Y42.913 E0.04125
G1 X56.803 Y42.085 E0.04126
G1 X56.089 Y41.371 E0.04125
G1 X55.262 Y40.792 E0.04125
G1 X54.346 Y40.365 E0.04126
G1 X53.371 Y40.103 E0.04125
G1 X52.365 Y40.015 E0.04125
G1 X51.861 Y40.059 E0.02063
G1 X51.358 Y40.103 E0.02063
G1 X50.383 Y40.365 E0.04125
G1 X49.467 Y40.792 E0.04125
G1 X48.64 Y41.371 E0.04126
G1 X47.926 Y42.085 E0.04125
G1 X47.347 Y42.913 E0.04125
G1 X46.92 Y43.828 E0.04126
G1 X46.674 Y44.745 E0.0388
M107
;WIPE_START
M204 S1500
G1 X46.45 Y44.886 F18000
;WIPE_END
G1 E-2.000000 F3000
G1 Z0.6 F18000
; acceleration to travel
G1 X54.115 Y49.283
; decel to extrusion
M204 S1000
G1 X59.225 Y52.215
; end travel
G1 Z0.2
G1 E2.000000 F1800
;TYPE:Internal perimeter
M107
G1 X59.185 Y52.218 E0.00162
G1 X57.855 Y52.575 E0.05626
G1 X56.606 Y53.157 E0.05625
G1 X55.478 Y53.947 E0.05626
G1 X54.504 Y54.921 E0.05626
G1 X53.714 Y56.049 E0.05626
G1 X53.132 Y57.297 E0.05625
G1 X52.776 Y58.628 E0.05626
G1 X52.656 Y60 E0.05626
G1 X52.776 Y61.372 E0.05626
G1 X53.132 Y62.702 E0.05625
G1 X53.714 Y63.95 E0.05626
G1 X54.504 Y65.079 E0.05626
G1 X55.478 Y66.053 E0.05626
G1 X56.606 Y66.843 E0.05626
G1 X57.855 Y67.425 E0.05625
G1 X59.185 Y67.781 E0.05626
G1 X60.557 Y67.901 E0.05626
G1 X61.929 Y67.781 E0.05626
G1 X63.26 Y67.425 E0.05625
G1 X64.508 Y66.843 E0.05626
G1 X65.636 Y66.053 E0.05626
G1 X66.61 Y65.079 E0.05626
G1 X66.984 Y64.545 E0.02661
G1 X67.273 Y64.636 E0.01239
G1 X67.273 Y65.812 E0.04802
G1 X71.781 Y65.812 E0.18414
G1 X71.781 Y63.732 E0.08494
G1 X72.884 Y64.836 E0.06373
G1 X73.786 Y65.467 E0.04495
G1 X74.783 Y65.932 E0.04495
G1 X75.846 Y66.217 E0.04495
G1 X76.942 Y66.313 E0.04495
G1 X78.039 Y66.217 E0.04495
G1 X79.102 Y65.932 E0.04495
G1 X80.099 Y65.467 E0.04495
G1 X81 Y64.836 E0.04494
G1 X81.779 Y64.058 E0.04495
G1 X82.41 Y63.156 E0.04495
G1 X82.875 Y62.159 E0.04495
G1 X83.16 Y61.096 E0.04495
G1 X83.256 Y60 E0.04495
G1 X83.16 Y58.903 E0.04495
G1 X82.875 Y57.84 E0.04495
G1 X82.41 Y56.843 E0.04494
G1 X81.779 Y55.942 E0.04495
G1 X81 Y55.164 E0.04495
G1 X80.099 Y54.532 E0.04495
G1 X79.102 Y54.067 E0.04495
G1 X78.039 Y53.782 E0.04495
G1 X76.942 Y53.687 E0.04495
G1 X75.846 Y53.782 E0.04495
G1 X74.783 Y54.067 E0.04494
G1 X73.786 Y54.532 E0.04495
G1 X72.884 Y55.164 E0.04495
G1 X72.106 Y55.942 E0.04495
G1 X71.475 Y56.843 E0.04495
G1 X71.01 Y57.84 E0.04495
G1 X70.725 Y58.903 E0.04495
G1 X70.629 Y60 E0.04495
G1 X70.673 Y60.494 E0.02028
G1 X68.951 Y60.495 E0.07033
G1 X68.685 Y60.862 E0.01853
G1 X68.389 Y60.751 E0.01289
G1 X68.459 Y60.002 E0.03073
G1 X68.339 Y58.628 E0.05635
G1 X67.982 Y57.297 E0.05626
G1 X67.4 Y56.049 E0.05626
G1 X66.61 Y54.921 E0.05625
G1 X65.636 Y53.947 E0.05626
G1 X64.508 Y53.157 E0.05626
G1 X63.26 Y52.575 E0.05626
G1 X61.929 Y52.218 E0.05625
G1 X60.557 Y52.098 E0.05626
G1 X60.074 Y52.14 E0.01982
G1 X59.284 Y52.21 E0.03237
M107
G1 X59.275 Y52.729 F18000
;TYPE:External perimeter
M107
G1 F1800
G1 X58.032 Y53.062 E0.05256
G1 X56.866 Y53.606 E0.05256
G1 X55.812 Y54.344 E0.05256
G1 X54.902 Y55.254 E0.05257
G1 X54.164 Y56.308 E0.05256
G1 X53.62 Y57.475 E0.05256
G1 X53.287 Y58.718 E0.05256
G1 X53.175 Y60 E0.05256
G1 X53.287 Y61.282 E0.05256
G1 X53.62 Y62.525 E0.05257
G1 X54.164 Y63.691 E0.05256
G1 X54.902 Y64.745 E0.05256
G1 X55.812 Y65.655 E0.05256
G1 X56.866 Y66.393 E0.05256
G1 X58.032 Y66.937 E0.05257
G1 X59.275 Y67.27 E0.05256
G1 X60.557 Y67.382 E0.05256
G1 X61.839 Y67.27 E0.05256
G1 X63.082 Y66.937 E0.05256
G1 X64.248 Y66.393 E0.05257
G1 X65.302 Y65.655 E0.05256
G1 X66.212 Y64.745 E0.05256
G1 X66.953 Y63.688 E0.05272
G1 X67.296 Y62.896 E0.03523
G1 X67.438 Y62.476 E0.01812
G1 X67.513 Y62.069 E0.01691
G1 X67.627 Y61.709 E0.01542
G1 X67.796 Y61.303 E0.01796
G1 X67.861 Y60.851 E0.01863
G1 X67.94 Y60 E0.03491
G1 X67.827 Y58.718 E0.05259
G1 X67.494 Y57.475 E0.05257
G1 X66.951 Y56.308 E0.05256
G1 X66.212 Y55.254 E0.05256
G1 X65.302 Y54.344 E0.05256
G1 X64.248 Y53.606 E0.05256
G1 X63.082 Y53.062 E0.05256
G1 X61.839 Y52.729 E0.05257
G1 X60.557 Y52.617 E0.05256
G1 X60.119 Y52.656 E0.01797
G1 X59.335 Y52.724 E0.03214
M107
;WIPE_START
M204 S1500
G1 X59.126 Y52.562 F18000
;WIPE_END
G1 E-2.000000 F3000
G1 Z0.6 F18000
; acceleration to travel
G1 X64.42 Y59.104
; decel to extrusion
M204 S1000
G1 X67.949 Y63.465
; end travel
G1 Z0.2
G1 E2.000000 F1800
M107
G1 X68.79 Y62.984 E0.03961
G1 X68.89 Y62.91 E0.00506
G1 X68.89 Y63.285 E0.01529
G1 X68.819 Y63.921 E0.02614
G1 X67.79 Y63.914 E0.04204
G1 X67.79 Y65.295 E0.0564
G1 X71.264 Y65.295 E0.14189
G1 X71.264 Y63.916 E0.05633
G1 X70.312 Y63.916 E0.03889
G1 X70.312 Y61.011 E0.11863
G1 X69.67 Y61.012 E0.0262
G1 X69.215 Y61.012 E0.0186
G1 X68.974 Y61.345 E0.01679
G1 X68.733 Y61.576 E0.01364
G1 X68.604 Y61.684 E0.00688
G1 X68.367 Y61.8 E0.01078
G1 X68.01 Y62.067 E0.01819
G1 X67.964 Y62.55 E0.01984
G1 X67.95 Y63.405 E0.03494
M107
;WIPE_START
M204 S1500
G1 X68.016 Y63.657 F18000
;WIPE_END
G1 E-2.000000 F3000
G1 Z0.6 F18000
; acceleration to travel
G1 X69.896 Y61.463
; decel to extrusion
M204 S1000
G1 X71.148 Y60
; end travel
G1 Z0.2
G1 E2.000000 F1800
M107
G1 X71.236 Y61.006 E0.04125
G1 X71.498 Y61.981 E0.04126
G1 X71.925 Y62.897 E0.04125
G1 X72.504 Y63.724 E0.04125
G1 X73.218 Y64.438 E0.04126
G1 X74.045 Y65.018 E0.04125
G1 X74.961 Y65.444 E0.04125
G1 X75.936 Y65.706 E0.04126
G1 X76.942 Y65.794 E0.04125
G1 X77.949 Y65.706 E0.04125
G1 X78.924 Y65.444 E0.04125
G1 X79.84 Y65.018 E0.04126
G1 X80.667 Y64.438 E0.04125
G1 X81.381 Y63.724 E0.04125
G1 X81.96 Y62.897 E0.04126
G1 X82.387 Y61.981 E0.04125
G1 X82.649 Y61.006 E0.04125
G1 X82.737 Y60 E0.04126
G1 X82.649 Y58.994 E0.04125
