; generated by SuperSlicer 2.5.59.12 on 2024-07-29 at 21:17:35 UTC


;
;

;
;
; TODO: check the size of the extruder and the y-bar clearance. Optimize & test supports.

; external perimeters extrusion width = 0.56mm
; perimeters extrusion width = 0.56mm
; infill extrusion width = 0.56mm
; solid infill extrusion width = 0.56mm
; top infill extrusion width = 0.56mm
; first layer extrusion width = 0.56mm

; object:{"name":"cycloid_stator_2","id":"cycloid_stator_2.STL id:0 copy 0","object_center":[60.000000,60.000000,0.000000],"boundingbox_center":[60.000000,60.000000,5.495000],"boundingbox_size":[74.000000,73.905022,10.990000]}
EXCLUDE_OBJECT_DEFINE NAME=cycloid_stator_2_STL_id_0_copy_0 CENTER=60.000000,60.000000 POLYGON=[[23.00,60.00],[23.19,56.26],[23.76,52.55],[24.70,48.92],[26.00,45.41],[26.06,45.27],[27.65,42.04],[29.63,38.86],[31.93,35.90],[34.51,33.18],[37.35,30.74],[40.43,28.60],[43.71,26.78],[47.15,25.30],[50.73,24.18],[54.40,23.43],[58.13,23.05],[61.87,23.05],[65.60,23.43],[69.27,24.18],[72.85,25.30],[76.29,26.78],[79.57,28.60],[82.65,30.74],[85.49,33.18],[88.07,35.90],[90.37,38.86],[92.35,42.04],[94.00,45.41],[95.30,48.92],[96.24,52.55],[96.81,56.26],[97.00,60.00],[96.81,63.74],[96.24,67.45],[95.30,71.08],[94.00,74.59],[92.35,77.96],[90.37,81.14],[88.07,84.10],[85.49,86.82],[82.65,89.26],[79.57,91.40],[76.29,93.22],[72.85,94.70],[69.27,95.82],[65.60,96.57],[61.87,96.95],[58.13,96.95],[54.40,96.57],[50.73,95.82],[47.15,94.70],[43.71,93.22],[40.43,91.40],[37.35,89.26],[34.51,86.82],[31.93,84.10],[29.63,81.14],[27.65,77.96],[26.00,74.59],[24.70,71.08],[23.76,67.45],[23.19,63.74],[23.00,60.00]]
; plater:{"center":[60.000000,60.000000,0.000000],"boundingbox_center":[60.000000,60.000000,5.495000],"boundingbox_size":[74.000000,73.905022,10.990000]}

M107
;TYPE:Custom
; M190 S0
;M109 S0 ; uncomment to remove set&wait temp gcode added automatically after this start gcode
print_start EXTRUDER=245 BED=90 CHAMBER=50

;G92 E0
;G1 E10 F1500 ; prime the nozzle
M107
G21 ; set units to millimeters
G90 ; use absolute coordinates
M83 ; use relative distances for extrusion
SET_PRESSURE_ADVANCE ADVANCE=0.04
M104 S245 ; set temperature
M109 S245 ; set temperature and wait for it to be reached
M190 S90 ; set bed temperature and wait for it to be reached
;LAYER_CHANGE
;Z:0.2
;HEIGHT:0.2
;BEFORE_LAYER_CHANGE
;0.2


G1 Z0.2 F18000
;AFTER_LAYER_CHANGE
;0.2
TIMELAPSE_TAKE_FRAME
G92 E0
G1 E-2.000000 F3000
G1 Z0.6 F18000
M204 S1000
G1 X32.331 Y31.201
G1 Z0.2
G1 E2.000000 F1800
;TYPE:Skirt
;WIDTH:0.52
M107
G1 X29.56 Y34.148 E0.15246
G1 X27.1 Y37.36 E0.15246
G1 X25.185 Y40.433 E0.13647
G1 X23.384 Y44.056 E0.15246
G1 X21.959 Y47.842 E0.15246
G1 X20.924 Y51.753 E0.15247
G1 X20.277 Y55.842 E0.156
G1 X19.964 Y59.788 E0.14917
G1 X20.046 Y61.757 E0.07427
G1 X20.307 Y64.446 E0.10184
G1 X20.842 Y67.853 E0.12995
G1 X21.832 Y71.753 E0.15163
G1 X23.217 Y75.554 E0.15246
G1 X24.979 Y79.195 E0.15246
G1 X27.1 Y82.64 E0.15246
G1 X29.56 Y85.852 E0.15246
G1 X32.331 Y88.799 E0.15246
G1 X35.387 Y91.451 E0.15246
G1 X38.548 Y93.797 E0.14836
G1 X41.772 Y95.601 E0.13922
G1 X45.938 Y97.38 E0.17071
G1 X49.784 Y98.608 E0.15217
G1 X53.743 Y99.444 E0.15246
G1 X58.189 Y99.896 E0.16844
G1 X62.235 Y99.874 E0.15246
G1 X66.257 Y99.444 E0.15246
G1 X70.216 Y98.608 E0.15246
G1 X74.062 Y97.38 E0.15218
G1 X78.228 Y95.601 E0.1707
G1 X80.998 Y94.089 E0.11891
G1 X84.371 Y91.643 E0.15703
G1 X87.361 Y89.092 E0.14812
G1 X90.164 Y86.174 E0.15246
G1 X92.657 Y82.989 E0.15246
G1 X94.815 Y79.567 E0.15246
G1 X96.616 Y75.944 E0.15246
G1 X98.041 Y72.158 E0.15246
G1 X99.076 Y68.247 E0.15246
G1 X99.739 Y64.014 E0.16149
G1 X100.036 Y60.212 E0.14369
G1 X99.967 Y58.428 E0.06731
G1 X99.739 Y55.986 E0.0924
G1 X99.076 Y51.753 E0.16149
G1 X98.041 Y47.842 E0.15246
G1 X96.783 Y44.446 E0.13647
G1 X95.021 Y40.805 E0.15246
G1 X92.9 Y37.36 E0.15246
G1 X90.44 Y34.148 E0.15246
G1 X87.669 Y31.201 E0.15246
G1 X84.613 Y28.549 E0.15246
G1 X81.452 Y26.203 E0.14836
G1 X78.228 Y24.399 E0.13922
G1 X74.062 Y22.62 E0.1707
G1 X70.216 Y21.392 E0.15218
G1 X65.969 Y20.508 E0.16348
G1 X62.691 Y20.072 E0.1246
G1 X61.543 Y19.997 E0.04337
G1 X58.032 Y20.007 E0.13231
G1 X54.031 Y20.508 E0.15195
G1 X49.784 Y21.392 E0.16348
G1 X45.938 Y22.62 E0.15218
G1 X41.772 Y24.399 E0.1707
G1 X39.002 Y25.911 E0.11891
G1 X35.629 Y28.357 E0.15704
G1 X32.377 Y31.162 E0.16184
M107
G1 X32.677 Y31.529 F18000
M107
G1 F1800
G1 X29.937 Y34.44 E0.15064
G1 X27.505 Y37.612 E0.15064
G1 X25.407 Y41.015 E0.15064
G1 X23.812 Y44.266 E0.13647
G1 X22.406 Y48.008 E0.15064
G1 X21.386 Y51.873 E0.15065
G1 X20.75 Y55.903 E0.15377
G1 X20.44 Y59.812 E0.14776
G1 X20.521 Y61.712 E0.07166
G1 X20.781 Y64.395 E0.10161
G1 X21.313 Y67.778 E0.12905
G1 X22.294 Y71.633 E0.14991
G1 X23.664 Y75.388 E0.15064
G1 X25.407 Y78.985 E0.15064
G1 X27.505 Y82.388 E0.15064
G1 X29.937 Y85.56 E0.15064
G1 X32.677 Y88.471 E0.15064
G1 X35.698 Y91.089 E0.15064
G1 X38.831 Y93.413 E0.14704
G1 X41.959 Y95.162 E0.13506
G1 X46.125 Y96.941 E0.1707
G1 X49.927 Y98.153 E0.15039
G1 X53.839 Y98.976 E0.15064
G1 X58.189 Y99.419 E0.1648
G1 X62.187 Y99.4 E0.15064
G1 X66.161 Y98.976 E0.15064
G1 X70.073 Y98.153 E0.15064
G1 X73.875 Y96.941 E0.15039
G1 X78.041 Y95.162 E0.17071
G1 X80.766 Y93.672 E0.11706
G1 X84.088 Y91.259 E0.15472
G1 X87.05 Y88.73 E0.14679
G1 X89.818 Y85.846 E0.15064
G1 X92.28 Y82.697 E0.15064
G1 X94.41 Y79.314 E0.15064
G1 X96.188 Y75.734 E0.15064
G1 X97.594 Y71.992 E0.15064
G1 X98.614 Y68.128 E0.15064
G1 X99.264 Y63.968 E0.15865
G1 X99.56 Y60.188 E0.14289
G1 X99.491 Y58.452 E0.06549
G1 X99.264 Y56.032 E0.0916
G1 X98.614 Y51.872 E0.15865
G1 X97.706 Y48.367 E0.13647
G1 X96.336 Y44.612 E0.15064
G1 X94.593 Y41.015 E0.15064
G1 X92.495 Y37.612 E0.15064
G1 X90.063 Y34.44 E0.15064
G1 X87.323 Y31.529 E0.15064
G1 X84.302 Y28.911 E0.15064
G1 X81.169 Y26.587 E0.14704
G1 X78.041 Y24.838 E0.13506
G1 X73.875 Y23.059 E0.1707
G1 X70.073 Y21.847 E0.15039
G1 X65.906 Y20.98 E0.16041
G1 X62.643 Y20.546 E0.12402
G1 X61.542 Y20.474 E0.04159
G1 X58.049 Y20.484 E0.13162
G1 X54.094 Y20.98 E0.15022
G1 X49.927 Y21.847 E0.16041
G1 X46.125 Y23.059 E0.15039
G1 X41.959 Y24.838 E0.1707
G1 X39.234 Y26.328 E0.11706
G1 X35.912 Y28.741 E0.15472
G1 X32.723 Y31.49 E0.1587
M107
G1 X33.023 Y31.858 F18000
M107
G1 F1800
G1 X30.314 Y34.732 E0.14882
G1 X28.098 Y37.595 E0.13647
G1 X25.995 Y40.938 E0.14882
G1 X24.241 Y44.476 E0.14883
G1 X22.854 Y48.173 E0.14882
G1 X21.848 Y51.992 E0.14883
G1 X21.223 Y55.965 E0.15154
G1 X20.917 Y59.836 E0.14635
G1 X20.996 Y61.666 E0.06905
G1 X21.255 Y64.344 E0.10138
G1 X21.784 Y67.703 E0.12815
G1 X22.755 Y71.514 E0.14819
G1 X24.111 Y75.223 E0.14882
G1 X25.835 Y78.775 E0.14882
G1 X27.91 Y82.135 E0.14882
G1 X30.314 Y85.268 E0.14882
G1 X33.023 Y88.142 E0.14882
G1 X36.008 Y90.727 E0.14882
G1 X39.115 Y93.029 E0.14571
G1 X42.147 Y94.723 E0.1309
G1 X46.312 Y96.502 E0.1707
G1 X50.07 Y97.698 E0.1486
G1 X54.259 Y98.559 E0.16117
G1 X58.189 Y98.942 E0.14882
G1 X62.138 Y98.925 E0.14882
G1 X66.065 Y98.509 E0.14882
G1 X69.93 Y97.698 E0.14882
G1 X73.688 Y96.502 E0.14861
G1 X77.853 Y94.723 E0.1707
G1 X80.535 Y93.255 E0.11521
G1 X83.805 Y90.875 E0.1524
G1 X86.739 Y88.368 E0.14547
G1 X89.472 Y85.517 E0.14882
G1 X91.902 Y82.405 E0.14882
G1 X94.005 Y79.062 E0.14882
G1 X95.759 Y75.524 E0.14882
G1 X97.146 Y71.827 E0.14883
G1 X98.152 Y68.008 E0.14882
G1 X98.79 Y63.923 E0.1558
G1 X99.083 Y60.164 E0.1421
G1 X99.014 Y58.476 E0.06367
G1 X98.79 Y56.077 E0.09081
G1 X98.152 Y51.992 E0.15579
G1 X97.146 Y48.173 E0.14883
G1 X95.889 Y44.777 E0.13647
G1 X94.165 Y41.225 E0.14882
G1 X92.09 Y37.865 E0.14882
G1 X89.686 Y34.732 E0.14882
G1 X86.977 Y31.858 E0.14882
G1 X83.992 Y29.273 E0.14882
G1 X80.885 Y26.971 E0.14571
G1 X77.853 Y25.277 E0.1309
G1 X73.688 Y23.498 E0.1707
G1 X69.93 Y22.302 E0.1486
G1 X65.842 Y21.453 E0.15734
G1 X62.595 Y21.021 E0.12346
G1 X61.541 Y20.951 E0.03979
G1 X58.067 Y20.961 E0.13095
G1 X54.158 Y21.453 E0.14848
G1 X50.07 Y22.302 E0.15734
G1 X46.312 Y23.498 E0.1486
G1 X42.147 Y25.277 E0.1707
G1 X39.465 Y26.745 E0.11521
G1 X36.195 Y29.125 E0.15241
G1 X33.068 Y31.819 E0.15555
M107
G1 E-2.000000 F3000
M204 S1500
G1 Z0.6 F18000
; printing object cycloid_stator_2.STL id:0 copy 0
EXCLUDE_OBJECT_START NAME=cycloid_stator_2_STL_id_0_copy_0
; acceleration to travel
G1 X46.646 Y28.249
; decel to extrusion
M204 S1000
G1 X55.699 Y25.869
; end travel
G1 Z0.2
G1 E2.000000 F1800
;TYPE:Internal perimeter
;WIDTH:0.56
M107
G1 X54.714 Y27.116 E0.0649
G1 X55.071 Y27.854 E0.03348
G1 X54.19 Y28.285 E0.04007
G1 X52.325 Y29.282 E0.08637
G1 X51.128 Y29.828 E0.05377
G1 X49.76 Y30.292 E0.05898
G1 X48.253 Y30.625 E0.06304
G1 X46.086 Y30.924 E0.08936
G1 X46.033 Y30.254 E0.02744
G1 X45.899 Y29.746 E0.02145
G1 X45.675 Y29.272 E0.02143
G1 X45.373 Y28.85 E0.02117
G1 X48.04 Y27.711 E0.11847
G1 X51.369 Y26.666 E0.14251
G1 X54.787 Y25.964 E0.14252
G1 X55.639 Y25.875 E0.03498
M107
G1 X56.863 Y25.229 F18000
M107
G1 F1800
G1 X55.321 Y27.182 E0.10167
G1 X55.761 Y28.093 E0.04131
G1 X54.425 Y28.745 E0.06073
G1 X52.555 Y29.746 E0.08665
G1 X51.318 Y30.31 E0.05551
G1 X49.899 Y30.79 E0.0612
G1 X48.344 Y31.134 E0.06505
G1 X46.013 Y31.456 E0.0961
G1 X45.383 Y31.576 E0.02622
G1 X45.499 Y31.221 E0.01527
G1 X45.556 Y30.781 E0.01811
G1 X45.521 Y30.341 E0.01801
G1 X45.411 Y29.925 E0.01761
G1 X45.227 Y29.535 E0.01759
G1 X44.967 Y29.171 E0.01828
G1 X44.428 Y28.692 E0.02944
G1 X47.861 Y27.225 E0.15247
G1 X51.24 Y26.165 E0.14464
G1 X54.708 Y25.452 E0.14464
G1 X56.803 Y25.235 E0.08604
M107
G1 E-2.000000 F3000
M204 S1500
G1 Z0.6 F18000
; acceleration to travel
G1 X67.497 Y27.404
; decel to extrusion
M204 S1000
G1 X74.627 Y28.85
; end travel
G1 Z0.2
G1 E2.000000 F1800
M107
G1 X74.325 Y29.272 E0.02118
G1 X74.101 Y29.747 E0.02143
G1 X73.967 Y30.254 E0.02144
G1 X73.913 Y30.938 E0.028
G1 X72.025 Y30.67 E0.07788
G1 X70.575 Y30.381 E0.06041
G1 X69.324 Y29.996 E0.05346
G1 X67.82 Y29.358 E0.06672
G1 X65.808 Y28.284 E0.09316
G1 X64.93 Y27.85 E0.04
G1 X65.286 Y27.116 E0.03327
G1 X64.301 Y25.869 E0.0649
G1 X65.213 Y25.964 E0.03743
G1 X68.631 Y26.666 E0.14252
G1 X71.96 Y27.711 E0.14251
G1 X74.572 Y28.827 E0.11602
M107
G1 X75.572 Y28.692 F18000
M107
G1 F1800
G1 X75.033 Y29.171 E0.02944
G1 X74.773 Y29.535 E0.01828
G1 X74.589 Y29.925 E0.01759
G1 X74.479 Y30.341 E0.01761
G1 X74.444 Y30.781 E0.01801
G1 X74.501 Y31.221 E0.01811
G1 X74.618 Y31.579 E0.0154
G1 X74.261 Y31.509 E0.01484
G1 X71.938 Y31.18 E0.09583
G1 X70.448 Y30.883 E0.06207
G1 X69.146 Y30.483 E0.05563
G1 X67.597 Y29.825 E0.06875
G1 X65.572 Y28.744 E0.09377
G1 X64.242 Y28.086 E0.06062
G1 X64.679 Y27.183 E0.04098
G1 X63.137 Y25.229 E0.10167
G1 X65.292 Y25.452 E0.08848
G1 X68.76 Y26.165 E0.14464
G1 X72.139 Y27.225 E0.14464
G1 X75.517 Y28.668 E0.15002
M107
G1 E-2.000000 F3000
M204 S1500
G1 Z0.6 F18000
; acceleration to travel
G1 X78 Y30.534
; decel to extrusion
M204 S1000
G1 X79.655 Y31.778
; end travel
G1 Z0.2
G1 E2.000000 F1800
M107
G1 X81.076 Y32.77 E0.0708
G1 X83.723 Y35.043 E0.14252
G1 X86.126 Y37.571 E0.14247
G1 X88.261 Y40.329 E0.14247
G1 X90.106 Y43.29 E0.14247
G1 X91.643 Y46.421 E0.14247
G1 X92.854 Y49.692 E0.14247
G1 X93.728 Y53.069 E0.14247
G1 X94.257 Y56.523 E0.14273
G1 X94.292 Y57.093 E0.02333
G1 X93.775 Y57.042 E0.02123
G1 X93.254 Y57.085 E0.02133
G1 X92.752 Y57.219 E0.02123
G1 X92.284 Y57.437 E0.02108
G1 X91.553 Y57.949 E0.03647
G1 X92.121 Y54.727 E0.13363
G1 X92.251 Y53.214 E0.06204
G1 X92.2 Y51.792 E0.0581
G1 X92.02 Y50.65 E0.04722
G1 X91.673 Y49.43 E0.05181
G1 X91.173 Y48.261 E0.05194
G1 X90.531 Y47.163 E0.05199
G1 X89.828 Y46.219 E0.04805
G1 X89.179 Y45.485 E0.04001
G1 X88.564 Y44.863 E0.03572
G1 X87.063 Y43.434 E0.08468
G1 X86.042 Y42.344 E0.06098
G1 X85.241 Y41.306 E0.05357
G1 X84.885 Y40.763 E0.02652
G1 X84.45 Y40.018 E0.03524
G1 X82.708 Y36.532 E0.15918
G1 X81.981 Y35.378 E0.0557
G1 X81.19 Y34.391 E0.05166
G1 X80.325 Y33.54 E0.04958
G1 X79.15 Y32.648 E0.06024
G1 X79.44 Y32.242 E0.02039
G1 X79.63 Y31.832 E0.01845
M107
G1 E-2.000000 F3000
M204 S1500
G1 Z0.6 F18000
; acceleration to travel
G1 X86.786 Y49.965
; decel to extrusion
M204 S1000
G1 X91.558 Y62.054
; end travel
G1 Z0.2
G1 E2.000000 F1800
M107
G1 X92.284 Y62.563 E0.03622
G1 X92.752 Y62.781 E0.02109
G1 X93.254 Y62.915 E0.02122
G1 X93.775 Y62.958 E0.02134
G1 X94.292 Y62.907 E0.02122
G1 X94.257 Y63.477 E0.02333
G1 X93.728 Y66.931 E0.14273
G1 X92.854 Y70.308 E0.14247
G1 X91.643 Y73.579 E0.14247
G1 X90.106 Y76.71 E0.14247
G1 X88.261 Y79.671 E0.14247
G1 X86.126 Y82.429 E0.14247
G1 X83.723 Y84.957 E0.14247
G1 X81.076 Y87.23 E0.14252
G1 X79.655 Y88.222 E0.07081
G1 X79.439 Y87.756 E0.02097
G1 X79.131 Y87.327 E0.02157
G1 X79.836 Y86.861 E0.03453
G1 X80.767 Y86.05 E0.05042
G1 X81.58 Y85.15 E0.04953
G1 X82.343 Y84.081 E0.05367
G1 X82.806 Y83.295 E0.03727
G1 X83.209 Y82.517 E0.03578
G1 X84.145 Y80.566 E0.0884
G1 X84.481 Y79.926 E0.02953
G1 X84.927 Y79.171 E0.0358
G1 X85.729 Y78.037 E0.05676
G1 X86.738 Y76.893 E0.06227
G1 X88.382 Y75.312 E0.09317
G1 X89.474 Y74.196 E0.06378
G1 X90.377 Y73.065 E0.05908
G1 X91.051 Y71.972 E0.05248
G1 X91.541 Y70.921 E0.04737
G1 X91.919 Y69.769 E0.04951
G1 X92.165 Y68.519 E0.05205
G1 X92.255 Y67.233 E0.05264
G1 X92.2 Y65.954 E0.0523
G1 X91.947 Y64.218 E0.07164
G1 X91.568 Y62.113 E0.08736
M107
G1 E-2.000000 F3000
M204 S1500
G1 Z0.6 F18000
; acceleration to travel
G1 X93.54 Y59.535
; decel to extrusion
M204 S1000
G1 X94.854 Y57.816
; end travel
G1 Z0.2
G1 E2.000000 F1800
M107
G1 X94.216 Y57.605 E0.02746
G1 X93.77 Y57.561 E0.01826
G1 X93.343 Y57.596 E0.01754
G1 X92.929 Y57.707 E0.01747
G1 X92.544 Y57.887 E0.01739
G1 X92.195 Y58.131 E0.01737
G1 X91.894 Y58.431 E0.01738
G1 X91.65 Y58.78 E0.01737
G1 X91.471 Y59.165 E0.01738
G1 X91.36 Y59.576 E0.01737
G1 X91.323 Y60 E0.01738
G1 X91.36 Y60.424 E0.01737
G1 X91.471 Y60.835 E0.01737
G1 X91.65 Y61.22 E0.01738
G1 X91.894 Y61.569 E0.01737
G1 X92.195 Y61.869 E0.01738
G1 X92.544 Y62.113 E0.01737
G1 X92.929 Y62.293 E0.01739
G1 X93.343 Y62.404 E0.01747
G1 X93.77 Y62.439 E0.01754
G1 X94.216 Y62.395 E0.01826
G1 X94.854 Y62.184 E0.02746
G1 X94.772 Y63.532 E0.05518
G1 X94.235 Y67.036 E0.14477
G1 X93.348 Y70.463 E0.14461
G1 X92.118 Y73.783 E0.14462
G1 X90.559 Y76.962 E0.14461
G1 X88.686 Y79.966 E0.14461
G1 X86.519 Y82.766 E0.14461
G1 X84.08 Y85.332 E0.14461
G1 X81.393 Y87.639 E0.14464
G1 X79.322 Y89.085 E0.10317
G1 X79.18 Y88.427 E0.02752
G1 X78.99 Y88.018 E0.0184
G1 X78.728 Y87.653 E0.01837
G1 X78.291 Y87.263 E0.02391
G1 X79.522 Y86.448 E0.06028
G1 X80.404 Y85.681 E0.04776
G1 X81.176 Y84.826 E0.04706
G1 X81.909 Y83.799 E0.05153
G1 X82.353 Y83.045 E0.03575
G1 X82.746 Y82.286 E0.0349
G1 X83.683 Y80.333 E0.08846
G1 X84.03 Y79.674 E0.03043
G1 X84.492 Y78.889 E0.0372
G1 X85.323 Y77.715 E0.05876
G1 X86.364 Y76.535 E0.06427
G1 X88.018 Y74.945 E0.09372
G1 X89.086 Y73.853 E0.06239
G1 X89.953 Y72.767 E0.05675
G1 X90.595 Y71.726 E0.04996
G1 X91.06 Y70.73 E0.04488
G1 X91.418 Y69.638 E0.04694
G1 X91.652 Y68.451 E0.04945
G1 X91.737 Y67.226 E0.05013
G1 X91.685 Y66.002 E0.05003
G1 X91.437 Y64.302 E0.07021
G1 X91.067 Y62.247 E0.08526
G1 X90.908 Y60.715 E0.0629
G1 X90.918 Y59.101 E0.06596
G1 X91.104 Y57.514 E0.06525
G1 X91.607 Y54.66 E0.11837
G1 X91.733 Y53.201 E0.05982
G1 X91.684 Y51.842 E0.05554
G1 X91.514 Y50.761 E0.04468
G1 X91.185 Y49.603 E0.04917
G1 X90.711 Y48.494 E0.04927
G1 X90.099 Y47.448 E0.0495
G1 X89.426 Y46.545 E0.046
G1 X88.802 Y45.838 E0.03854
G1 X88.202 Y45.232 E0.0348
G1 X86.696 Y43.798 E0.08496
G1 X85.648 Y42.68 E0.0626
G1 X84.819 Y41.606 E0.0554
G1 X84.445 Y41.035 E0.02788
G1 X83.995 Y40.264 E0.03647
G1 X82.257 Y36.786 E0.15882
G1 X81.559 Y35.679 E0.05345
G1 X80.805 Y34.738 E0.04922
G1 X79.986 Y33.931 E0.04698
G1 X78.979 Y33.168 E0.05162
G1 X78.253 Y32.772 E0.03378
G1 X78.729 Y32.347 E0.02609
G1 X78.991 Y31.981 E0.01839
G1 X79.18 Y31.573 E0.01836
G1 X79.322 Y30.915 E0.02751
G1 X81.393 Y32.361 E0.10317
G1 X84.08 Y34.668 E0.14464
G1 X86.519 Y37.234 E0.14461
G1 X88.686 Y40.034 E0.14461
G1 X90.559 Y43.038 E0.14462
G1 X92.118 Y46.217 E0.14461
G1 X93.348 Y49.537 E0.14461
G1 X94.235 Y52.964 E0.14461
G1 X94.772 Y56.468 E0.14477
G1 X94.85 Y57.756 E0.05273
M107
G1 E-2.000000 F3000
M204 S1500
