; generated by SuperSlicer 2.5.59.12 on 2024-08-01 at 21:38:20 UTC


;
;

;
;
; TODO: check the size of the extruder and the y-bar clearance. Optimize & test supports.

; external perimeters extrusion width = 0.56mm
; perimeters extrusion width = 0.56mm
; infill extrusion width = 0.56mm
; solid infill extrusion width = 0.56mm
; top infill extrusion width = 0.56mm
; support material extrusion width = 0.44mm
; first layer extrusion width = 0.56mm

; object:{"name":"OutputShaftTop_2","id":"OutputShaftTop_2.STL id:0 copy 0","object_center":[60.000000,60.000000,0.000000],"boundingbox_center":[60.000000,60.000000,2.500000],"boundingbox_size":[47.938393,48.000000,5.000000]}
EXCLUDE_OBJECT_DEFINE NAME=OutputShaftTop_2_STL_id_0_copy_0 CENTER=60.000000,60.000000 POLYGON=[[36.03,58.78],[36.28,56.37],[36.77,53.98],[37.49,51.66],[38.45,49.43],[39.63,47.30],[41.02,45.31],[42.60,43.46],[44.37,41.79],[46.29,40.30],[48.35,39.02],[50.54,37.95],[52.82,37.10],[55.17,36.49],[57.57,36.12],[60.00,36.00],[62.43,36.12],[64.83,36.49],[67.18,37.10],[69.46,37.95],[71.65,39.02],[73.71,40.30],[75.63,41.79],[77.40,43.46],[78.98,45.31],[80.37,47.30],[81.55,49.43],[82.51,51.66],[83.23,53.98],[83.72,56.37],[83.97,58.78],[83.97,61.22],[83.72,63.63],[83.23,66.02],[82.51,68.34],[81.55,70.57],[80.37,72.70],[78.98,74.69],[77.40,76.54],[75.63,78.21],[73.71,79.70],[71.65,80.98],[69.46,82.05],[67.18,82.90],[64.83,83.51],[62.43,83.88],[60.00,84.00],[57.57,83.88],[55.17,83.51],[52.82,82.90],[50.54,82.05],[48.35,80.98],[46.29,79.70],[44.37,78.21],[42.60,76.54],[41.02,74.69],[39.63,72.70],[38.45,70.57],[37.49,68.34],[36.77,66.02],[36.28,63.63],[36.03,61.22],[36.03,58.78]]
; plater:{"center":[60.000000,60.000000,0.000000],"boundingbox_center":[60.000000,60.000000,2.500000],"boundingbox_size":[47.938393,48.000000,5.000000]}

M107
;TYPE:Custom
; M190 S0
;M109 S0 ; uncomment to remove set&wait temp gcode added automatically after this start gcode
print_start EXTRUDER=245 BED=90 CHAMBER=50

;G92 E0
;G1 E10 F1500 ; prime the nozzle
M107
G21 ; set units to millimeters
G90 ; use absolute coordinates
M83 ; use relative distances for extrusion
SET_PRESSURE_ADVANCE ADVANCE=0.04
M104 S245 ; set temperature
M109 S245 ; set temperature and wait for it to be reached
M190 S90 ; set bed temperature and wait for it to be reached
;LAYER_CHANGE
;Z:0.2
;HEIGHT:0.2
;BEFORE_LAYER_CHANGE
;0.2


G1 Z0.2 F18000
;AFTER_LAYER_CHANGE
;0.2
TIMELAPSE_TAKE_FRAME
G92 E0
G1 E-2.000000 F3000
G1 Z0.6 F18000
M204 S1000
G1 X39.543 Y40.881
G1 Z0.2
G1 E2.000000 F1800
;TYPE:Skirt
;WIDTH:0.52
M107
G1 X37.714 Y43.048 E0.10689
G1 X36.113 Y45.39 E0.1069
G1 X34.758 Y47.881 E0.10689
G1 X33.825 Y50.054 E0.08908
G1 X32.954 Y52.753 E0.1069
G1 X32.359 Y55.526 E0.10689
G1 X32.048 Y58.346 E0.10689
G1 X32.024 Y61.182 E0.10689
G1 X32.287 Y64.006 E0.1069
G1 X32.835 Y66.789 E0.10689
G1 X33.661 Y69.503 E0.10689
G1 X34.758 Y72.119 E0.10689
G1 X36.113 Y74.61 E0.1069
G1 X37.714 Y76.952 E0.10689
G1 X39.543 Y79.119 E0.10689
G1 X41.582 Y81.091 E0.1069
G1 X43.811 Y82.846 E0.10689
G1 X46.205 Y84.367 E0.10689
G1 X48.741 Y85.637 E0.10689
G1 X51.392 Y86.645 E0.1069
G1 X54.132 Y87.379 E0.10689
G1 X57.403 Y87.88 E0.12469
G1 X60.237 Y88 E0.10689
G1 X63.068 Y87.832 E0.1069
G1 X65.868 Y87.379 E0.10689
G1 X68.608 Y86.645 E0.10689
G1 X71.259 Y85.637 E0.1069
G1 X73.795 Y84.367 E0.10689
G1 X76.189 Y82.846 E0.10689
G1 X78.418 Y81.091 E0.10689
G1 X80.457 Y79.119 E0.1069
G1 X82.286 Y76.952 E0.10689
G1 X83.887 Y74.61 E0.10689
G1 X85.242 Y72.119 E0.10689
G1 X86.175 Y69.946 E0.08909
G1 X87.046 Y67.247 E0.10689
G1 X87.641 Y64.474 E0.10689
G1 X87.952 Y61.654 E0.1069
G1 X87.976 Y58.818 E0.10689
G1 X87.713 Y55.994 E0.10689
G1 X87.165 Y53.211 E0.1069
G1 X86.339 Y50.497 E0.10689
G1 X85.242 Y47.881 E0.10689
G1 X83.887 Y45.39 E0.10689
G1 X82.286 Y43.048 E0.1069
G1 X80.457 Y40.881 E0.10689
G1 X78.418 Y38.909 E0.10689
G1 X76.189 Y37.154 E0.10689
G1 X73.795 Y35.633 E0.1069
G1 X71.259 Y34.363 E0.10689
G1 X68.608 Y33.355 E0.10689
G1 X65.868 Y32.621 E0.1069
G1 X62.597 Y32.12 E0.12469
G1 X59.763 Y32 E0.10689
G1 X56.932 Y32.168 E0.10689
G1 X54.132 Y32.621 E0.1069
G1 X51.392 Y33.355 E0.10689
G1 X48.741 Y34.363 E0.10689
G1 X46.205 Y35.633 E0.1069
G1 X43.811 Y37.154 E0.10689
G1 X41.582 Y38.909 E0.10689
G1 X39.586 Y40.839 E0.10463
M107
G1 X39.905 Y41.191 F18000
M107
G1 F1800
G1 X38.105 Y43.321 E0.10508
G1 X36.53 Y45.621 E0.10507
G1 X35.196 Y48.07 E0.10507
G1 X34.116 Y50.64 E0.10507
G1 X33.302 Y53.307 E0.10508
G1 X32.826 Y55.622 E0.08908
G1 X32.523 Y58.394 E0.10508
G1 X32.501 Y61.182 E0.10507
G1 X32.762 Y63.958 E0.10507
G1 X33.302 Y66.693 E0.10507
G1 X34.116 Y69.36 E0.10508
G1 X35.196 Y71.93 E0.10507
G1 X36.53 Y74.379 E0.10507
G1 X38.105 Y76.679 E0.10508
G1 X39.905 Y78.809 E0.10507
G1 X41.911 Y80.745 E0.10507
G1 X44.103 Y82.469 E0.10508
G1 X46.457 Y83.962 E0.10507
G1 X48.951 Y85.209 E0.10507
G1 X51.558 Y86.197 E0.10508
G1 X54.252 Y86.917 E0.10507
G1 X57.427 Y87.403 E0.12105
G1 X60.212 Y87.523 E0.10508
G1 X62.996 Y87.36 E0.10507
G1 X65.748 Y86.917 E0.10507
G1 X68.442 Y86.197 E0.10508
G1 X71.049 Y85.209 E0.10507
G1 X73.543 Y83.962 E0.10507
G1 X75.897 Y82.469 E0.10508
G1 X78.089 Y80.745 E0.10507
G1 X80.095 Y78.809 E0.10507
G1 X81.895 Y76.679 E0.10508
G1 X83.47 Y74.379 E0.10507
G1 X84.804 Y71.93 E0.10507
G1 X85.884 Y69.36 E0.10507
G1 X86.698 Y66.693 E0.10508
G1 X87.174 Y64.378 E0.08908
G1 X87.477 Y61.606 E0.10508
G1 X87.499 Y58.818 E0.10507
G1 X87.238 Y56.042 E0.10507
G1 X86.698 Y53.307 E0.10507
G1 X85.884 Y50.64 E0.10508
G1 X84.804 Y48.07 E0.10507
G1 X83.47 Y45.621 E0.10507
G1 X81.895 Y43.321 E0.10508
G1 X80.095 Y41.191 E0.10507
G1 X78.089 Y39.255 E0.10507
G1 X75.897 Y37.531 E0.10508
G1 X73.543 Y36.038 E0.10507
G1 X71.049 Y34.791 E0.10507
G1 X68.442 Y33.803 E0.10508
G1 X65.748 Y33.083 E0.10507
G1 X62.573 Y32.597 E0.12105
G1 X59.788 Y32.477 E0.10508
G1 X57.004 Y32.64 E0.10507
G1 X54.252 Y33.083 E0.10507
G1 X51.558 Y33.803 E0.10508
G1 X48.951 Y34.791 E0.10507
G1 X46.457 Y36.038 E0.10507
G1 X44.103 Y37.531 E0.10508
G1 X41.911 Y39.255 E0.10507
G1 X39.948 Y41.15 E0.10281
M107
G1 X40.267 Y41.502 F18000
M107
G1 F1800
G1 X38.497 Y43.593 E0.10325
G1 X36.947 Y45.853 E0.10326
G1 X35.634 Y48.258 E0.10325
G1 X34.572 Y50.783 E0.10326
G1 X33.77 Y53.403 E0.10325
G1 X33.294 Y55.718 E0.08908
G1 X32.998 Y58.442 E0.10326
G1 X32.979 Y61.182 E0.10325
G1 X33.237 Y63.91 E0.10326
G1 X33.77 Y66.597 E0.10325
G1 X34.572 Y69.217 E0.10325
G1 X35.634 Y71.742 E0.10326
G1 X36.947 Y74.147 E0.10325
G1 X38.497 Y76.407 E0.10325
G1 X40.267 Y78.498 E0.10326
G1 X42.24 Y80.399 E0.10325
G1 X44.395 Y82.091 E0.10325
G1 X46.71 Y83.557 E0.10326
G1 X49.161 Y84.781 E0.10325
G1 X51.724 Y85.75 E0.10325
G1 X54.371 Y86.455 E0.10326
G1 X57.451 Y86.927 E0.11742
G1 X60.188 Y87.047 E0.10325
G1 X62.923 Y86.889 E0.10325
G1 X65.629 Y86.455 E0.10326
G1 X68.276 Y85.75 E0.10325
G1 X70.839 Y84.781 E0.10325
G1 X73.29 Y83.557 E0.10326
G1 X75.605 Y82.091 E0.10325
G1 X77.76 Y80.399 E0.10325
G1 X79.733 Y78.498 E0.10326
G1 X81.503 Y76.407 E0.10325
G1 X83.053 Y74.147 E0.10325
G1 X84.366 Y71.742 E0.10326
G1 X85.428 Y69.217 E0.10325
G1 X86.23 Y66.597 E0.10326
G1 X86.706 Y64.282 E0.08908
G1 X87.002 Y61.558 E0.10325
G1 X87.021 Y58.818 E0.10326
G1 X86.763 Y56.09 E0.10325
G1 X86.23 Y53.403 E0.10325
G1 X85.428 Y50.783 E0.10326
G1 X84.366 Y48.258 E0.10325
G1 X83.053 Y45.853 E0.10325
G1 X81.503 Y43.593 E0.10326
G1 X79.733 Y41.502 E0.10325
G1 X77.76 Y39.601 E0.10326
G1 X75.605 Y37.909 E0.10325
G1 X73.29 Y36.443 E0.10325
G1 X70.839 Y35.219 E0.10326
G1 X68.276 Y34.25 E0.10325
G1 X65.629 Y33.545 E0.10325
G1 X62.549 Y33.073 E0.11742
G1 X59.812 Y32.953 E0.10325
G1 X57.077 Y33.111 E0.10326
G1 X54.371 Y33.545 E0.10325
G1 X51.724 Y34.25 E0.10326
G1 X49.161 Y35.219 E0.10325
G1 X46.71 Y36.443 E0.10325
G1 X44.395 Y37.909 E0.10326
G1 X42.24 Y39.601 E0.10325
G1 X40.31 Y41.461 E0.10099
M107
G1 X40.855 Y41.575 F18000
M107
G1 F1800
G1 X39.089 Y43.607 E0.10144
G1 X37.538 Y45.806 E0.10143
G1 X36.217 Y48.151 E0.10143
G1 X35.141 Y50.618 E0.10144
G1 X34.319 Y53.181 E0.10143
G1 X33.761 Y55.814 E0.10144
G1 X33.472 Y58.49 E0.10143
G1 X33.456 Y61.182 E0.10143
G1 X33.711 Y63.861 E0.10144
G1 X34.237 Y66.501 E0.10143
G1 X35.027 Y69.074 E0.10144
G1 X36.073 Y71.554 E0.10143
G1 X37.365 Y73.915 E0.10144
G1 X38.889 Y76.134 E0.10143
G1 X40.629 Y78.187 E0.10143
G1 X42.568 Y80.054 E0.10144
G1 X44.687 Y81.714 E0.10143
G1 X46.962 Y83.152 E0.10144
G1 X49.371 Y84.352 E0.10143
G1 X51.889 Y85.303 E0.10143
G1 X54.491 Y85.993 E0.10144
G1 X57.475 Y86.45 E0.11378
G1 X60.164 Y86.57 E0.10143
G1 X62.525 Y86.45 E0.08909
G1 X65.188 Y86.059 E0.10143
G1 X67.798 Y85.401 E0.10143
G1 X70.327 Y84.482 E0.10144
G1 X72.751 Y83.311 E0.10143
G1 X75.044 Y81.902 E0.10144
G1 X77.183 Y80.267 E0.10143
G1 X79.145 Y78.425 E0.10143
G1 X80.911 Y76.393 E0.10144
G1 X82.462 Y74.194 E0.10143
G1 X83.783 Y71.849 E0.10144
G1 X84.859 Y69.382 E0.10143
G1 X85.681 Y66.819 E0.10144
G1 X86.239 Y64.186 E0.10143
G1 X86.528 Y61.51 E0.10143
G1 X86.544 Y58.818 E0.10144
G1 X86.289 Y56.139 E0.10143
G1 X85.763 Y53.499 E0.10144
G1 X84.973 Y50.926 E0.10143
G1 X83.927 Y48.446 E0.10143
G1 X82.635 Y46.085 E0.10144
G1 X81.111 Y43.866 E0.10143
G1 X79.371 Y41.813 E0.10144
G1 X77.432 Y39.946 E0.10143
G1 X75.313 Y38.286 E0.10143
G1 X73.038 Y36.848 E0.10144
G1 X70.629 Y35.648 E0.10143
G1 X68.111 Y34.697 E0.10144
G1 X65.509 Y34.007 E0.10143
G1 X62.525 Y33.55 E0.11378
G1 X59.836 Y33.43 E0.10143
G1 X57.475 Y33.55 E0.08909
G1 X54.812 Y33.941 E0.10143
G1 X52.202 Y34.599 E0.10144
G1 X49.673 Y35.518 E0.10143
G1 X47.249 Y36.689 E0.10144
G1 X44.956 Y38.098 E0.10143
G1 X42.817 Y39.733 E0.10143
G1 X40.899 Y41.534 E0.09918
M107
G1 E-2.000000 F3000
M204 S1500
G1 Z0.6 F18000
; printing object OutputShaftTop_2.STL id:0 copy 0
EXCLUDE_OBJECT_START NAME=OutputShaftTop_2_STL_id_0_copy_0
; acceleration to travel
G1 X42.108 Y46.178
; decel to extrusion
M204 S1000
G1 X42.914 Y49.275
; end travel
G1 Z0.2
G1 E2.000000 F1800
;TYPE:Internal perimeter
;WIDTH:0.56
M107
G1 X42.858 Y49.331 E0.00324
G1 X42.473 Y49.881 E0.02743
G1 X42.189 Y50.49 E0.02744
G1 X42.015 Y51.138 E0.02743
G1 X41.957 Y51.807 E0.02743
G1 X42.015 Y52.476 E0.02744
G1 X42.189 Y53.125 E0.02743
G1 X42.473 Y53.734 E0.02743
G1 X42.858 Y54.284 E0.02744
G1 X43.333 Y54.759 E0.02743
G1 X43.883 Y55.144 E0.02743
G1 X44.492 Y55.428 E0.02744
G1 X45.141 Y55.602 E0.02743
G1 X45.81 Y55.66 E0.02743
G1 X46.479 Y55.602 E0.02744
G1 X47.128 Y55.428 E0.02743
G1 X47.736 Y55.144 E0.02743
G1 X48.287 Y54.759 E0.02744
G1 X48.762 Y54.284 E0.02743
G1 X49.147 Y53.734 E0.02743
G1 X49.431 Y53.125 E0.02744
G1 X49.604 Y52.476 E0.02743
G1 X49.663 Y51.807 E0.02743
G1 X49.604 Y51.138 E0.02744
G1 X49.431 Y50.49 E0.02743
G1 X49.147 Y49.881 E0.02743
G1 X48.762 Y49.331 E0.02744
G1 X48.287 Y48.856 E0.02743
G1 X47.736 Y48.47 E0.02743
G1 X47.128 Y48.187 E0.02744
G1 X46.479 Y48.013 E0.02743
G1 X45.81 Y47.954 E0.02743
G1 X45.141 Y48.013 E0.02743
G1 X44.492 Y48.187 E0.02744
G1 X43.883 Y48.47 E0.02743
G1 X43.333 Y48.856 E0.02743
G1 X42.957 Y49.232 E0.02175
M107
G1 X43.284 Y49.636 F18000
M107
G1 F1800
G1 X43.256 Y49.664 E0.00162
G1 X42.923 Y50.14 E0.02373
G1 X42.677 Y50.667 E0.02374
G1 X42.527 Y51.228 E0.02374
G1 X42.476 Y51.807 E0.02374
G1 X42.527 Y52.386 E0.02374
G1 X42.677 Y52.948 E0.02373
G1 X42.923 Y53.474 E0.02374
G1 X43.256 Y53.95 E0.02374
G1 X43.667 Y54.361 E0.02374
G1 X44.143 Y54.695 E0.02373
G1 X44.67 Y54.94 E0.02374
G1 X45.231 Y55.091 E0.02374
G1 X45.81 Y55.141 E0.02374
G1 X46.389 Y55.091 E0.02373
G1 X46.95 Y54.94 E0.02374
G1 X47.477 Y54.695 E0.02374
G1 X47.953 Y54.361 E0.02374
G1 X48.364 Y53.95 E0.02374
G1 X48.697 Y53.474 E0.02373
G1 X48.943 Y52.948 E0.02374
G1 X49.093 Y52.386 E0.02374
G1 X49.144 Y51.807 E0.02374
G1 X49.093 Y51.228 E0.02373
G1 X48.943 Y50.667 E0.02374
G1 X48.697 Y50.14 E0.02374
G1 X48.364 Y49.664 E0.02374
G1 X47.953 Y49.253 E0.02373
G1 X47.477 Y48.92 E0.02374
G1 X46.95 Y48.674 E0.02374
G1 X46.389 Y48.524 E0.02374
G1 X45.81 Y48.473 E0.02374
G1 X45.231 Y48.524 E0.02373
G1 X44.67 Y48.674 E0.02374
G1 X44.143 Y48.92 E0.02374
G1 X43.667 Y49.253 E0.02374
G1 X43.326 Y49.594 E0.01966
M107
G1 X43.654 Y49.998 F18000
;TYPE:External perimeter
M107
G1 F1800
G1 X43.372 Y50.4 E0.02004
G1 X43.165 Y50.845 E0.02005
G1 X43.038 Y51.319 E0.02004
G1 X42.995 Y51.807 E0.02004
G1 X43.038 Y52.296 E0.02004
G1 X43.165 Y52.77 E0.02005
G1 X43.372 Y53.215 E0.02004
G1 X43.654 Y53.617 E0.02004
G1 X44 Y53.964 E0.02004
G1 X44.402 Y54.245 E0.02004
G1 X44.847 Y54.453 E0.02005
G1 X45.321 Y54.58 E0.02004
G1 X45.81 Y54.622 E0.02004
G1 X46.299 Y54.58 E0.02004
G1 X46.773 Y54.453 E0.02004
G1 X47.217 Y54.245 E0.02005
G1 X47.619 Y53.964 E0.02004
G1 X47.966 Y53.617 E0.02004
G1 X48.248 Y53.215 E0.02004
G1 X48.455 Y52.77 E0.02004
G1 X48.582 Y52.296 E0.02005
G1 X48.625 Y51.807 E0.02004
G1 X48.582 Y51.319 E0.02004
G1 X48.455 Y50.845 E0.02004
G1 X48.248 Y50.4 E0.02004
G1 X47.966 Y49.998 E0.02005
G1 X47.619 Y49.651 E0.02004
G1 X47.217 Y49.37 E0.02004
G1 X46.773 Y49.162 E0.02004
G1 X46.299 Y49.035 E0.02005
G1 X45.81 Y48.992 E0.02004
G1 X45.321 Y49.035 E0.02004
G1 X44.847 Y49.162 E0.02004
G1 X44.402 Y49.37 E0.02004
G1 X44 Y49.651 E0.02005
G1 X43.696 Y49.956 E0.01759
M107
;WIPE_START
M204 S1500
G1 X43.432 Y49.965 F18000
;WIPE_END
G1 E-2.000000 F3000
G1 Z0.6 F18000
; acceleration to travel
G1 X48.369 Y55.152
; decel to extrusion
M204 S1000
G1 X51.661 Y58.61
; end travel
G1 Z0.2
G1 E2.000000 F1800
;TYPE:Internal perimeter
M107
G1 X51.539 Y60.000000 E0.057
G1 X51.667 Y61.469 E0.06024
G1 X52.049 Y62.894 E0.06025
G1 X52.672 Y64.231 E0.06024
G1 X53.518 Y65.439 E0.06024
G1 X54.561 Y66.482 E0.06024
G1 X55.769 Y67.328 E0.06024
G1 X57.106 Y67.951 E0.06024
G1 X58.531 Y68.333 E0.06025
G1 X60.000000 Y68.461 E0.06024
G1 X61.469 Y68.333 E0.06024
G1 X62.894 Y67.951 E0.06024
G1 X64.231 Y67.328 E0.06024
G1 X65.439 Y66.482 E0.06025
G1 X66.482 Y65.439 E0.06024
G1 X67.328 Y64.231 E0.06024
G1 X67.951 Y62.894 E0.06024
G1 X68.333 Y61.469 E0.06024
G1 X68.461 Y60.000000 E0.06024
G1 X68.333 Y58.531 E0.06025
G1 X67.951 Y57.106 E0.06024
G1 X67.328 Y55.769 E0.06024
G1 X66.482 Y54.561 E0.06024
G1 X65.439 Y53.518 E0.06024
G1 X64.231 Y52.672 E0.06025
G1 X62.894 Y52.049 E0.06024
G1 X61.469 Y51.667 E0.06024
G1 X60.000000 Y51.539 E0.06024
G1 X59.468 Y51.585 E0.02181
G1 X58.531 Y51.667 E0.03843
G1 X57.106 Y52.049 E0.06024
G1 X55.769 Y52.672 E0.06025
G1 X54.561 Y53.518 E0.06024
G1 X53.518 Y54.561 E0.06024
G1 X52.672 Y55.769 E0.06024
G1 X52.049 Y57.106 E0.06024
G1 X51.667 Y58.531 E0.06024
G1 X51.666 Y58.55 E0.00079
M107
G1 X52.175 Y58.66 F18000
M107
G1 F1800
G1 X52.058 Y60.000000 E0.05493
G1 X52.179 Y61.379 E0.05655
G1 X52.537 Y62.716 E0.05654
G1 X53.122 Y63.971 E0.05655
G1 X53.916 Y65.105 E0.05655
G1 X54.895 Y66.084 E0.05654
G1 X56.029 Y66.878 E0.05655
G1 X57.284 Y67.463 E0.05654
G1 X58.621 Y67.821 E0.05655
G1 X60.000000 Y67.942 E0.05655
G1 X61.379 Y67.821 E0.05654
G1 X62.716 Y67.463 E0.05655
G1 X63.971 Y66.878 E0.05654
G1 X65.105 Y66.084 E0.05655
G1 X66.084 Y65.105 E0.05655
G1 X66.878 Y63.971 E0.05654
G1 X67.463 Y62.716 E0.05655
G1 X67.821 Y61.379 E0.05655
G1 X67.942 Y60.000000 E0.05654
G1 X67.821 Y58.621 E0.05655
G1 X67.463 Y57.284 E0.05654
G1 X66.878 Y56.029 E0.05655
G1 X66.084 Y54.895 E0.05655
G1 X65.105 Y53.916 E0.05654
G1 X63.971 Y53.122 E0.05655
G1 X62.716 Y52.537 E0.05655
G1 X61.379 Y52.179 E0.05654
G1 X60.000000 Y52.058 E0.05655
G1 X59.513 Y52.101 E0.01996
G1 X58.621 Y52.179 E0.03658
G1 X57.284 Y52.537 E0.05655
G1 X56.029 Y53.122 E0.05655
G1 X54.895 Y53.916 E0.05654
G1 X53.916 Y54.895 E0.05655
G1 X53.122 Y56.029 E0.05655
G1 X52.537 Y57.284 E0.05654
G1 X52.184 Y58.601 E0.05572
M107
G1 X52.69 Y58.711 F18000
;TYPE:External perimeter
M107
G1 F1800
G1 X52.577 Y60.000000 E0.05285
G1 X52.69 Y61.289 E0.05285
G1 X53.025 Y62.539 E0.05285
G1 X53.571 Y63.711 E0.05285
G1 X54.314 Y64.771 E0.05285
G1 X55.229 Y65.686 E0.05285
G1 X56.289 Y66.429 E0.05285
G1 X57.461 Y66.975 E0.05285
G1 X58.711 Y67.31 E0.05285
G1 X60.000000 Y67.423 E0.05285
G1 X61.289 Y67.31 E0.05285
G1 X62.539 Y66.975 E0.05285
G1 X63.711 Y66.429 E0.05286
G1 X64.771 Y65.686 E0.05285
G1 X65.686 Y64.771 E0.05285
