; generated by SuperSlicer 2.5.59 on 2024-01-03 at 02:51:06 UTC


;
;

;
;
; TODO: check the size of the extruder and the y-bar clearance. Optimize & test supports.

; external perimeters extrusion width = 0.40mm
; perimeters extrusion width = 0.40mm
; infill extrusion width = 0.40mm
; solid infill extrusion width = 0.40mm
; top infill extrusion width = 0.40mm
; first layer extrusion width = 0.40mm

; external perimeters extrusion width = 0.40mm
; perimeters extrusion width = 0.40mm
; infill extrusion width = 0.40mm
; solid infill extrusion width = 0.40mm
; top infill extrusion width = 0.40mm
; first layer extrusion width = 0.40mm

; object:{"name":"20T_CF_Slider_Clamp","id":"20T_CF_Slider_Clamp.STL id:0 copy 0","object_center":[71.835734,59.988465,0.000000],"boundingbox_center":[71.835734,59.988465,4.180712],"boundingbox_size":[17.660298,18.000000,8.361424]}
EXCLUDE_OBJECT_DEFINE NAME=20T_CF_Slider_Clamp_STL_id_0_copy_0 CENTER=71.835734,59.988465 POLYGON=[[63.005584,52.988464],[63.010104,52.851980],[63.023660,52.716132],[63.046176,52.581552],[63.077560,52.448872],[63.117676,52.318708],[63.166332,52.191660],[63.223316,52.068332],[63.288376,51.949296],[63.361212,51.835108],[63.441500,51.726288],[63.528876,51.623360],[63.622952,51.526796],[63.723292,51.437044],[63.829448,51.354524],[63.940932,51.279624],[64.057244,51.212692],[64.177840,51.154040],[64.246544,51.125116],[64.302176,51.103944],[64.429680,51.062628],[64.559760,51.030296],[64.691828,51.007092],[64.825256,50.993128],[64.959444,50.988464],[78.712024,50.988464],[78.846208,50.993128],[78.979640,51.007092],[79.111704,51.030296],[79.241784,51.062628],[79.369288,51.103944],[79.424920,51.125116],[79.493624,51.154040],[79.614216,51.212692],[79.730528,51.279624],[79.842008,51.354524],[79.948168,51.437044],[80.048504,51.526796],[80.142584,51.623360],[80.229968,51.726288],[80.310248,51.835108],[80.383088,51.949296],[80.448144,52.068332],[80.505128,52.191660],[80.553784,52.318708],[80.593904,52.448872],[80.625280,52.581552],[80.647808,52.716132],[80.661352,52.851980],[80.665880,52.988464],[80.665880,66.988464],[80.661352,67.124944],[80.647808,67.260792],[80.625280,67.395376],[80.593904,67.528064],[80.553784,67.658224],[80.505128,67.785264],[80.448144,67.908592],[80.383088,68.027632],[80.310248,68.141824],[80.229968,68.250640],[80.142584,68.353568],[80.048504,68.450136],[79.948168,68.539888],[79.842008,68.622408],[79.730528,68.697304],[79.614216,68.764240],[79.493624,68.822888],[79.424920,68.851816],[79.369288,68.872984],[79.241784,68.914296],[79.111704,68.946632],[78.979640,68.969832],[78.846208,68.983800],[78.712024,68.988464],[64.959444,68.988464],[64.825256,68.983800],[64.691828,68.969832],[64.559760,68.946632],[64.429680,68.914296],[64.302176,68.872984],[64.246544,68.851816],[64.177840,68.822888],[64.057244,68.764240],[63.940932,68.697304],[63.829448,68.622408],[63.723292,68.539888],[63.622952,68.450136],[63.528876,68.353568],[63.441500,68.250640],[63.361212,68.141824],[63.288376,68.027632],[63.223316,67.908592],[63.166332,67.785264],[63.117676,67.658224],[63.077560,67.528064],[63.046176,67.395376],[63.023660,67.260792],[63.010104,67.124944],[63.005584,66.988464],[63.005584,52.988464]]
; object:{"name":"20T_CF_Slider_Clamp_Mirror","id":"20T_CF_Slider_Clamp_Mirror.STL id:1 copy 0","object_center":[48.169855,60.006045,0.000000],"boundingbox_center":[48.169855,60.006045,4.181833],"boundingbox_size":[17.671437,18.010943,8.363667]}
EXCLUDE_OBJECT_DEFINE NAME=20T_CF_Slider_Clamp_Mirror_STL_id_1_copy_0 CENTER=48.169855,60.006045 POLYGON=[[39.334132,53.013076],[39.338548,52.876588],[39.351992,52.740732],[39.374408,52.606132],[39.405692,52.473428],[39.445700,52.343232],[39.494264,52.216148],[39.551156,52.092772],[39.616124,51.973688],[39.688872,51.859436],[39.769084,51.750556],[39.856384,51.647556],[39.950388,51.550916],[40.050668,51.461084],[40.156760,51.378484],[40.268196,51.303496],[40.384456,51.236472],[40.505016,51.177724],[40.573700,51.148744],[40.629324,51.127524],[40.756800,51.086108],[40.886868,51.053672],[41.018920,51.030364],[41.152352,51.016292],[41.286536,51.011524],[41.824700,51.011092],[51.978256,51.003008],[54.501016,51.001000],[55.039116,51.000572],[55.173292,51.005128],[55.306724,51.018988],[55.438796,51.042088],[55.568900,51.074320],[55.696432,51.115528],[55.752076,51.136656],[55.820796,51.165528],[55.941432,51.224088],[56.057784,51.290924],[56.169320,51.365736],[56.275536,51.448168],[56.375940,51.537840],[56.470080,51.634332],[56.557532,51.737192],[56.637900,51.845940],[56.710828,51.960076],[56.775976,52.079060],[56.833052,52.202344],[56.881808,52.329344],[56.922020,52.459480],[56.953512,52.592136],[56.976136,52.726700],[56.989792,52.862536],[56.994428,52.999016],[57.005572,66.999016],[57.001156,67.135496],[56.987712,67.271360],[56.965300,67.405960],[56.934028,67.538664],[56.894024,67.668864],[56.845468,67.795944],[56.788584,67.919320],[56.723624,68.038408],[56.650888,68.152656],[56.570692,68.261536],[56.483404,68.364536],[56.389412,68.461176],[56.289152,68.551000],[56.183068,68.633608],[56.071652,68.708592],[55.955408,68.775616],[55.834860,68.834368],[55.766188,68.863352],[55.710576,68.884568],[55.583112,68.925976],[55.453060,68.958416],[55.321024,68.981728],[55.187616,68.995800],[55.053444,69.000568],[51.992588,69.003008],[41.839032,69.011096],[41.300864,69.011520],[41.166676,69.006960],[41.033224,68.993104],[40.901132,68.970000],[40.771012,68.937776],[40.643472,68.896560],[40.587816,68.875432],[40.519084,68.846568],[40.398428,68.788008],[40.282064,68.721168],[40.170508,68.646352],[40.064284,68.563928],[39.963860,68.474248],[39.869704,68.377760],[39.782240,68.274904],[39.701860,68.166152],[39.628920,68.052016],[39.563768,67.933032],[39.506676,67.809744],[39.457916,67.682744],[39.417700,67.552616],[39.386204,67.419952],[39.363576,67.285392],[39.349916,67.149552],[39.345280,67.013076],[39.342616,63.669328],[39.334132,53.013076]]
; plater:{"center":[60.000010,59.999991,0.000000],"boundingbox_center":[60.000010,59.999991,4.181833],"boundingbox_size":[41.331747,18.023051,8.363667]}

;TYPE:Custom
; M190 S0
; M109 S0 ; uncomment to remove set&wait temp gcode added automatically after this start gcode
print_start EXTRUDER=245 BED=90 CHAMBER=50
M107
G21 ; set units to millimeters
G90 ; use absolute coordinates
M83 ; use relative distances for extrusion
SET_PRESSURE_ADVANCE ADVANCE=0.02
;_TOOLCHANGE 0
M104 S245 ; set temperature
M109 S245 ; set temperature and wait for it to be reached
M190 S90 ; set bed temperature and wait for it to be reached
M107
;LAYER_CHANGE
;Z:0.2
;HEIGHT:0.2
;BEFORE_LAYER_CHANGE
;0.2


G1 Z0.2 F18000
;AFTER_LAYER_CHANGE
;0.2
G92 E0
G1 E-2 F3000
G1 Z0.6 F18000
M204 S1000
G1 X38.368 Y47.98
G1 Z0.2
G1 E2 F1800
;TYPE:Skirt
;WIDTH:0.4
G1 X37.545 Y48.917 E0.03703
G1 X37.078 Y49.636 E0.02545
G1 X36.703 Y50.416 E0.0257
G1 X36.451 Y51.175 E0.02375
G1 X36.237 Y52.377 E0.03624
G1 X36.241 Y67.563 E0.4509
G1 X36.35 Y68.364 E0.02399
G1 X36.598 Y69.287 E0.0284
G1 X37.095 Y70.396 E0.03607
G1 X37.46 Y70.977 E0.02039
G1 X38.054 Y71.712 E0.02805
G1 X39.196 Y72.696 E0.04476
G1 X40.147 Y73.252 E0.03269
G1 X41.013 Y73.596 E0.02768
G1 X41.914 Y73.822 E0.0276
G1 X42.84 Y73.927 E0.02765
G1 X76.987 Y73.911 E1.01389
G1 X78.205 Y73.776 E0.03636
G1 X79.003 Y73.573 E0.02446
G1 X80.105 Y73.109 E0.0355
G1 X81.143 Y72.433 E0.03679
G1 X81.777 Y71.877 E0.02505
G1 X82.398 Y71.165 E0.02804
G1 X83.042 Y70.137 E0.03601
G1 X83.363 Y69.407 E0.02368
G1 X83.611 Y68.575 E0.02577
G1 X83.789 Y67.099 E0.04414
G1 X83.779 Y52.741 E0.42632
G1 X83.624 Y51.472 E0.03795
G1 X83.203 Y50.191 E0.04003
G1 X82.717 Y49.28 E0.03066
G1 X81.959 Y48.289 E0.03705
G1 X81.068 Y47.481 E0.03571
G1 X80.016 Y46.827 E0.03679
G1 X78.712 Y46.321 E0.04151
G1 X77.641 Y46.109 E0.0324
G1 X76.985 Y46.066 E0.01953
G1 X43.007 Y46.087 E1.00885
G1 X42.084 Y46.167 E0.02751
G1 X41.18 Y46.369 E0.0275
G1 X40.035 Y46.822 E0.03658
G1 X39.31 Y47.235 E0.02476
G1 X38.415 Y47.943 E0.03388
G1 X38.636 Y48.222 F18000
G1 F1800
G1 X38.608 Y48.244 E0.00106
G1 X37.826 Y49.136 E0.03521
G1 X37.393 Y49.804 E0.02362
G1 X37.037 Y50.545 E0.02441
G1 X36.797 Y51.262 E0.02245
G1 X36.593 Y52.414 E0.03475
G1 X36.596 Y67.531 E0.44885
G1 X36.699 Y68.289 E0.02268
G1 X36.933 Y69.164 E0.02692
G1 X37.41 Y70.227 E0.03459
G1 X37.749 Y70.767 E0.01892
G1 X38.311 Y71.465 E0.0266
G1 X39.407 Y72.408 E0.04296
G1 X40.307 Y72.932 E0.03091
G1 X41.129 Y73.259 E0.02626
G1 X41.985 Y73.472 E0.02619
G1 X42.863 Y73.57 E0.02624
G1 X76.987 Y73.554 E1.01319
G1 X78.146 Y73.424 E0.03462
G1 X78.887 Y73.235 E0.0227
G1 X79.944 Y72.79 E0.03408
G1 X80.931 Y72.145 E0.035
G1 X81.52 Y71.629 E0.02324
G1 X82.264 Y70.741 E0.0344
G1 X82.727 Y69.969 E0.02674
G1 X83.03 Y69.278 E0.02239
G1 X83.265 Y68.488 E0.02448
G1 X83.378 Y67.851 E0.0192
G1 X83.432 Y67.099 E0.02238
G1 X83.422 Y52.741 E0.42632
G1 X83.274 Y51.54 E0.03592
G1 X82.872 Y50.325 E0.03799
G1 X82.421 Y49.48 E0.02845
G1 X81.702 Y48.536 E0.03523
G1 X80.846 Y47.761 E0.03426
G1 X79.845 Y47.14 E0.035
G1 X78.607 Y46.662 E0.03939
G1 X77.594 Y46.463 E0.03064
G1 X76.985 Y46.423 E0.01812
G1 X43.008 Y46.445 E1.00884
G1 X42.132 Y46.521 E0.02611
G1 X41.274 Y46.713 E0.0261
G1 X40.184 Y47.147 E0.03481
G1 X39.512 Y47.529 E0.02298
G1 X38.683 Y48.185 E0.03138
G1 X38.904 Y48.464 F18000
G1 F1800
G1 X38.848 Y48.509 E0.00212
G1 X38.108 Y49.356 E0.0334
G1 X37.708 Y49.971 E0.02179
G1 X37.37 Y50.673 E0.02312
G1 X37.143 Y51.349 E0.02116
G1 X36.948 Y52.452 E0.03326
G1 X36.935 Y67.128 E0.43576
G1 X37.103 Y68.47 E0.04015
G1 X37.359 Y69.287 E0.02543
G1 X37.725 Y70.059 E0.02536
G1 X38.193 Y70.77 E0.02528
G1 X38.75 Y71.406 E0.02513
G1 X39.294 Y71.882 E0.02144
G1 X40.229 Y72.494 E0.03317
G1 X40.991 Y72.834 E0.02477
G1 X41.791 Y73.069 E0.02476
G1 X42.886 Y73.214 E0.03282
G1 X76.987 Y73.197 E1.01249
G1 X78.087 Y73.071 E0.03287
G1 X78.77 Y72.898 E0.02094
G1 X79.784 Y72.471 E0.03266
G1 X80.72 Y71.857 E0.03321
G1 X81.263 Y71.381 E0.02144
G1 X81.976 Y70.531 E0.03294
G1 X82.412 Y69.8 E0.02527
G1 X82.697 Y69.149 E0.0211
G1 X83.023 Y67.813 E0.04084
G1 X83.075 Y67.099 E0.02125
G1 X83.065 Y52.741 E0.42632
G1 X82.924 Y51.609 E0.03388
G1 X82.542 Y50.46 E0.03595
G1 X82.125 Y49.68 E0.02625
G1 X81.444 Y48.784 E0.03341
G1 X80.625 Y48.042 E0.03282
G1 X79.674 Y47.454 E0.03322
G1 X78.502 Y47.004 E0.03726
G1 X77.547 Y46.817 E0.02889
G1 X43.008 Y46.802 E1.02551
G1 X42.179 Y46.875 E0.0247
G1 X41.368 Y47.058 E0.02469
G1 X40.334 Y47.471 E0.03305
G1 X39.714 Y47.824 E0.0212
G1 X38.951 Y48.427 E0.02889
G1 X39.172 Y48.707 F18000
G1 F1800
G1 X39.088 Y48.773 E0.00319
G1 X38.389 Y49.576 E0.03159
G1 X38.023 Y50.139 E0.01996
G1 X37.703 Y50.801 E0.02183
G1 X37.49 Y51.435 E0.01986
G1 X37.303 Y52.489 E0.03177
G1 X37.293 Y67.128 E0.43463
G1 X37.452 Y68.395 E0.03792
G1 X37.694 Y69.164 E0.02394
G1 X38.04 Y69.89 E0.02389
G1 X38.481 Y70.56 E0.02381
G1 X39.008 Y71.159 E0.02367
G1 X39.505 Y71.594 E0.01964
G1 X40.389 Y72.175 E0.03139
G1 X41.107 Y72.496 E0.02335
G1 X41.861 Y72.719 E0.02335
G1 X42.91 Y72.858 E0.03141
G1 X76.987 Y72.84 E1.01179
G1 X78.028 Y72.719 E0.03112
G1 X78.654 Y72.56 E0.01918
G1 X79.624 Y72.152 E0.03125
G1 X80.508 Y71.57 E0.03143
G1 X81.006 Y71.134 E0.01964
G1 X81.687 Y70.321 E0.03149
G1 X82.097 Y69.632 E0.0238
G1 X82.364 Y69.021 E0.01981
G1 X82.668 Y67.775 E0.03806
G1 X82.717 Y67.1 E0.02012
G1 X82.708 Y52.741 E0.42632
G1 X82.573 Y51.677 E0.03184
G1 X82.211 Y50.594 E0.03391
G1 X81.83 Y49.88 E0.02404
G1 X81.187 Y49.032 E0.03159
G1 X80.404 Y48.322 E0.03138
G1 X79.503 Y47.767 E0.03143
G1 X78.397 Y47.345 E0.03514
G1 X77.5 Y47.171 E0.02713
G1 X43.008 Y47.159 E1.0241
G1 X42.227 Y47.229 E0.0233
G1 X41.462 Y47.402 E0.02328
G1 X40.484 Y47.795 E0.03128
G1 X39.916 Y48.118 E0.01942
G1 X39.219 Y48.669 E0.02639
G1 X39.48 Y48.907 F18000
G1 F1800
G1 X38.671 Y49.795 E0.03567
G1 X38.338 Y50.307 E0.01813
G1 X37.966 Y51.111 E0.02628
G1 X37.772 Y51.777 E0.0206
G1 X37.658 Y52.527 E0.02252
G1 X37.65 Y67.127 E0.43351
G1 X37.801 Y68.32 E0.03569
G1 X38.029 Y69.041 E0.02246
G1 X38.354 Y69.722 E0.02241
G1 X38.77 Y70.349 E0.02234
G1 X39.265 Y70.911 E0.02222
G1 X39.717 Y71.306 E0.01784
G1 X40.549 Y71.856 E0.02961
G1 X41.223 Y72.158 E0.02193
G1 X41.931 Y72.369 E0.02194
G1 X42.933 Y72.502 E0.03
G1 X76.986 Y72.483 E1.01109
G1 X77.969 Y72.367 E0.02938
G1 X78.538 Y72.223 E0.01742
G1 X79.464 Y71.832 E0.02983
G1 X80.296 Y71.282 E0.02964
G1 X80.748 Y70.886 E0.01784
G1 X81.398 Y70.111 E0.03003
G1 X81.782 Y69.464 E0.02234
G1 X82.031 Y68.892 E0.01852
G1 X82.313 Y67.738 E0.03528
G1 X82.36 Y67.1 E0.01899
G1 X82.351 Y52.741 E0.42632
G1 X82.223 Y51.746 E0.02981
G1 X81.88 Y50.729 E0.03187
G1 X81.534 Y50.08 E0.02184
G1 X80.93 Y49.279 E0.02977
G1 X80.183 Y48.602 E0.02993
G1 X79.331 Y48.081 E0.02964
G1 X78.292 Y47.686 E0.03302
G1 X77.453 Y47.525 E0.02537
G1 X43.009 Y47.516 E1.02269
G1 X41.814 Y47.676 E0.03579
G1 X40.634 Y48.119 E0.03742
G1 X40.118 Y48.413 E0.01764
G1 X39.52 Y48.863 E0.02222
G1 X39.763 Y49.124 F18000
G1 F1800
G1 X38.952 Y50.015 E0.03576
G1 X38.653 Y50.475 E0.0163
G1 X38.299 Y51.239 E0.02499
G1 X38.118 Y51.864 E0.0193
G1 X38.013 Y52.564 E0.02103
G1 X38.007 Y67.127 E0.43239
G1 X38.15 Y68.245 E0.03345
G1 X38.364 Y68.918 E0.02098
G1 X38.669 Y69.553 E0.02094
G1 X39.058 Y70.139 E0.02088
G1 X39.522 Y70.663 E0.02076
G1 X39.928 Y71.019 E0.01604
G1 X40.709 Y71.536 E0.02782
G1 X41.339 Y71.821 E0.02052
G1 X42.002 Y72.019 E0.02053
G1 X42.956 Y72.145 E0.0286
G1 X76.986 Y72.126 E1.01038
G1 X77.91 Y72.015 E0.02763
G1 X78.421 Y71.885 E0.01566
G1 X79.303 Y71.513 E0.02842
G1 X80.085 Y70.994 E0.02785
G1 X80.491 Y70.639 E0.01604
G1 X81.109 Y69.901 E0.02858
G1 X81.698 Y68.763 E0.03803
G1 X81.958 Y67.7 E0.03251
G1 X82.003 Y67.1 E0.01786
G1 X81.994 Y52.742 E0.42632
G1 X81.872 Y51.814 E0.02777
G1 X81.549 Y50.863 E0.02983
G1 X81.238 Y50.28 E0.01963
G1 X80.673 Y49.527 E0.02795
G1 X79.961 Y48.883 E0.02849
G1 X79.16 Y48.394 E0.02786
G1 X78.187 Y48.027 E0.0309
G1 X77.405 Y47.879 E0.02361
G1 X43.009 Y47.873 E1.02128
G1 X41.908 Y48.021 E0.03298
G1 X40.784 Y48.443 E0.03565
G1 X39.813 Y49.091 E0.03466
G1 E-2 F3000
M204 S1500
G1 Z0.6 F18000
; printing object 20T_CF_Slider_Clamp.STL id:0 copy 0
EXCLUDE_OBJECT_START NAME=20T_CF_Slider_Clamp_STL_id_0_copy_0
; acceleration to travel
G1 X61.665 Y58.243
; decel to extrusion
M204 S1000
G1 X76.234 Y64.344
; end travel
G1 Z0.2
G1 E2 F1800
;TYPE:Internal perimeter
G1 X76.005 Y64.166 E0.01206
G1 X75.62 Y63.963 E0.01806
G1 X75.193 Y63.841 E0.01848
G1 X74.75 Y63.81 E0.01848
G1 X74.309 Y63.872 E0.01847
G1 X73.892 Y64.024 E0.01847
G1 X73.519 Y64.255 E0.01822
G1 X73.244 Y64.511 E0.01564
G1 X73.017 Y64.81 E0.01559
G1 X72.826 Y65.2 E0.01805
G1 X72.727 Y65.567 E0.01583
G1 X72.697 Y66.005 E0.01823
G1 X72.759 Y66.444 E0.01843
G1 X72.91 Y66.856 E0.01824
G1 X73.107 Y67.182 E0.01583
G1 X73.394 Y67.499 E0.0178
G1 X73.645 Y67.694 E0.0132
G1 X74.029 Y67.897 E0.01806
G1 X74.456 Y68.019 E0.01848
G1 X74.9 Y68.05 E0.01848
G1 X75.34 Y67.988 E0.01847
G1 X75.758 Y67.837 E0.01847
G1 X76.13 Y67.605 E0.01822
G1 X76.406 Y67.349 E0.01564
G1 X76.632 Y67.05 E0.01558
G1 X76.825 Y66.656 E0.01824
G1 X76.932 Y66.231 E0.01824
G1 X76.952 Y65.855 E0.01564
G1 X76.905 Y65.482 E0.01561
G1 X76.769 Y65.065 E0.01824
G1 X76.545 Y64.681 E0.01849
G1 X76.277 Y64.385 E0.0166
G1 X76.012 Y64.623 F18000
;TYPE:External perimeter
G1 F1800
G1 X75.81 Y64.467 E0.0106
G1 X75.487 Y64.296 E0.01521
G1 X75.131 Y64.195 E0.01537
G1 X74.762 Y64.169 E0.01537
G1 X74.396 Y64.221 E0.01537
G1 X74.048 Y64.347 E0.01537
G1 X73.737 Y64.54 E0.01524
G1 X73.509 Y64.751 E0.01291
G1 X73.323 Y64.998 E0.01285
G1 X73.162 Y65.326 E0.01518
G1 X73.081 Y65.627 E0.01296
G1 X73.055 Y65.992 E0.01523
G1 X73.107 Y66.357 E0.0153
G1 X73.233 Y66.701 E0.01524
G1 X73.394 Y66.968 E0.01297
G1 X73.638 Y67.237 E0.01507
G1 X73.839 Y67.393 E0.01061
G1 X74.163 Y67.564 E0.01521
G1 X74.518 Y67.665 E0.01537
G1 X74.887 Y67.691 E0.01537
G1 X75.253 Y67.64 E0.01537
G1 X75.601 Y67.514 E0.01536
G1 X75.912 Y67.32 E0.01524
G1 X76.14 Y67.109 E0.01291
G1 X76.327 Y66.862 E0.01285
G1 X76.488 Y66.533 E0.01524
G1 X76.577 Y66.178 E0.01523
G1 X76.593 Y65.868 E0.01289
G1 X76.555 Y65.561 E0.01287
