; generated by SuperSlicer 2.5.59 on 2024-01-02 at 20:56:24 UTC


;
;

;
;
; TODO: check the size of the extruder and the y-bar clearance. Optimize & test supports.

; external perimeters extrusion width = 0.40mm
; perimeters extrusion width = 0.40mm
; infill extrusion width = 0.40mm
; solid infill extrusion width = 0.40mm
; top infill extrusion width = 0.40mm
; first layer extrusion width = 0.40mm

; object:{"name":"20T_CF_Slider_Support","id":"20T_CF_Slider_Support.STL id:0 copy 0","object_center":[60.000000,60.000000,0.000000],"boundingbox_center":[60.000000,60.000000,3.500000],"boundingbox_size":[88.000000,88.000000,7.000000]}
EXCLUDE_OBJECT_DEFINE NAME=20T_CF_Slider_Support_STL_id_0_copy_0 CENTER=60.000000,60.000000 POLYGON=[[16.000000,26.000000],[16.023312,25.317578],[16.093140,24.638332],[16.209160,23.965438],[16.370827,23.302032],[16.577389,22.651204],[16.827884,22.015992],[17.121148,21.399350],[17.455806,20.804162],[17.830304,20.233196],[18.242886,19.689122],[18.691642,19.174470],[19.174470,18.691642],[19.689122,18.242886],[20.233196,17.830304],[20.804162,17.455806],[21.399350,17.121148],[22.015992,16.827884],[22.651204,16.577389],[23.302032,16.370827],[23.965438,16.209160],[24.638332,16.093140],[25.317578,16.023312],[26.000000,16.000000],[94.000000,16.000000],[94.682416,16.023312],[95.361664,16.093140],[96.034560,16.209160],[96.697968,16.370827],[97.348792,16.577389],[97.984008,16.827884],[98.600648,17.121148],[99.195840,17.455806],[99.766800,17.830304],[100.310872,18.242886],[100.825528,18.691642],[101.308360,19.174470],[101.757112,19.689122],[102.169704,20.233196],[102.544200,20.804162],[102.878856,21.399350],[103.172112,22.015992],[103.422608,22.651204],[103.629176,23.302032],[103.790840,23.965438],[103.906864,24.638332],[103.976688,25.317578],[104.000000,26.000000],[104.000000,94.000000],[103.976688,94.682416],[103.906864,95.361664],[103.790840,96.034560],[103.629176,96.697968],[103.422608,97.348792],[103.172112,97.984008],[102.878856,98.600648],[102.544200,99.195840],[102.169704,99.766800],[101.757112,100.310872],[101.308360,100.825528],[100.825528,101.308360],[100.310872,101.757112],[99.766800,102.169704],[99.195840,102.544200],[98.600648,102.878856],[97.984008,103.172112],[97.348792,103.422608],[96.697968,103.629176],[96.034560,103.790840],[95.361664,103.906864],[94.682416,103.976688],[94.000000,104.000000],[26.000000,104.000000],[25.317578,103.976688],[24.638332,103.906864],[23.965438,103.790840],[23.302032,103.629176],[22.651204,103.422608],[22.015992,103.172112],[21.399350,102.878856],[20.804162,102.544200],[20.233196,102.169704],[19.689122,101.757112],[19.174470,101.308360],[18.691642,100.825528],[18.242886,100.310872],[17.830304,99.766800],[17.455806,99.195840],[17.121148,98.600648],[16.827884,97.984008],[16.577389,97.348792],[16.370827,96.697968],[16.209160,96.034560],[16.093140,95.361664],[16.023312,94.682416],[16.000000,94.000000],[16.000000,26.000000]]
; plater:{"center":[60.000000,60.000000,0.000000],"boundingbox_center":[60.000000,60.000000,3.500000],"boundingbox_size":[88.000000,88.000000,7.000000]}

;TYPE:Custom
; M190 S0
; M109 S0 ; uncomment to remove set&wait temp gcode added automatically after this start gcode
print_start EXTRUDER=245 BED=90 CHAMBER=50
M107
G21 ; set units to millimeters
G90 ; use absolute coordinates
M83 ; use relative distances for extrusion
SET_PRESSURE_ADVANCE ADVANCE=0.02
;_TOOLCHANGE 0
M104 S245 ; set temperature
M109 S245 ; set temperature and wait for it to be reached
M190 S90 ; set bed temperature and wait for it to be reached
M107
;LAYER_CHANGE
;Z:0.2
;HEIGHT:0.2
;BEFORE_LAYER_CHANGE
;0.2


G1 Z0.2 F18000
;AFTER_LAYER_CHANGE
;0.2
G92 E0
G1 E-2 F3000
G1 Z0.6 F18000
; printing object 20T_CF_Slider_Support.STL id:0 copy 0
EXCLUDE_OBJECT_START NAME=20T_CF_Slider_Support_STL_id_0_copy_0
M204 S1000
G1 X66.572 Y66.856
G1 Z0.2
G1 E2 F1800
;TYPE:Internal perimeter
;WIDTH:0.4
G1 X66.598 Y66.832 E0.00148
G1 X67.059 Y66.355 E0.02756
G1 X67.485 Y65.848 E0.02756
G1 X67.874 Y65.311 E0.02756
G1 X68.226 Y64.749 E0.02756
G1 X68.537 Y64.164 E0.02756
G1 X68.807 Y63.558 E0.02756
G1 X69.033 Y62.935 E0.02756
G1 X69.216 Y62.298 E0.02756
G1 X69.354 Y61.649 E0.02756
G1 X69.446 Y60.993 E0.02756
G1 X69.492 Y60.331 E0.02756
G1 X69.492 Y59.669 E0.02756
G1 X69.446 Y59.007 E0.02756
G1 X69.354 Y58.351 E0.02756
G1 X69.216 Y57.702 E0.02756
G1 X69.033 Y57.065 E0.02756
G1 X68.807 Y56.442 E0.02756
G1 X68.537 Y55.836 E0.02756
G1 X68.226 Y55.251 E0.02756
G1 X67.874 Y54.689 E0.02756
G1 X67.485 Y54.152 E0.02756
G1 X67.058 Y53.644 E0.02756
G1 X66.598 Y53.168 E0.02756
G1 X66.105 Y52.724 E0.02756
G1 X65.583 Y52.316 E0.02756
G1 X65.033 Y51.945 E0.02756
G1 X64.459 Y51.614 E0.02756
G1 X63.863 Y51.323 E0.02756
G1 X63.249 Y51.075 E0.02756
G1 X62.618 Y50.87 E0.02756
G1 X61.975 Y50.709 E0.02756
G1 X61.322 Y50.594 E0.02756
G1 X60.663 Y50.525 E0.02756
G1 X60 Y50.502 E0.02756
G1 X59.337 Y50.525 E0.02756
G1 X58.678 Y50.594 E0.02756
G1 X58.025 Y50.709 E0.02756
G1 X57.382 Y50.87 E0.02756
G1 X56.751 Y51.075 E0.02756
G1 X56.137 Y51.323 E0.02756
G1 X55.541 Y51.614 E0.02756
G1 X54.967 Y51.945 E0.02756
G1 X54.417 Y52.316 E0.02756
G1 X53.895 Y52.724 E0.02756
G1 X53.402 Y53.168 E0.02756
G1 X52.942 Y53.644 E0.02756
G1 X52.515 Y54.152 E0.02756
G1 X52.126 Y54.689 E0.02756
G1 X51.774 Y55.251 E0.02756
G1 X51.463 Y55.836 E0.02756
G1 X51.193 Y56.442 E0.02756
G1 X50.967 Y57.065 E0.02756
G1 X50.784 Y57.702 E0.02756
G1 X50.646 Y58.351 E0.02756
G1 X50.554 Y59.007 E0.02756
G1 X50.508 Y59.669 E0.02756
G1 X50.508 Y60.331 E0.02756
G1 X50.554 Y60.993 E0.02756
G1 X50.646 Y61.649 E0.02756
G1 X50.784 Y62.298 E0.02756
G1 X50.967 Y62.935 E0.02756
G1 X51.193 Y63.558 E0.02756
G1 X51.463 Y64.164 E0.02756
G1 X51.774 Y64.749 E0.02756
G1 X52.126 Y65.311 E0.02756
G1 X52.515 Y65.848 E0.02756
G1 X52.941 Y66.355 E0.02756
G1 X53.402 Y66.832 E0.02756
G1 X53.895 Y67.276 E0.02756
G1 X54.417 Y67.684 E0.02756
G1 X54.967 Y68.055 E0.02756
G1 X55.541 Y68.386 E0.02756
G1 X56.137 Y68.677 E0.02756
G1 X56.751 Y68.925 E0.02756
G1 X57.382 Y69.13 E0.02756
G1 X58.025 Y69.291 E0.02756
G1 X58.678 Y69.406 E0.02756
G1 X59.337 Y69.475 E0.02756
G1 X60 Y69.498 E0.02756
G1 X60.663 Y69.475 E0.02756
G1 X61.322 Y69.406 E0.02756
G1 X61.975 Y69.291 E0.02756
G1 X62.618 Y69.13 E0.02756
G1 X63.249 Y68.925 E0.02756
G1 X63.863 Y68.677 E0.02756
G1 X64.459 Y68.386 E0.02756
G1 X65.033 Y68.055 E0.02756
G1 X65.583 Y67.684 E0.02756
G1 X66.105 Y67.276 E0.02756
G1 X66.527 Y66.896 E0.02358
G1 X66.332 Y66.591 F18000
G1 F1800
G1 X66.35 Y66.575 E0.00099
G1 X66.793 Y66.116 E0.02652
G1 X67.203 Y65.628 E0.02652
G1 X67.578 Y65.111 E0.02652
G1 X67.916 Y64.57 E0.02652
G1 X68.216 Y64.007 E0.02652
G1 X68.475 Y63.424 E0.02652
G1 X68.693 Y62.825 E0.02652
G1 X68.869 Y62.211 E0.02652
G1 X69.002 Y61.587 E0.02652
G1 X69.091 Y60.955 E0.02652
G1 X69.135 Y60.319 E0.02652
G1 X69.135 Y59.681 E0.02652
G1 X69.091 Y59.045 E0.02652
G1 X69.002 Y58.413 E0.02652
G1 X68.869 Y57.789 E0.02652
G1 X68.693 Y57.175 E0.02652
G1 X68.475 Y56.576 E0.02652
G1 X68.216 Y55.993 E0.02652
G1 X67.916 Y55.43 E0.02652
G1 X67.578 Y54.888 E0.02652
G1 X67.203 Y54.372 E0.02652
G1 X66.793 Y53.884 E0.02652
G1 X66.35 Y53.425 E0.02652
G1 X65.876 Y52.998 E0.02652
G1 X65.373 Y52.605 E0.02652
G1 X64.844 Y52.248 E0.02652
G1 X64.291 Y51.929 E0.02652
G1 X63.718 Y51.649 E0.02652
G1 X63.126 Y51.41 E0.02652
G1 X62.52 Y51.213 E0.02652
G1 X61.9 Y51.059 E0.02652
G1 X61.272 Y50.948 E0.02652
G1 X60.638 Y50.881 E0.02652
G1 X60 Y50.859 E0.02652
G1 X59.681 Y50.87 E0.01326
G1 X59.362 Y50.881 E0.01326
G1 X58.728 Y50.948 E0.02652
G1 X58.1 Y51.059 E0.02652
G1 X57.48 Y51.213 E0.02652
G1 X56.874 Y51.41 E0.02652
G1 X56.282 Y51.649 E0.02652
G1 X55.709 Y51.929 E0.02652
G1 X55.156 Y52.248 E0.02652
G1 X54.627 Y52.605 E0.02652
G1 X54.124 Y52.998 E0.02652
G1 X53.65 Y53.425 E0.02652
G1 X53.207 Y53.884 E0.02652
G1 X52.797 Y54.372 E0.02652
G1 X52.422 Y54.888 E0.02652
G1 X52.084 Y55.43 E0.02652
G1 X51.784 Y55.993 E0.02652
G1 X51.525 Y56.576 E0.02652
G1 X51.307 Y57.175 E0.02652
G1 X51.131 Y57.789 E0.02652
G1 X50.998 Y58.413 E0.02652
G1 X50.909 Y59.045 E0.02652
G1 X50.865 Y59.681 E0.02652
G1 X50.865 Y60.319 E0.02652
G1 X50.909 Y60.955 E0.02652
G1 X50.998 Y61.587 E0.02652
G1 X51.131 Y62.211 E0.02652
G1 X51.307 Y62.825 E0.02652
G1 X51.525 Y63.424 E0.02652
G1 X51.784 Y64.007 E0.02652
G1 X52.084 Y64.57 E0.02652
G1 X52.422 Y65.111 E0.02652
G1 X52.797 Y65.628 E0.02652
G1 X53.207 Y66.116 E0.02652
G1 X53.65 Y66.575 E0.02652
G1 X54.124 Y67.002 E0.02652
G1 X54.627 Y67.395 E0.02652
G1 X55.156 Y67.752 E0.02652
G1 X55.709 Y68.071 E0.02652
G1 X56.282 Y68.351 E0.02652
G1 X56.874 Y68.59 E0.02652
G1 X57.48 Y68.787 E0.02652
G1 X58.1 Y68.941 E0.02652
G1 X58.728 Y69.052 E0.02652
G1 X59.362 Y69.119 E0.02652
G1 X60 Y69.141 E0.02652
G1 X60.638 Y69.119 E0.02652
G1 X61.272 Y69.052 E0.02652
G1 X61.9 Y68.941 E0.02652
G1 X62.52 Y68.787 E0.02652
G1 X63.126 Y68.59 E0.02652
G1 X63.718 Y68.351 E0.02652
G1 X64.291 Y68.071 E0.02652
G1 X64.844 Y67.752 E0.02652
G1 X65.373 Y67.395 E0.02652
G1 X65.876 Y67.002 E0.02652
G1 X66.288 Y66.631 E0.02304
G1 X66.093 Y66.326 F18000
G1 F1800
G1 X66.527 Y65.877 E0.02598
G1 X66.922 Y65.408 E0.02548
G1 X67.282 Y64.912 E0.02549
G1 X67.607 Y64.392 E0.02548
G1 X67.895 Y63.85 E0.02548
G1 X68.144 Y63.29 E0.02548
G1 X68.354 Y62.714 E0.02548
G1 X68.523 Y62.125 E0.02549
G1 X68.65 Y61.525 E0.02548
G1 X68.735 Y60.918 E0.02548
G1 X68.778 Y60.307 E0.02549
G1 X68.778 Y59.693 E0.02548
G1 X68.735 Y59.082 E0.02549
G1 X68.65 Y58.475 E0.02548
G1 X68.523 Y57.875 E0.02548
G1 X68.354 Y57.286 E0.02549
G1 X68.144 Y56.71 E0.02548
G1 X67.895 Y56.15 E0.02548
G1 X67.607 Y55.608 E0.02548
G1 X67.282 Y55.088 E0.02549
G1 X66.922 Y54.592 E0.02548
G1 X66.527 Y54.123 E0.02549
G1 X66.102 Y53.682 E0.02548
G1 X65.646 Y53.271 E0.02548
G1 X65.163 Y52.894 E0.02548
G1 X64.655 Y52.551 E0.02549
G1 X64.124 Y52.245 E0.02548
G1 X63.573 Y51.976 E0.02548
G1 X63.004 Y51.746 E0.02548
G1 X62.421 Y51.557 E0.02548
G1 X61.826 Y51.408 E0.02549
G1 X61.222 Y51.302 E0.02548
G1 X60.613 Y51.238 E0.02549
G1 X60 Y51.216 E0.02548
G1 X59.694 Y51.227 E0.01274
G1 X59.387 Y51.238 E0.01274
G1 X58.778 Y51.302 E0.02549
G1 X58.174 Y51.408 E0.02548
G1 X57.579 Y51.557 E0.02549
G1 X56.996 Y51.746 E0.02548
G1 X56.427 Y51.976 E0.02548
G1 X55.876 Y52.245 E0.02549
G1 X55.345 Y52.551 E0.02548
G1 X54.837 Y52.894 E0.02548
G1 X54.354 Y53.271 E0.02548
G1 X53.898 Y53.682 E0.02549
G1 X53.473 Y54.123 E0.02548
G1 X53.078 Y54.592 E0.02549
G1 X52.718 Y55.088 E0.02548
G1 X52.393 Y55.608 E0.02548
G1 X52.105 Y56.15 E0.02548
G1 X51.856 Y56.71 E0.02549
G1 X51.646 Y57.286 E0.02548
G1 X51.477 Y57.875 E0.02548
G1 X51.35 Y58.475 E0.02548
G1 X51.265 Y59.082 E0.02548
G1 X51.222 Y59.693 E0.02549
G1 X51.222 Y60.307 E0.02548
G1 X51.265 Y60.918 E0.02549
G1 X51.35 Y61.525 E0.02549
G1 X51.477 Y62.125 E0.02548
G1 X51.646 Y62.714 E0.02549
G1 X51.856 Y63.29 E0.02548
G1 X52.105 Y63.85 E0.02549
G1 X52.393 Y64.392 E0.02548
G1 X52.718 Y64.912 E0.02548
G1 X53.078 Y65.408 E0.02549
G1 X53.473 Y65.877 E0.02548
G1 X53.898 Y66.318 E0.02549
G1 X54.354 Y66.729 E0.02548
G1 X54.837 Y67.106 E0.02548
G1 X55.345 Y67.449 E0.02549
G1 X55.876 Y67.755 E0.02548
G1 X56.427 Y68.024 E0.02549
G1 X56.996 Y68.254 E0.02548
G1 X57.579 Y68.443 E0.02548
G1 X58.174 Y68.592 E0.02549
G1 X58.778 Y68.698 E0.02548
G1 X59.387 Y68.762 E0.02549
G1 X60 Y68.784 E0.02548
G1 X60.613 Y68.762 E0.02548
G1 X61.222 Y68.698 E0.02549
G1 X61.826 Y68.592 E0.02548
G1 X62.421 Y68.443 E0.02549
G1 X63.004 Y68.254 E0.02548
G1 X63.573 Y68.024 E0.02548
G1 X64.124 Y67.755 E0.02549
G1 X64.655 Y67.449 E0.02548
G1 X65.163 Y67.106 E0.02548
G1 X65.646 Y66.729 E0.02549
G1 X66.048 Y66.366 E0.0225
G1 X65.853 Y66.061 F18000
;TYPE:External perimeter
G1 F1800
G1 X66.262 Y65.638 E0.02445
G1 X66.64 Y65.188 E0.02445
G1 X66.986 Y64.712 E0.02445
G1 X67.297 Y64.213 E0.02445
G1 X67.573 Y63.694 E0.02445
G1 X67.813 Y63.157 E0.02445
G1 X68.014 Y62.604 E0.02445
G1 X68.176 Y62.038 E0.02445
G1 X68.298 Y61.463 E0.02445
G1 X68.38 Y60.881 E0.02445
G1 X68.421 Y60.294 E0.02445
G1 X68.421 Y59.706 E0.02445
G1 X68.38 Y59.119 E0.02445
G1 X68.298 Y58.537 E0.02445
G1 X68.176 Y57.962 E0.02445
G1 X68.014 Y57.396 E0.02445
G1 X67.813 Y56.843 E0.02445
G1 X67.573 Y56.306 E0.02445
G1 X67.297 Y55.787 E0.02445
G1 X66.986 Y55.288 E0.02445
G1 X66.64 Y54.812 E0.02445
G1 X66.262 Y54.362 E0.02445
G1 X65.853 Y53.939 E0.02445
G1 X65.416 Y53.545 E0.02445
G1 X64.953 Y53.183 E0.02445
G1 X64.465 Y52.854 E0.02445
G1 X63.956 Y52.56 E0.02445
G1 X63.427 Y52.302 E0.02445
G1 X62.882 Y52.082 E0.02445
G1 X62.323 Y51.9 E0.02445
G1 X61.752 Y51.758 E0.02445
G1 X61.173 Y51.656 E0.02445
G1 X60.588 Y51.594 E0.02445
G1 X60 Y51.574 E0.02445
G1 X59.706 Y51.584 E0.01222
G1 X59.412 Y51.594 E0.01222
G1 X58.827 Y51.656 E0.02445
G1 X58.248 Y51.758 E0.02445
G1 X57.677 Y51.9 E0.02445
G1 X57.118 Y52.082 E0.02445
G1 X56.573 Y52.302 E0.02445
G1 X56.044 Y52.56 E0.02445
G1 X55.535 Y52.854 E0.02445
G1 X55.047 Y53.183 E0.02445
G1 X54.584 Y53.545 E0.02445
G1 X54.147 Y53.939 E0.02445
G1 X53.738 Y54.362 E0.02445
G1 X53.36 Y54.812 E0.02445
G1 X53.014 Y55.288 E0.02445
G1 X52.703 Y55.787 E0.02445
G1 X52.427 Y56.306 E0.02445
G1 X52.187 Y56.843 E0.02445
G1 X51.986 Y57.396 E0.02445
G1 X51.824 Y57.962 E0.02445
G1 X51.702 Y58.537 E0.02445
G1 X51.62 Y59.119 E0.02445
G1 X51.579 Y59.706 E0.02445
G1 X51.579 Y60.294 E0.02445
G1 X51.62 Y60.881 E0.02445
G1 X51.702 Y61.463 E0.02445
G1 X51.824 Y62.038 E0.02445
G1 X51.986 Y62.604 E0.02445
G1 X52.187 Y63.157 E0.02445
G1 X52.307 Y63.425 E0.01222
G1 X52.427 Y63.694 E0.01222
G1 X52.703 Y64.213 E0.02445
G1 X53.014 Y64.712 E0.02445
G1 X53.36 Y65.188 E0.02445
G1 X53.738 Y65.638 E0.02445
G1 X54.147 Y66.061 E0.02445
G1 X54.584 Y66.455 E0.02445
G1 X55.047 Y66.817 E0.02445
G1 X55.535 Y67.146 E0.02445
G1 X56.044 Y67.44 E0.02445
G1 X56.573 Y67.698 E0.02445
G1 X57.118 Y67.918 E0.02445
G1 X57.677 Y68.1 E0.02445
G1 X58.248 Y68.242 E0.02445
G1 X58.827 Y68.344 E0.02445
G1 X59.412 Y68.406 E0.02445
G1 X60 Y68.426 E0.02445
G1 X60.588 Y68.406 E0.02445
G1 X61.173 Y68.344 E0.02445
G1 X61.752 Y68.242 E0.02445
G1 X62.323 Y68.1 E0.02445
G1 X62.882 Y67.918 E0.02445
G1 X63.427 Y67.698 E0.02445
G1 X63.956 Y67.44 E0.02445
G1 X64.465 Y67.146 E0.02445
G1 X64.953 Y66.817 E0.02445
G1 X65.416 Y66.455 E0.02445
G1 X65.809 Y66.101 E0.02195
;WIPE_START
M204 S1500
G1 X66.239 Y66.167 F18000
;WIPE_END
G1 E-2 F3000
G1 Z0.6 F18000
; acceleration to travel
G1 X61.841 Y44.764
; decel to extrusion
M204 S1000
G1 X58.909 Y30.495
; end travel
G1 Z0.2
G1 E2 F1800
;TYPE:Internal perimeter
G1 X58.995 Y30.537 E0.00398
G1 X59.591 Y30.686 E0.02555
G1 X60.205 Y30.707 E0.02555
G1 X60.787 Y30.604 E0.02458
G1 X61.216 Y30.448 E0.01895
G1 X61.728 Y30.153 E0.02458
G1 X62.167 Y29.757 E0.02458
G1 X62.448 Y29.398 E0.01895
G1 X62.726 Y28.876 E0.02458
G1 X62.895 Y28.285 E0.02555
G1 X62.936 Y27.695 E0.02458
G1 X62.889 Y27.242 E0.01895
G1 X62.726 Y26.673 E0.02458
G1 X62.437 Y26.131 E0.02555
G1 X62.042 Y25.66 E0.02555
G1 X61.558 Y25.281 E0.02555
G1 X61.005 Y25.012 E0.02555
G1 X60.409 Y24.863 E0.02555
G1 X59.795 Y24.842 E0.02555
G1 X59.19 Y24.949 E0.02555
G1 X58.641 Y25.17 E0.02458
G1 X58.255 Y25.412 E0.01896
G1 X57.833 Y25.792 E0.02361
G1 X57.552 Y26.151 E0.01895
G1 X57.274 Y26.673 E0.02458
G1 X57.105 Y27.264 E0.02555
G1 X57.062 Y27.877 E0.02555
G1 X57.148 Y28.486 E0.02555
G1 X57.35 Y29.041 E0.02458
G1 X57.578 Y29.436 E0.01895
G1 X57.958 Y29.889 E0.02458
G1 X58.442 Y30.268 E0.02555
G1 X58.855 Y30.469 E0.01908
G1 X59.06 Y30.172 F18000
G1 F1800
G1 X59.117 Y30.2 E0.00265
G1 X59.641 Y30.33 E0.02243
G1 X60.18 Y30.349 E0.02243
G1 X60.695 Y30.258 E0.02172
G1 X61.064 Y30.124 E0.01636
G1 X61.517 Y29.862 E0.02172
G1 X61.905 Y29.513 E0.02172
G1 X62.148 Y29.203 E0.01636
G1 X62.393 Y28.741 E0.02172
G1 X62.542 Y28.223 E0.02243
G1 X62.578 Y27.701 E0.02172
G1 X62.537 Y27.31 E0.01636
G1 X62.393 Y26.808 E0.02172
G1 X62.14 Y26.331 E0.02243
G1 X61.793 Y25.918 E0.02243
G1 X61.368 Y25.586 E0.02243
G1 X60.883 Y25.349 E0.02243
G1 X60.359 Y25.219 E0.02243
G1 X59.82 Y25.2 E0.02243
G1 X59.289 Y25.294 E0.02243
G1 X58.804 Y25.489 E0.02172
G1 X58.47 Y25.698 E0.01636
