; generated by SuperSlicer 2.4 on 2024-02-25 at 00:08:15 UTC


;
;

;
;
; TODO: check the size of the extruder and the y-bar clearance. Optimize & test supports.

; external perimeters extrusion width = 0.40mm
; perimeters extrusion width = 0.40mm
; infill extrusion width = 0.40mm
; solid infill extrusion width = 0.40mm
; top infill extrusion width = 0.40mm
; first layer extrusion width = 0.48mm

; object:{"name":"20T_CF_Slider_Support","id":"20T_CF_Slider_Support.STL id:0 copy 0","object_center":[60.000000,60.000000,0.000000],"boundingbox_center":[60.000000,60.000000,3.500000],"boundingbox_size":[88.000000,88.000000,7.000000]}
; plater:{"center":[60.000000,60.000000,0.000000],"boundingbox_center":[60.000000,60.000000,3.500000],"boundingbox_size":[88.000000,88.000000,7.000000]}

;TYPE:Custom
; M190 S0
;M109 S0 ; uncomment to remove set&wait temp gcode added automatically after this start gcode
print_start EXTRUDER=245 BED=90 CHAMBER=50

;G92 E0
;G1 E10 F1500 ; prime the nozzle
M107
G21 ; set units to millimeters
G90 ; use absolute coordinates
M83 ; use relative distances for extrusion
SET_PRESSURE_ADVANCE ADVANCE=0.04
;_TOOLCHANGE 0
M104 S245 ; set temperature
M109 S245 ; set temperature and wait for it to be reached
M190 S90 ; set bed temperature and wait for it to be reached
M107
;LAYER_CHANGE
;Z:0.25
;HEIGHT:0.25
;BEFORE_LAYER_CHANGE
;0.25


G1 Z0.25 F18000
;AFTER_LAYER_CHANGE
;0.25
TIMELAPSE_TAKE_FRAME
G92 E0
G1 E-2 F3000
G1 Z0.65 F18000
M204 S1000
G1 X17.268 Y17.453
G1 Z0.25
G1 E2 F1800
;TYPE:Skirt
;WIDTH:0.48
G1 X18.203 Y16.528 E0.05828
G1 X20.056 Y15.255 E0.09962
G1 X21.926 Y14.395 E0.09122
G1 X23.912 Y13.852 E0.09122
G1 X26.053 Y13.64 E0.09537
G1 X93.909 Y13.638 E3.00695
G1 X95.845 Y13.808 E0.08613
G1 X97.776 Y14.291 E0.08817
G1 X99.484 Y15.008 E0.08212
G1 X101.069 Y15.969 E0.08212
G1 X102.582 Y17.235 E0.08741
G1 X103.914 Y18.768 E0.09
G1 X104.991 Y20.514 E0.09093
G1 X105.771 Y22.413 E0.09096
G1 X106.228 Y24.386 E0.08974
G1 X106.365 Y26.191 E0.08022
G1 X106.365 Y93.826 E2.99719
G1 X106.159 Y96.033 E0.0982
G1 X105.577 Y98.151 E0.09736
G1 X104.635 Y100.137 E0.09738
G1 X103.364 Y101.926 E0.09728
G1 X101.832 Y103.443 E0.09553
G1 X100.065 Y104.677 E0.09551
G1 X98.113 Y105.591 E0.09549
G1 X96.07 Y106.152 E0.09391
G1 X93.817 Y106.365 E0.10027
G1 X89.683 Y106.365 E0.18321
G1 X89 Y106.304 E0.03036
G1 X88.328 Y106.143 E0.03063
G1 X87.453 Y105.76 E0.04235
G1 X86.797 Y105.309 E0.03524
G1 X86.235 Y104.761 E0.03479
G1 X85.741 Y104.076 E0.03744
G1 X85.389 Y103.343 E0.036
G1 X85.179 Y102.597 E0.03435
G1 X84.78 Y98.74 E0.17185
G1 X84.076 Y95.658 E0.14007
G1 X82.992 Y92.694 E0.13985
G1 X81.545 Y89.889 E0.13986
G1 X79.761 Y87.292 E0.13966
G1 X75.058 Y82.049 E0.31213
G1 X72.73 Y78.808 E0.17683
G1 X70.776 Y75.306 E0.17767
G1 X69.552 Y72.387 E0.14029
G1 X67.823 Y73.588 E0.0933
G1 X65.364 Y74.734 E0.12024
G1 X62.707 Y75.444 E0.12187
G1 X60 Y75.68 E0.12039
G1 X57.294 Y75.444 E0.12037
G1 X54.637 Y74.734 E0.1219
G1 X52.177 Y73.588 E0.12024
G1 X50.448 Y72.387 E0.0933
G1 X49.224 Y75.306 E0.14029
G1 X47.27 Y78.808 E0.17767
G1 X44.942 Y82.049 E0.17683
G1 X40.239 Y87.292 E0.31213
G1 X38.455 Y89.889 E0.13966
G1 X37.008 Y92.694 E0.13986
G1 X35.924 Y95.658 E0.13985
G1 X35.22 Y98.741 E0.14013
G1 X34.787 Y102.767 E0.17943
G1 X34.583 Y103.414 E0.03005
G1 X34.303 Y104.003 E0.02894
G1 X33.667 Y104.874 E0.04779
G1 X33.07 Y105.415 E0.03567
G1 X32.399 Y105.84 E0.03519
G1 X31.662 Y106.146 E0.03536
G1 X30.892 Y106.321 E0.03499
G1 X30.297 Y106.365 E0.02648
G1 X26.186 Y106.365 E0.18216
G1 X24.179 Y106.196 E0.08923
G1 X21.796 Y105.556 E0.10935
G1 X19.862 Y104.634 E0.09497
G1 X18.099 Y103.385 E0.09572
G1 X16.495 Y101.757 E0.10129
G1 X15.323 Y100.064 E0.09124
G1 X14.443 Y98.203 E0.09122
G1 X13.848 Y96.074 E0.09798
G1 X13.635 Y93.817 E0.10044
G1 X13.635 Y26.174 E2.99755
G1 X13.834 Y24.003 E0.0966
G1 X14.411 Y21.883 E0.09737
G1 X15.347 Y19.895 E0.09734
G1 X16.613 Y18.1 E0.09735
G1 X17.225 Y17.495 E0.03815
G1 X17.523 Y17.797 F18000
G1 F1800
G1 X18.489 Y16.845 E0.0601
G1 X20.251 Y15.635 E0.09472
G1 X22.056 Y14.802 E0.08808
G1 X24.007 Y14.268 E0.08964
G1 X26.084 Y14.066 E0.09251
G1 X93.882 Y14.064 E3.00436
G1 X95.759 Y14.226 E0.08349
G1 X97.626 Y14.691 E0.08528
G1 X99.277 Y15.381 E0.07929
G1 X100.834 Y16.325 E0.08069
G1 X102.295 Y17.551 E0.0845
G1 X103.58 Y19.034 E0.087
G1 X104.604 Y20.693 E0.08636
G1 X105.36 Y22.527 E0.0879
G1 X105.804 Y24.435 E0.08681
G1 X105.939 Y26.199 E0.07841
G1 X105.939 Y93.816 E2.99639
G1 X105.743 Y95.938 E0.09443
G1 X105.183 Y97.986 E0.09406
G1 X104.276 Y99.905 E0.09407
G1 X103.027 Y101.664 E0.09562
G1 X101.546 Y103.127 E0.09225
G1 X99.836 Y104.316 E0.09228
G1 X97.949 Y105.197 E0.09227
G1 X95.975 Y105.736 E0.09069
G1 X93.807 Y105.939 E0.09649
G1 X89.71 Y105.939 E0.18156
G1 X89.084 Y105.885 E0.02785
G1 X88.445 Y105.733 E0.02908
G1 X87.676 Y105.396 E0.03721
G1 X87.08 Y104.99 E0.03195
G1 X86.569 Y104.496 E0.03153
G1 X86.116 Y103.873 E0.03411
G1 X85.794 Y103.208 E0.03273
G1 X85.601 Y102.535 E0.03105
G1 X85.201 Y98.67 E0.17217
G1 X84.485 Y95.537 E0.14241
G1 X83.383 Y92.523 E0.14223
G1 X81.912 Y89.67 E0.14224
G1 X80.096 Y87.028 E0.14207
G1 X75.383 Y81.773 E0.31283
G1 X73.083 Y78.569 E0.17475
G1 X71.155 Y75.109 E0.17552
G1 X69.741 Y71.735 E0.1621
G1 X67.626 Y73.209 E0.11426
G1 X65.235 Y74.327 E0.11695
G1 X62.651 Y75.021 E0.11857
G1 X59.982 Y75.254 E0.11874
G1 X57.35 Y75.021 E0.11707
G1 X54.765 Y74.327 E0.11861
G1 X52.374 Y73.209 E0.11696
G1 X50.259 Y71.735 E0.11426
G1 X48.845 Y75.109 E0.1621
G1 X46.917 Y78.569 E0.17552
G1 X44.617 Y81.773 E0.17475
G1 X39.904 Y87.028 E0.31284
G1 X38.088 Y89.67 E0.14207
G1 X36.617 Y92.523 E0.14224
G1 X35.515 Y95.537 E0.14223
G1 X34.799 Y98.671 E0.14244
G1 X34.374 Y102.66 E0.17779
G1 X34.192 Y103.244 E0.0271
G1 X33.926 Y103.802 E0.02738
G1 X33.363 Y104.574 E0.04232
G1 X32.825 Y105.065 E0.03231
G1 X32.217 Y105.454 E0.03196
G1 X31.549 Y105.735 E0.03213
G1 X30.844 Y105.897 E0.03205
G1 X30.288 Y105.939 E0.02469
G1 X26.195 Y105.939 E0.1814
G1 X24.234 Y105.773 E0.0872
G1 X21.962 Y105.163 E0.10425
G1 X20.062 Y104.257 E0.09329
G1 X18.361 Y103.049 E0.09245
G1 X16.835 Y101.499 E0.09637
G1 X15.684 Y99.836 E0.08964
G1 X14.837 Y98.038 E0.08808
G1 X14.264 Y95.978 E0.09475
G1 X14.061 Y93.807 E0.09661
G1 X14.061 Y26.183 E2.99667
G1 X14.257 Y24.061 E0.09447
G1 X14.817 Y22.013 E0.09407
G1 X15.724 Y20.094 E0.09405
G1 X16.95 Y18.362 E0.09405
G1 X17.481 Y17.839 E0.033
G1 X17.778 Y18.14 F18000
G1 F1800
G1 X18.746 Y17.185 E0.06027
G1 X20.446 Y16.014 E0.09148
G1 X22.218 Y15.196 E0.08649
G1 X24.101 Y14.684 E0.08647
G1 X26.115 Y14.491 E0.08965
G1 X93.855 Y14.49 E3.00181
G1 X95.673 Y14.644 E0.08085
G1 X97.477 Y15.09 E0.08236
G1 X99.098 Y15.768 E0.07786
G1 X100.598 Y16.681 E0.07784
G1 X102.007 Y17.866 E0.08158
G1 X103.246 Y19.3 E0.08399
G1 X104.232 Y20.902 E0.08333
G1 X104.949 Y22.641 E0.08335
G1 X105.38 Y24.484 E0.08388
G1 X105.513 Y26.207 E0.0766
G1 X105.513 Y93.807 E2.9956
G1 X105.327 Y95.844 E0.09067
G1 X104.79 Y97.821 E0.09077
G1 X103.917 Y99.674 E0.09075
G1 X102.714 Y101.375 E0.09232
G1 X101.287 Y102.788 E0.08901
G1 X99.639 Y103.938 E0.08905
G1 X97.819 Y104.79 E0.08904
G1 X95.881 Y105.32 E0.08906
G1 X93.797 Y105.513 E0.09271
G1 X89.719 Y105.513 E0.18072
G1 X89.137 Y105.462 E0.02591
G1 X88.564 Y105.323 E0.02611
G1 X87.899 Y105.032 E0.03219
G1 X87.362 Y104.67 E0.02869
G1 X86.901 Y104.229 E0.02826
G1 X86.491 Y103.669 E0.03078
G1 X86.198 Y103.071 E0.02947
G1 X86.023 Y102.472 E0.02768
G1 X85.623 Y98.601 E0.17246
G1 X84.895 Y95.416 E0.14475
G1 X83.775 Y92.351 E0.14461
G1 X82.279 Y89.451 E0.14461
G1 X80.432 Y86.764 E0.14448
G1 X75.708 Y81.497 E0.31354
G1 X73.436 Y78.33 E0.17267
G1 X71.533 Y74.912 E0.17338
G1 X70.088 Y71.459 E0.16591
G1 X69.938 Y70.954 E0.02331
G1 X69.501 Y71.383 E0.02714
G1 X67.428 Y72.831 E0.11203
G1 X65.106 Y73.92 E0.11366
G1 X62.595 Y74.598 E0.11526
G1 X60 Y74.827 E0.11541
G1 X57.406 Y74.598 E0.1154
G1 X54.894 Y73.92 E0.1153
G1 X52.572 Y72.831 E0.11367
G1 X50.499 Y71.383 E0.11203
G1 X50.062 Y70.954 E0.02714
G1 X49.912 Y71.459 E0.02331
G1 X48.467 Y74.912 E0.16591
G1 X46.564 Y78.33 E0.17338
G1 X44.292 Y81.497 E0.17267
G1 X39.568 Y86.764 E0.31354
G1 X37.721 Y89.451 E0.14448
G1 X36.225 Y92.351 E0.14462
G1 X35.105 Y95.416 E0.14461
G1 X34.377 Y98.601 E0.14476
G1 X33.96 Y102.554 E0.17615
G1 X33.789 Y103.103 E0.02548
G1 X33.551 Y103.6 E0.02445
G1 X33.059 Y104.274 E0.03696
G1 X32.578 Y104.717 E0.02896
G1 X32.034 Y105.068 E0.02873
G1 X31.434 Y105.324 E0.02888
G1 X30.795 Y105.473 E0.02907
G1 X30.28 Y105.513 E0.02288
G1 X26.204 Y105.513 E0.18064
G1 X24.289 Y105.349 E0.08516
G1 X22.127 Y104.77 E0.09918
G1 X20.294 Y103.899 E0.08996
G1 X18.623 Y102.712 E0.0908
G1 X17.175 Y101.241 E0.09148
G1 X16.062 Y99.638 E0.08648
G1 X15.23 Y97.872 E0.08649
G1 X14.68 Y95.882 E0.0915
G1 X14.487 Y93.797 E0.09279
G1 X14.487 Y26.193 E2.9958
G1 X14.68 Y24.119 E0.09233
G1 X15.223 Y22.144 E0.09076
G1 X16.101 Y20.294 E0.09075
G1 X17.287 Y18.624 E0.09075
G1 X17.735 Y18.182 E0.02787
G1 X18.034 Y18.485 F18000
G1 F1800
G1 X19.004 Y17.525 E0.06045
G1 X20.642 Y16.393 E0.08824
G1 X22.347 Y15.603 E0.0833
G1 X24.195 Y15.1 E0.08486
G1 X26.145 Y14.916 E0.08678
G1 X93.828 Y14.915 E2.9993
G1 X95.587 Y15.062 E0.07822
G1 X97.328 Y15.49 E0.07944
G1 X98.89 Y16.141 E0.07499
G1 X100.363 Y17.037 E0.0764
G1 X101.72 Y18.181 E0.07865
G1 X102.893 Y19.538 E0.0795
G1 X103.844 Y21.081 E0.08031
G1 X104.538 Y22.755 E0.08032
G1 X104.957 Y24.533 E0.08093
G1 X105.086 Y26.215 E0.07478
G1 X105.086 Y93.797 E2.9948
G1 X104.904 Y95.787 E0.08855
G1 X104.383 Y97.691 E0.08746
G1 X103.54 Y99.475 E0.08746
G1 X102.4 Y101.085 E0.08741
G1 X101.028 Y102.449 E0.08575
G1 X99.41 Y103.578 E0.08742
G1 X97.656 Y104.396 E0.08578
G1 X95.787 Y104.904 E0.08581
G1 X93.788 Y105.086 E0.08896
G1 X89.728 Y105.086 E0.17989
G1 X89.221 Y105.044 E0.02253
G1 X88.683 Y104.913 E0.02456
G1 X88.12 Y104.667 E0.02723
G1 X87.642 Y104.348 E0.02546
G1 X87.234 Y103.961 E0.02492
G1 X86.846 Y103.432 E0.02908
G1 X86.602 Y102.933 E0.02462
G1 X86.445 Y102.408 E0.02426
G1 X86.044 Y98.531 E0.17273
G1 X85.305 Y95.295 E0.14709
G1 X84.166 Y92.18 E0.14699
G1 X82.645 Y89.232 E0.14699
G1 X80.768 Y86.5 E0.14689
G1 X76.033 Y81.22 E0.31425
G1 X73.79 Y78.092 E0.17059
G1 X71.922 Y74.737 E0.17018
G1 X70.486 Y71.305 E0.16486
G1 X70.145 Y70.149 E0.05341
G1 X69.242 Y71.044 E0.05638
G1 X67.199 Y72.471 E0.11041
G1 X64.942 Y73.526 E0.1104
G1 X62.538 Y74.175 E0.11034
G1 X60.019 Y74.401 E0.11209
G1 X57.499 Y74.181 E0.11209
G1 X55.058 Y73.526 E0.112
G1 X52.801 Y72.471 E0.1104
G1 X50.758 Y71.044 E0.11041
G1 X49.855 Y70.149 E0.05638
G1 X49.514 Y71.305 E0.05341
G1 X48.078 Y74.737 E0.16486
G1 X46.21 Y78.092 E0.17018
G1 X43.967 Y81.22 E0.17059
G1 X39.232 Y86.5 E0.31425
G1 X37.355 Y89.232 E0.14689
G1 X35.834 Y92.18 E0.14699
G1 X34.695 Y95.295 E0.14699
G1 X33.956 Y98.531 E0.14709
G1 X33.546 Y102.449 E0.17456
G1 X33.398 Y102.933 E0.02244
G1 X33.175 Y103.398 E0.02288
G1 X32.754 Y103.976 E0.03167
G1 X32.33 Y104.37 E0.02564
G1 X31.848 Y104.684 E0.0255
G1 X31.317 Y104.913 E0.02562
G1 X30.745 Y105.049 E0.02606
G1 X30.272 Y105.086 E0.02104
G1 X26.213 Y105.086 E0.17987
G1 X24.344 Y104.926 E0.08311
G1 X22.292 Y104.376 E0.09414
G1 X20.525 Y103.54 E0.08665
G1 X18.913 Y102.399 E0.08749
G1 X17.515 Y100.983 E0.08822
G1 X16.422 Y99.41 E0.08487
G1 X15.624 Y97.708 E0.0833
G1 X15.096 Y95.788 E0.08825
G1 X14.914 Y93.788 E0.089
G1 X14.914 Y26.203 E2.99493
G1 X15.096 Y24.213 E0.08855
G1 X15.617 Y22.309 E0.08746
G1 X16.46 Y20.525 E0.08746
G1 X17.6 Y18.914 E0.08746
G1 X17.992 Y18.527 E0.02439
G1 X18.291 Y18.829 F18000
G1 F1800
G1 X19.262 Y17.865 E0.06062
G1 X20.838 Y16.772 E0.08498
G1 X22.51 Y15.997 E0.08168
G1 X24.289 Y15.517 E0.08165
G1 X26.175 Y15.342 E0.08392
G1 X93.802 Y15.341 E2.99684
G1 X95.502 Y15.48 E0.0756
G1 X97.179 Y15.89 E0.0765
G1 X98.711 Y16.528 E0.07353
G1 X100.127 Y17.392 E0.0735
G1 X101.431 Y18.496 E0.07573
G1 X102.558 Y19.804 E0.07652
G1 X103.472 Y21.289 E0.07729
G1 X104.137 Y22.902 E0.07729
G1 X104.533 Y24.582 E0.07649
G1 X104.66 Y26.224 E0.07296
G1 X104.66 Y93.787 E2.99401
G1 X104.487 Y95.693 E0.08479
G1 X103.99 Y97.526 E0.08417
G1 X103.181 Y99.245 E0.08416
G1 X102.086 Y100.796 E0.08414
G1 X100.768 Y102.11 E0.08249
G1 X99.212 Y103.2 E0.08416
G1 X97.526 Y103.99 E0.08252
G1 X95.693 Y104.487 E0.08417
G1 X93.778 Y104.66 E0.08521
G1 X89.737 Y104.66 E0.17909
G1 X89.306 Y104.626 E0.01916
G1 X88.801 Y104.503 E0.02299
G1 X88.339 Y104.301 E0.02235
G1 X87.92 Y104.024 E0.02227
G1 X87.566 Y103.693 E0.02149
G1 X87.201 Y103.195 E0.02735
G1 X87.005 Y102.792 E0.01987
G1 X86.867 Y102.344 E0.02078
G1 X86.466 Y98.461 E0.17296
G1 X85.714 Y95.174 E0.14943
G1 X84.557 Y92.008 E0.14937
G1 X83.012 Y89.012 E0.14937
G1 X81.104 Y86.235 E0.1493
G1 X76.358 Y80.945 E0.31495
G1 X74.144 Y77.853 E0.1685
G1 X72.31 Y74.561 E0.16699
G1 X70.884 Y71.151 E0.1638
G1 X70.353 Y69.34 E0.08362
G1 X68.982 Y70.705 E0.08571
G1 X66.97 Y72.111 E0.10877
G1 X64.779 Y73.132 E0.10712
G1 X62.446 Y73.758 E0.10706
G1 X60 Y73.974 E0.1088
G1 X57.555 Y73.758 E0.10877
G1 X55.221 Y73.132 E0.10708
G1 X53.03 Y72.111 E0.10712
G1 X51.018 Y70.705 E0.10877
G1 X49.647 Y69.34 E0.08571
G1 X49.116 Y71.151 E0.08362
G1 X47.69 Y74.561 E0.1638
G1 X45.856 Y77.853 E0.16699
G1 X43.642 Y80.945 E0.1685
G1 X38.896 Y86.235 E0.31495
G1 X36.988 Y89.012 E0.1493
G1 X35.443 Y92.008 E0.14937
G1 X34.286 Y95.174 E0.14937
G1 X33.534 Y98.461 E0.14943
G1 X33.133 Y102.344 E0.17296
G1 X32.995 Y102.792 E0.02078
G1 X32.799 Y103.195 E0.01985
G1 X32.448 Y103.679 E0.02652
G1 X32.08 Y104.024 E0.02234
G1 X31.661 Y104.301 E0.02228
G1 X31.199 Y104.503 E0.02235
G1 X30.694 Y104.626 E0.02299
G1 X30.263 Y104.66 E0.01916
G1 X26.222 Y104.66 E0.17908
G1 X24.4 Y104.503 E0.08106
G1 X22.457 Y103.982 E0.08913
G1 X20.755 Y103.181 E0.08335
G1 X19.203 Y102.086 E0.08418
G1 X17.854 Y100.724 E0.08495
G1 X16.8 Y99.212 E0.08165
G1 X16.018 Y97.543 E0.08168
G1 X15.513 Y95.693 E0.08498
G1 X15.34 Y93.778 E0.08522
G1 X15.34 Y26.213 E2.99408
G1 X15.513 Y24.307 E0.0848
G1 X16.01 Y22.474 E0.08417
G1 X16.819 Y20.755 E0.08416
G1 X17.914 Y19.203 E0.08417
G1 X18.249 Y18.871 E0.0209
G1 X18.549 Y19.173 F18000
G1 F1800
G1 X19.521 Y18.204 E0.06079
G1 X21.034 Y17.151 E0.08169
G1 X22.673 Y16.392 E0.08005
G1 X24.382 Y15.933 E0.07841
G1 X26.204 Y15.767 E0.08106
G1 X93.776 Y15.766 E2.99442
G1 X95.418 Y15.898 E0.07298
G1 X97.031 Y16.29 E0.07354
G1 X98.532 Y16.915 E0.07206
G1 X99.89 Y17.747 E0.07058
G1 X101.143 Y18.81 E0.0728
G1 X102.224 Y20.069 E0.07354
G1 X103.085 Y21.468 E0.0728
G1 X103.726 Y23.017 E0.07428
G1 X104.109 Y24.632 E0.07354
G1 X104.234 Y26.232 E0.07113
G1 X104.233 Y93.778 E2.99323
G1 X104.071 Y95.6 E0.08107
G1 X103.596 Y97.362 E0.08087
G1 X102.821 Y99.015 E0.08087
G1 X101.772 Y100.508 E0.08087
G1 X100.508 Y101.772 E0.07923
G1 X99.015 Y102.821 E0.08087
G1 X97.362 Y103.596 E0.08087
G1 X95.6 Y104.071 E0.08087
G1 X93.769 Y104.234 E0.08148
G1 X89.745 Y104.234 E0.17829
G1 X89.357 Y104.202 E0.01724
G1 X88.923 Y104.094 E0.01986
G1 X88.53 Y103.919 E0.01906
G1 X88.172 Y103.68 E0.01906
G1 X87.873 Y103.396 E0.01826
G1 X87.576 Y102.991 E0.02226
G1 X87.395 Y102.621 E0.01826
G1 X87.281 Y102.24 E0.0176
G1 X86.887 Y98.392 E0.17145
G1 X86.124 Y95.053 E0.15178
G1 X84.948 Y91.836 E0.15175
G1 X83.378 Y88.793 E0.15175
G1 X81.44 Y85.971 E0.15171
G1 X76.683 Y80.669 E0.31566
G1 X74.51 Y77.635 E0.16535
G1 X72.699 Y74.385 E0.16487
G1 X71.281 Y70.998 E0.16274
G1 X70.547 Y68.487 E0.11592
G1 X70.352 Y68.738 E0.01409
G1 X68.723 Y70.366 E0.10209
G1 X66.741 Y71.751 E0.10711
G1 X64.616 Y72.737 E0.10383
G1 X62.389 Y73.335 E0.10218
G1 X60.019 Y73.548 E0.10547
G1 X57.611 Y73.335 E0.10711
G1 X55.384 Y72.737 E0.10218
G1 X53.259 Y71.751 E0.10383
G1 X51.277 Y70.366 E0.10711
G1 X49.648 Y68.738 E0.10209
G1 X49.453 Y68.487 E0.01409
G1 X48.719 Y70.998 E0.11592
G1 X47.301 Y74.385 E0.16274
G1 X45.49 Y77.635 E0.16487
G1 X43.317 Y80.669 E0.16535
G1 X38.56 Y85.971 E0.31566
G1 X36.622 Y88.793 E0.15171
G1 X35.052 Y91.836 E0.15175
G1 X33.876 Y95.053 E0.15175
G1 X33.113 Y98.392 E0.15178
G1 X32.719 Y102.24 E0.17145
G1 X32.605 Y102.621 E0.0176
G1 X32.424 Y102.991 E0.01826
G1 X32.14 Y103.383 E0.02147
G1 X31.828 Y103.68 E0.01906
