; generated by SuperSlicer 2.5.59 on 2023-12-27 at 15:43:55 UTC


;
;

;
;
; TODO: check the size of the extruder and the y-bar clearance. Optimize & test supports.

; external perimeters extrusion width = 0.40mm
; perimeters extrusion width = 0.40mm
; infill extrusion width = 0.40mm
; solid infill extrusion width = 0.40mm
; top infill extrusion width = 0.40mm
; first layer extrusion width = 0.40mm

; object:{"name":"EncoderPlate","id":"EncoderPlate.STL id:0 copy 0","object_center":[60.000000,60.000000,0.000000],"boundingbox_center":[60.000000,60.000000,2.000000],"boundingbox_size":[78.784622,70.621639,4.000000]}
EXCLUDE_OBJECT_DEFINE NAME=EncoderPlate_STL_id_0_copy_0 CENTER=60.000000,60.000000 POLYGON=[[20.607688,48.385032],[21.127536,45.900604],[21.803910,43.454144],[22.634086,41.055512],[23.614720,38.714360],[24.741868,36.440116],[26.010982,34.241940],[27.416962,32.128686],[28.954144,30.108852],[30.616332,28.190586],[32.396840,26.381596],[34.288496,24.689182],[85.711504,24.689182],[87.603160,26.381596],[89.383664,28.190586],[91.045864,30.108852],[92.583040,32.128686],[93.989016,34.241940],[95.258136,36.440116],[96.385280,38.714360],[97.365912,41.055512],[98.196088,43.454144],[98.872456,45.900604],[99.392312,48.385032],[73.680800,92.918672],[71.269304,93.710680],[68.812424,94.348152],[66.320052,94.828512],[63.802244,95.149840],[61.269120,95.310824],[58.730884,95.310824],[56.197756,95.149840],[53.679944,94.828512],[51.187576,94.348152],[48.730696,93.710680],[46.319196,92.918672],[20.607688,48.385032]]
; plater:{"center":[60.000000,60.000000,0.000000],"boundingbox_center":[60.000000,60.000000,2.000000],"boundingbox_size":[78.784622,70.621639,4.000000]}

;TYPE:Custom
; M190 S0
; M109 S0 ; uncomment to remove set&wait temp gcode added automatically after this start gcode
print_start EXTRUDER=245 BED=90 CHAMBER=50
M107
G21 ; set units to millimeters
G90 ; use absolute coordinates
M83 ; use relative distances for extrusion
SET_PRESSURE_ADVANCE ADVANCE=0.02
;_TOOLCHANGE 0
M104 S245 ; set temperature
M109 S245 ; set temperature and wait for it to be reached
M190 S90 ; set bed temperature and wait for it to be reached
M107
;LAYER_CHANGE
;Z:0.2
;HEIGHT:0.2
;BEFORE_LAYER_CHANGE
;0.2


G1 Z0.2 F18000
;AFTER_LAYER_CHANGE
;0.2
G92 E0
G1 E-2 F3000
G1 Z0.6 F18000
M204 S1000
G1 X27.541 Y25.485
G1 Z0.2
G1 E2 F1800
;TYPE:Skirt
;WIDTH:0.4
G1 X25.715 Y27.604 E0.08304
G1 X24.028 Y29.834 E0.08304
G1 X22.615 Y31.957 E0.07571
G1 X21.21 Y34.375 E0.08304
G1 X19.961 Y36.877 E0.08304
G1 X18.874 Y39.454 E0.08304
G1 X17.952 Y42.094 E0.08304
G1 X17.199 Y44.788 E0.08304
G1 X16.63 Y47.469 E0.08139
G1 X16.557 Y48.536 E0.03175
G1 X17.069 Y50.213 E0.05206
G1 X42.939 Y95.02 E1.53622
G1 X43.595 Y95.864 E0.03175
G1 X45.095 Y96.772 E0.05206
G1 X47.702 Y97.62 E0.08139
G1 X50.17 Y98.261 E0.07571
G1 X53.158 Y98.837 E0.09037
G1 X55.934 Y99.183 E0.08304
G1 X58.478 Y99.345 E0.07571
G1 X61.275 Y99.352 E0.08304
G1 X64.312 Y99.159 E0.09037
G1 X67.085 Y98.798 E0.08304
G1 X69.589 Y98.315 E0.07571
G1 X72.535 Y97.551 E0.09037
G1 X74.905 Y96.772 E0.07406
G1 X75.865 Y96.302 E0.03175
G1 X77.061 Y95.02 E0.05206
G1 X102.931 Y50.213 E1.53622
G1 X103.334 Y49.222 E0.03175
G1 X103.37 Y47.469 E0.05206
G1 X102.801 Y44.788 E0.08139
G1 X102.048 Y42.094 E0.08304
G1 X101.214 Y39.684 E0.07571
G1 X100.141 Y37.102 E0.08304
G1 X98.906 Y34.593 E0.08304
G1 X97.515 Y32.167 E0.08304
G1 X95.972 Y29.834 E0.08304
G1 X94.129 Y27.412 E0.09037
G1 X92.459 Y25.485 E0.07571
G1 X90.503 Y23.486 E0.08304
G1 X88.465 Y21.653 E0.08139
G1 X87.578 Y21.056 E0.03175
G1 X85.87 Y20.661 E0.05206
G1 X34.13 Y20.661 E1.53622
G1 X33.071 Y20.808 E0.03175
G1 X31.535 Y21.653 E0.05206
G1 X29.497 Y23.486 E0.08139
G1 X27.583 Y25.442 E0.08126
G1 X27.837 Y25.692 F18000
G1 F1800
G1 X27.811 Y25.719 E0.00114
G1 X25.999 Y27.82 E0.08236
G1 X24.325 Y30.032 E0.08236
G1 X22.913 Y32.155 E0.07571
G1 X21.52 Y34.553 E0.08236
G1 X20.281 Y37.036 E0.08237
G1 X19.203 Y39.592 E0.08236
G1 X18.289 Y42.211 E0.08236
G1 X17.543 Y44.883 E0.08236
G1 X16.979 Y47.542 E0.08072
G1 X16.908 Y48.432 E0.02649
G1 X17.378 Y50.034 E0.04958
G1 X43.248 Y94.842 E1.53622
G1 X43.788 Y95.552 E0.02649
G1 X45.206 Y96.433 E0.04958
G1 X47.791 Y97.275 E0.08072
G1 X50.26 Y97.915 E0.07571
G1 X53.204 Y98.482 E0.08902
G1 X55.956 Y98.827 E0.08236
G1 X58.501 Y98.988 E0.07571
G1 X61.275 Y98.995 E0.08236
G1 X64.267 Y98.805 E0.08902
G1 X67.018 Y98.447 E0.08236
G1 X69.522 Y97.964 E0.07571
G1 X72.424 Y97.211 E0.08902
G1 X74.794 Y96.433 E0.07406
G1 X75.599 Y96.05 E0.02649
G1 X76.752 Y94.842 E0.04958
G1 X102.622 Y50.034 E1.53622
G1 X102.967 Y49.211 E0.02649
G1 X103.021 Y47.542 E0.04958
G1 X102.457 Y44.883 E0.08072
G1 X101.778 Y42.425 E0.07571
G1 X100.877 Y39.801 E0.08237
G1 X99.812 Y37.24 E0.08236
G1 X98.586 Y34.751 E0.08237
G1 X97.206 Y32.345 E0.08236
G1 X95.675 Y30.032 E0.08236
G1 X93.859 Y27.646 E0.08902
G1 X92.037 Y25.554 E0.08236
G1 X90.249 Y23.737 E0.07571
G1 X88.227 Y21.919 E0.08072
G1 X87.492 Y21.413 E0.02649
G1 X85.87 Y21.018 E0.04958
G1 X34.13 Y21.018 E1.53622
G1 X33.245 Y21.131 E0.02649
G1 X31.773 Y21.919 E0.04958
G1 X29.751 Y23.737 E0.08072
G1 X27.879 Y25.649 E0.07945
G1 X28.134 Y25.898 F18000
G1 F1800
G1 X28.081 Y25.953 E0.00227
G1 X26.284 Y28.036 E0.08169
G1 X24.622 Y30.23 E0.08169
G1 X23.104 Y32.524 E0.08169
G1 X21.829 Y34.732 E0.07571
G1 X20.601 Y37.194 E0.08169
G1 X19.532 Y39.73 E0.08169
G1 X18.626 Y42.328 E0.08169
G1 X17.887 Y44.978 E0.08169
G1 X17.329 Y47.615 E0.08004
G1 X17.687 Y49.855 E0.06736
G1 X43.557 Y94.663 E1.53622
G1 X45.318 Y96.094 E0.06736
G1 X47.881 Y96.929 E0.08004
G1 X50.349 Y97.569 E0.07571
G1 X53.249 Y98.128 E0.08768
G1 X55.979 Y98.47 E0.08169
G1 X58.725 Y98.638 E0.08169
G1 X61.275 Y98.638 E0.07571
G1 X64.222 Y98.451 E0.08768
G1 X66.95 Y98.096 E0.08169
G1 X69.651 Y97.569 E0.08169
G1 X72.119 Y96.929 E0.07571
G1 X74.682 Y96.094 E0.08004
G1 X76.443 Y94.663 E0.06736
G1 X102.313 Y49.855 E1.53622
G1 X102.671 Y47.615 E0.06736
G1 X102.113 Y44.978 E0.08004
G1 X101.374 Y42.328 E0.08169
G1 X100.54 Y39.918 E0.07571
G1 X99.483 Y37.378 E0.08169
G1 X98.266 Y34.91 E0.08169
G1 X96.79 Y32.352 E0.08768
G1 X95.261 Y30.065 E0.08169
G1 X93.716 Y28.036 E0.07571
G1 X91.783 Y25.805 E0.08768
G1 X89.994 Y23.987 E0.07571
G1 X87.989 Y22.185 E0.08004
G1 X85.87 Y21.375 E0.06736
G1 X34.13 Y21.375 E1.53622
G1 X32.011 Y22.185 E0.06736
G1 X30.006 Y23.987 E0.08004
G1 X28.176 Y25.855 E0.07764
G1 E-2 F3000
M204 S1500
G1 Z0.6 F18000
; printing object EncoderPlate.STL id:0 copy 0
EXCLUDE_OBJECT_START NAME=EncoderPlate_STL_id_0_copy_0
; acceleration to travel
G1 X46.142 Y64.308
; decel to extrusion
M204 S1000
G1 X58.119 Y89.944
; end travel
G1 Z0.2
G1 E2 F1800
;TYPE:Internal perimeter
G1 X57.852 Y90.312 E0.0189
G1 X57.641 Y90.785 E0.02155
G1 X57.534 Y91.293 E0.02155
G1 X57.534 Y91.794 E0.02085
G1 X57.599 Y92.168 E0.01577
G1 X57.771 Y92.639 E0.02085
G1 X58.046 Y93.079 E0.02155
G1 X58.394 Y93.439 E0.02085
G1 X58.701 Y93.662 E0.01577
G1 X59.152 Y93.882 E0.02085
G1 X59.655 Y94.008 E0.02155
G1 X60.173 Y94.026 E0.02155
G1 X60.684 Y93.936 E0.02155
G1 X61.164 Y93.742 E0.02155
G1 X61.594 Y93.452 E0.02155
G1 X61.954 Y93.079 E0.02155
G1 X62.229 Y92.639 E0.02155
G1 X62.401 Y92.168 E0.02085
G1 X62.466 Y91.794 E0.01577
G1 X62.466 Y91.293 E0.02085
G1 X62.359 Y90.785 E0.02155
G1 X62.155 Y90.327 E0.02085
G1 X61.943 Y90.013 E0.01577
G1 X61.594 Y89.652 E0.02085
G1 X61.164 Y89.362 E0.02155
G1 X60.699 Y89.174 E0.02085
G1 X60.328 Y89.095 E0.01577
G1 X59.827 Y89.078 E0.02085
G1 X59.333 Y89.165 E0.02085
G1 X58.977 Y89.295 E0.01577
G1 X58.542 Y89.545 E0.02085
G1 X58.155 Y89.895 E0.02171
G1 X58.405 Y90.158 F18000
G1 F1800
G1 X58.163 Y90.491 E0.01711
G1 X57.983 Y90.896 E0.01843
G1 X57.891 Y91.33 E0.01843
G1 X57.891 Y91.763 E0.01799
G1 X57.946 Y92.075 E0.01317
G1 X58.094 Y92.482 E0.01799
G1 X58.329 Y92.858 E0.01843
G1 X58.629 Y93.169 E0.01799
G1 X58.886 Y93.355 E0.01318
G1 X59.275 Y93.545 E0.01799
G1 X59.705 Y93.652 E0.01843
G1 X60.148 Y93.668 E0.01843
G1 X60.585 Y93.591 E0.01843
G1 X60.996 Y93.425 E0.01843
G1 X61.363 Y93.177 E0.01843
G1 X61.671 Y92.858 E0.01843
G1 X61.906 Y92.482 E0.01843
G1 X62.054 Y92.075 E0.01799
G1 X62.109 Y91.763 E0.01317
G1 X62.109 Y91.33 E0.01799
G1 X62.017 Y90.896 E0.01843
G1 X61.841 Y90.501 E0.01799
G1 X61.664 Y90.238 E0.01318
G1 X61.363 Y89.927 E0.01799
G1 X60.996 Y89.679 E0.01843
G1 X60.595 Y89.517 E0.01799
G1 X60.285 Y89.451 E0.01317
G1 X59.852 Y89.436 E0.01799
G1 X59.426 Y89.511 E0.01799
G1 X59.128 Y89.62 E0.01318
G1 X58.753 Y89.836 E0.01799
G1 X58.445 Y90.114 E0.01726
G1 X58.691 Y90.373 F18000
;TYPE:External perimeter
G1 F1800
G1 X58.474 Y90.671 E0.01531
G1 X58.324 Y91.007 E0.01531
G1 X58.248 Y91.368 E0.01531
G1 X58.248 Y91.732 E0.01513
G1 X58.292 Y91.982 E0.01058
G1 X58.416 Y92.324 E0.01513
G1 X58.612 Y92.637 E0.01531
G1 X58.864 Y92.898 E0.01513
G1 X59.07 Y93.048 E0.01058
G1 X59.397 Y93.208 E0.01513
G1 X59.755 Y93.297 E0.01531
G1 X60.123 Y93.309 E0.01531
G1 X60.486 Y93.246 E0.01531
G1 X60.827 Y93.108 E0.01531
G1 X61.133 Y92.902 E0.01531
G1 X61.388 Y92.637 E0.01531
G1 X61.584 Y92.324 E0.01531
G1 X61.708 Y91.982 E0.01513
G1 X61.752 Y91.732 E0.01058
G1 X61.752 Y91.368 E0.01513
G1 X61.676 Y91.007 E0.01531
G1 X61.528 Y90.675 E0.01513
G1 X61.385 Y90.464 E0.01058
G1 X61.133 Y90.202 E0.01513
G1 X60.827 Y89.996 E0.01531
G1 X60.49 Y89.86 E0.01513
G1 X60.241 Y89.807 E0.01058
G1 X59.877 Y89.794 E0.01513
G1 X59.519 Y89.857 E0.01513
G1 X59.28 Y89.944 E0.01058
G1 X58.964 Y90.126 E0.01513
G1 X58.735 Y90.333 E0.01282
;WIPE_START
M204 S1500
G1 X58.297 Y90.303 F18000
;WIPE_END
G1 E-2 F3000
G1 Z0.6 F18000
; acceleration to travel
G1 X77.026 Y57.463
; decel to extrusion
M204 S1000
G1 X89.512 Y35.57
; end travel
G1 Z0.2
G1 E2 F1800
;TYPE:Internal perimeter
G1 X89.249 Y35.931 E0.01857
G1 X89.038 Y36.405 E0.02155
G1 X88.934 Y36.895 E0.02084
G1 X88.921 Y37.275 E0.01577
G1 X88.99 Y37.771 E0.02084
G1 X89.168 Y38.258 E0.02155
G1 X89.442 Y38.698 E0.02155
G1 X89.803 Y39.071 E0.02155
G1 X90.232 Y39.361 E0.02155
G1 X90.697 Y39.549 E0.02085
G1 X91.068 Y39.628 E0.01577
G1 X91.57 Y39.645 E0.02085
G1 X92.064 Y39.558 E0.02085
G1 X92.42 Y39.428 E0.01577
G1 X92.854 Y39.178 E0.02085
G1 X93.24 Y38.831 E0.02155
G1 X93.544 Y38.411 E0.02155
G1 X93.755 Y37.938 E0.02155
G1 X93.863 Y37.43 E0.02155
G1 X93.863 Y36.912 E0.02155
G1 X93.759 Y36.421 E0.02084
G1 X93.617 Y36.07 E0.01577
G1 X93.351 Y35.644 E0.02085
G1 X93.003 Y35.284 E0.02085
G1 X92.696 Y35.061 E0.01577
G1 X92.245 Y34.841 E0.02085
G1 X91.742 Y34.715 E0.02155
G1 X91.224 Y34.697 E0.02155
G1 X90.713 Y34.787 E0.02155
G1 X90.232 Y34.981 E0.02155
G1 X89.817 Y35.262 E0.02085
G1 X89.548 Y35.522 E0.01555
G1 X89.798 Y35.783 F18000
G1 F1800
G1 X89.56 Y36.111 E0.01685
G1 X89.379 Y36.516 E0.01843
G1 X89.29 Y36.939 E0.01799
G1 X89.278 Y37.256 E0.01318
G1 X89.339 Y37.684 E0.01799
G1 X89.49 Y38.101 E0.01843
G1 X89.725 Y38.477 E0.01843
G1 X90.033 Y38.796 E0.01843
G1 X90.401 Y39.044 E0.01843
G1 X90.802 Y39.206 E0.01799
G1 X91.112 Y39.272 E0.01318
G1 X91.545 Y39.287 E0.01799
G1 X91.971 Y39.212 E0.01799
G1 X92.269 Y39.103 E0.01317
G1 X92.643 Y38.887 E0.01799
G1 X92.973 Y38.59 E0.01843
G1 X93.234 Y38.232 E0.01843
G1 X93.414 Y37.827 E0.01843
G1 X93.506 Y37.393 E0.01843
G1 X93.506 Y36.949 E0.01843
G1 X93.416 Y36.526 E0.01799
G1 X93.297 Y36.232 E0.01318
G1 X93.068 Y35.865 E0.01799
G1 X92.767 Y35.554 E0.01799
G1 X92.511 Y35.368 E0.01317
G1 X92.122 Y35.178 E0.01799
G1 X91.692 Y35.071 E0.01843
G1 X91.249 Y35.055 E0.01843
G1 X90.812 Y35.132 E0.01843
G1 X90.401 Y35.298 E0.01843
G1 X90.042 Y35.54 E0.01799
G1 X89.838 Y35.738 E0.01182
G1 X90.085 Y35.996 F18000
;TYPE:External perimeter
G1 F1800
G1 X89.871 Y36.29 E0.01513
G1 X89.721 Y36.627 E0.01531
G1 X89.645 Y36.983 E0.01513
G1 X89.636 Y37.237 E0.01058
G1 X89.687 Y37.597 E0.01513
G1 X89.813 Y37.944 E0.01531
G1 X90.008 Y38.256 E0.01531
G1 X90.264 Y38.521 E0.01531
G1 X90.569 Y38.727 E0.01531
G1 X90.907 Y38.863 E0.01513
G1 X91.156 Y38.916 E0.01058
G1 X91.52 Y38.929 E0.01513
G1 X91.878 Y38.866 E0.01513
G1 X92.117 Y38.779 E0.01058
G1 X92.432 Y38.597 E0.01513
G1 X92.706 Y38.35 E0.01531
G1 X92.923 Y38.052 E0.01531
G1 X93.072 Y37.716 E0.01531
G1 X93.149 Y37.355 E0.01531
G1 X93.149 Y36.987 E0.01531
G1 X93.073 Y36.631 E0.01513
G1 X92.978 Y36.395 E0.01058
G1 X92.785 Y36.086 E0.01513
G1 X92.532 Y35.825 E0.01513
G1 X92.326 Y35.675 E0.01058
G1 X91.999 Y35.515 E0.01513
G1 X91.642 Y35.426 E0.01531
G1 X91.274 Y35.413 E0.01531
G1 X90.911 Y35.477 E0.01531
G1 X90.57 Y35.615 E0.01531
G1 X90.268 Y35.819 E0.01513
G1 X90.128 Y35.954 E0.00808
;WIPE_START
M204 S1500
G1 X89.69 Y35.931 F18000
;WIPE_END
G1 E-2 F3000
G1 Z0.6 F18000
; acceleration to travel
G1 X76.51 Y52.015
; decel to extrusion
M204 S1000
G1 X67.723 Y62.738
; end travel
G1 Z0.2
G1 E2 F1800
;TYPE:Internal perimeter
G1 X67.806 Y62.808 E0.00451
G1 X68.265 Y63.032 E0.02119
G1 X68.738 Y63.15 E0.0203
G1 X69.226 Y63.167 E0.0203
G1 X69.684 Y63.086 E0.01933
G1 X70.034 Y62.959 E0.01545
G1 X70.436 Y62.726 E0.01933
G1 X70.799 Y62.4 E0.0203
G1 X71.086 Y62.005 E0.0203
G1 X71.285 Y61.559 E0.0203
G1 X71.386 Y61.081 E0.0203
G1 X71.386 Y60.593 E0.0203
G1 X71.285 Y60.115 E0.0203
G1 X71.096 Y59.69 E0.01933
G1 X70.888 Y59.382 E0.01545
G1 X70.565 Y59.048 E0.01933
G1 X70.16 Y58.775 E0.02029
G1 X69.729 Y58.6 E0.01933
G1 X69.365 Y58.523 E0.01545
G1 X68.901 Y58.507 E0.01933
G1 X68.42 Y58.592 E0.0203
G1 X67.967 Y58.775 E0.0203
G1 X67.562 Y59.048 E0.0203
G1 X67.239 Y59.382 E0.01933
G1 X67.031 Y59.69 E0.01545
G1 X66.842 Y60.115 E0.01933
G1 X66.741 Y60.593 E0.0203
G1 X66.741 Y61.081 E0.0203
G1 X66.842 Y61.559 E0.0203
G1 X67.041 Y62.005 E0.0203
G1 X67.34 Y62.417 E0.02119
G1 X67.677 Y62.7 E0.01828
G1 X67.947 Y62.46 F18000
G1 F1800
G1 X68.002 Y62.506 E0.00301
G1 X68.387 Y62.694 E0.01781
G1 X68.788 Y62.794 E0.01718
G1 X69.201 Y62.809 E0.01718
G1 X69.592 Y62.74 E0.01647
G1 X69.882 Y62.634 E0.01285
G1 X70.225 Y62.436 E0.01647
G1 X70.532 Y62.159 E0.01718
G1 X70.775 Y61.825 E0.01718
G1 X70.943 Y61.448 E0.01718
G1 X71.029 Y61.043 E0.01718
G1 X71.029 Y60.63 E0.01718
G1 X70.943 Y60.226 E0.01718
G1 X70.782 Y59.864 E0.01647
G1 X70.609 Y59.608 E0.01285
G1 X70.334 Y59.323 E0.01647
G1 X69.991 Y59.092 E0.01717
G1 X69.624 Y58.943 E0.01647
G1 X69.322 Y58.879 E0.01285
G1 X68.926 Y58.865 E0.01647
G1 X68.519 Y58.937 E0.01718
G1 X68.136 Y59.092 E0.01718
G1 X67.793 Y59.323 E0.01718
G1 X67.518 Y59.608 E0.01647
G1 X67.345 Y59.864 E0.01285
G1 X67.184 Y60.226 E0.01647
G1 X67.098 Y60.63 E0.01718
G1 X67.098 Y61.043 E0.01718
G1 X67.184 Y61.448 E0.01718
G1 X67.352 Y61.825 E0.01718
G1 X67.604 Y62.172 E0.01781
G1 X67.901 Y62.421 E0.01614
G1 X68.171 Y62.181 F18000
G1 F1800
G1 X68.198 Y62.205 E0.0015
G1 X68.51 Y62.357 E0.01443
G1 X68.838 Y62.439 E0.01406
G1 X69.176 Y62.45 E0.01406
G1 X69.499 Y62.393 E0.01361
G1 X69.731 Y62.309 E0.01026
G1 X70.014 Y62.145 E0.01361
G1 X70.265 Y61.919 E0.01406
G1 X70.464 Y61.646 E0.01406
G1 X70.602 Y61.337 E0.01406
G1 X70.672 Y61.006 E0.01406
G1 X70.672 Y60.668 E0.01406
G1 X70.602 Y60.337 E0.01406
G1 X70.469 Y60.038 E0.01361
G1 X70.331 Y59.833 E0.01026
G1 X70.103 Y59.598 E0.01361
G1 X69.823 Y59.409 E0.01405
G1 X69.519 Y59.286 E0.01361
G1 X69.278 Y59.235 E0.01026
G1 X68.951 Y59.223 E0.01361
G1 X68.618 Y59.282 E0.01406
G1 X68.304 Y59.409 E0.01406
G1 X68.024 Y59.598 E0.01406
G1 X67.796 Y59.833 E0.01361
G1 X67.658 Y60.038 E0.01026
G1 X67.525 Y60.337 E0.01361
G1 X67.455 Y60.668 E0.01406
G1 X67.455 Y61.006 E0.01406
G1 X67.525 Y61.337 E0.01406
G1 X67.663 Y61.646 E0.01406
G1 X67.867 Y61.926 E0.01443
G1 X68.125 Y62.143 E0.01399
G1 X68.394 Y61.903 F18000
;TYPE:External perimeter
G1 F1800
G1 X68.633 Y62.019 E0.01105
G1 X68.888 Y62.083 E0.01094
G1 X69.151 Y62.092 E0.01094
G1 X69.406 Y62.047 E0.01075
G1 X69.579 Y61.984 E0.00766
G1 X69.803 Y61.855 E0.01075
G1 X69.999 Y61.679 E0.01094
G1 X70.153 Y61.466 E0.01094
G1 X70.26 Y61.226 E0.01094
G1 X70.315 Y60.968 E0.01094
G1 X70.315 Y60.705 E0.01094
G1 X70.26 Y60.448 E0.01094
G1 X70.155 Y60.212 E0.01075
G1 X70.052 Y60.059 E0.00766
G1 X69.872 Y59.873 E0.01075
G1 X69.654 Y59.726 E0.01093
G1 X69.414 Y59.629 E0.01075
G1 X69.234 Y59.59 E0.00766
G1 X68.976 Y59.581 E0.01075
