; generated by SuperSlicer 2.5.59 on 2023-12-27 at 02:20:02 UTC


;
;

;
;
; TODO: check the size of the extruder and the y-bar clearance. Optimize & test supports.

; external perimeters extrusion width = 0.40mm
; perimeters extrusion width = 0.40mm
; infill extrusion width = 0.40mm
; solid infill extrusion width = 0.40mm
; top infill extrusion width = 0.40mm
; first layer extrusion width = 0.40mm

; object:{"name":"MagnetHolder","id":"MagnetHolder.STL id:0 copy 0","object_center":[60.000000,60.000000,0.000000],"boundingbox_center":[60.000000,60.000000,3.000000],"boundingbox_size":[13.991472,14.000000,6.000000]}
EXCLUDE_OBJECT_DEFINE NAME=MagnetHolder_STL_id_0_copy_0 CENTER=60.000000,60.000000 POLYGON=[[53.004264,59.755704],[53.038344,59.268304],[53.106348,58.784464],[53.207932,58.306544],[53.342604,57.836880],[53.509712,57.377756],[53.708444,56.931404],[53.937820,56.500000],[54.196736,56.085652],[54.483924,55.690368],[54.797984,55.316084],[55.137392,54.964624],[55.500488,54.637688],[55.885504,54.336884],[56.290564,54.063664],[56.713700,53.819368],[57.152844,53.605184],[57.605856,53.422148],[58.070536,53.271168],[58.544616,53.152964],[59.025788,53.068124],[59.511704,53.017052],[60.000000,53.000000],[60.488296,53.017052],[60.974212,53.068124],[61.455384,53.152964],[61.929464,53.271168],[62.394144,53.422148],[62.847156,53.605184],[63.286300,53.819368],[63.709436,54.063664],[64.114496,54.336884],[64.499512,54.637688],[64.862612,54.964624],[65.202012,55.316084],[65.516076,55.690368],[65.803260,56.085652],[66.062180,56.500000],[66.291556,56.931404],[66.490288,57.377756],[66.657396,57.836880],[66.792068,58.306544],[66.893656,58.784464],[66.961656,59.268304],[66.995736,59.755704],[66.995736,60.244296],[66.961656,60.731700],[66.893656,61.215540],[66.792068,61.693456],[66.657396,62.163120],[66.490288,62.622244],[66.291556,63.068596],[66.062180,63.500000],[65.803260,63.914352],[65.516076,64.309632],[65.202012,64.683916],[64.862612,65.035376],[64.499512,65.362312],[64.114496,65.663116],[63.709436,65.936340],[63.286300,66.180632],[62.847156,66.394820],[62.394144,66.577852],[61.929464,66.728836],[61.455384,66.847032],[60.974212,66.931876],[60.488296,66.982948],[60.000000,67.000000],[59.511704,66.982948],[59.025788,66.931876],[58.544616,66.847032],[58.070536,66.728836],[57.605856,66.577852],[57.152844,66.394820],[56.713700,66.180632],[56.290564,65.936340],[55.885504,65.663116],[55.500488,65.362312],[55.137392,65.035376],[54.797984,64.683916],[54.483924,64.309632],[54.196736,63.914352],[53.937820,63.500000],[53.708444,63.068596],[53.509712,62.622244],[53.342604,62.163120],[53.207932,61.693456],[53.106348,61.215540],[53.038344,60.731700],[53.004264,60.244296],[53.004264,59.755704]]
; plater:{"center":[60.000000,60.000000,0.000000],"boundingbox_center":[60.000000,60.000000,3.000000],"boundingbox_size":[13.991472,14.000000,6.000000]}

;TYPE:Custom
; M190 S0
; M109 S0 ; uncomment to remove set&wait temp gcode added automatically after this start gcode
print_start EXTRUDER=245 BED=90 CHAMBER=50
M107
G21 ; set units to millimeters
G90 ; use absolute coordinates
M83 ; use relative distances for extrusion
SET_PRESSURE_ADVANCE ADVANCE=0.02
;_TOOLCHANGE 0
M104 S245 ; set temperature
M109 S245 ; set temperature and wait for it to be reached
M190 S90 ; set bed temperature and wait for it to be reached
M107
;LAYER_CHANGE
;Z:0.2
;HEIGHT:0.2
;BEFORE_LAYER_CHANGE
;0.2


G1 Z0.2 F18000
;AFTER_LAYER_CHANGE
;0.2
G92 E0
G1 E-2 F3000
G1 Z0.6 F18000
M204 S1000
G1 X50.895 Y50.251
G1 Z0.2
G1 E2 F1800
;TYPE:Skirt
;WIDTH:0.4
G1 X49.939 Y51.241 E0.04088
G1 X49.067 Y52.357 E0.04203
G1 X48.561 Y53.138 E0.02765
G1 X47.914 Y54.354 E0.04088
G1 X47.384 Y55.666 E0.04203
G1 X47.113 Y56.557 E0.02765
G1 X46.826 Y57.904 E0.04088
G1 X46.678 Y59.312 E0.04203
G1 X46.663 Y60.243 E0.02765
G1 X46.759 Y61.616 E0.04088
G1 X47.005 Y63.01 E0.04203
G1 X47.384 Y64.334 E0.04088
G1 X47.914 Y65.646 E0.04203
G1 X48.561 Y66.862 E0.04088
G1 X49.352 Y68.036 E0.04203
G1 X50.237 Y69.09 E0.04088
G1 X51.256 Y70.074 E0.04203
G1 X52.341 Y70.921 E0.04088
G1 X53.121 Y71.429 E0.02765
G1 X54.371 Y72.094 E0.04203
G1 X55.648 Y72.61 E0.04088
G1 X57.009 Y73 E0.04203
G1 X57.923 Y73.177 E0.02765
G1 X59.292 Y73.321 E0.04088
G1 X60.708 Y73.321 E0.04203
G1 X62.077 Y73.177 E0.04088
G1 X63.462 Y72.882 E0.04203
G1 X64.771 Y72.457 E0.04088
G1 X66.065 Y71.881 E0.04203
G1 X66.879 Y71.429 E0.02765
G1 X68.02 Y70.659 E0.04088
G1 X69.105 Y69.749 E0.04203
G1 X69.763 Y69.09 E0.02765
G1 X70.648 Y68.036 E0.04088
G1 X71.439 Y66.862 E0.04203
G1 X72.086 Y65.646 E0.04088
G1 X72.45 Y64.79 E0.02765
G1 X72.887 Y63.443 E0.04203
G1 X73.174 Y62.096 E0.04088
G1 X73.322 Y60.688 E0.04203
G1 X73.322 Y59.312 E0.04088
G1 X73.174 Y57.904 E0.04203
G1 X72.887 Y56.557 E0.04088
G1 X72.45 Y55.21 E0.04203
G1 X71.89 Y53.953 E0.04088
G1 X71.182 Y52.727 E0.04203
G1 X70.373 Y51.613 E0.04088
G1 X69.763 Y50.91 E0.02765
G1 X68.744 Y49.926 E0.04203
G1 X67.659 Y49.079 E0.04088
G1 X66.459 Y48.328 E0.04203
G1 X65.629 Y47.906 E0.02765
G1 X64.352 Y47.39 E0.04088
G1 X62.991 Y47 E0.04203
G1 X62.077 Y46.823 E0.02765
G1 X60.708 Y46.679 E0.04088
G1 X59.292 Y46.679 E0.04203
G1 X57.923 Y46.823 E0.04088
G1 X56.538 Y47.118 E0.04203
G1 X55.229 Y47.543 E0.04088
G1 X53.935 Y48.119 E0.04203
G1 X52.743 Y48.807 E0.04088
G1 X51.98 Y49.341 E0.02765
G1 X50.941 Y50.212 E0.04025
G1 X51.171 Y50.486 F18000
G1 F1800
G1 X51.134 Y50.516 E0.00141
G1 X50.212 Y51.471 E0.0394
G1 X49.356 Y52.567 E0.04129
G1 X48.864 Y53.327 E0.02691
G1 X48.241 Y54.499 E0.0394
G1 X47.72 Y55.788 E0.04129
G1 X47.456 Y56.655 E0.02691
G1 X47.18 Y57.953 E0.0394
G1 X47.034 Y59.336 E0.04129
G1 X47.02 Y60.243 E0.02691
G1 X47.112 Y61.566 E0.0394
G1 X47.354 Y62.936 E0.04129
G1 X47.72 Y64.212 E0.0394
G1 X48.241 Y65.501 E0.04129
G1 X48.864 Y66.673 E0.0394
G1 X49.641 Y67.826 E0.04129
G1 X50.494 Y68.842 E0.0394
G1 X51.495 Y69.808 E0.04129
G1 X52.54 Y70.625 E0.0394
G1 X53.3 Y71.12 E0.02691
G1 X54.528 Y71.773 E0.04129
G1 X55.758 Y72.27 E0.0394
G1 X57.095 Y72.653 E0.04129
G1 X58.402 Y72.884 E0.0394
G1 X59.305 Y72.964 E0.02691
G1 X60.695 Y72.964 E0.04129
G1 X62.015 Y72.825 E0.0394
G1 X63.376 Y72.536 E0.04129
G1 X64.638 Y72.126 E0.0394
G1 X65.908 Y71.56 E0.04129
G1 X67.057 Y70.897 E0.0394
G1 X67.8 Y70.378 E0.02691
G1 X68.866 Y69.484 E0.04129
G1 X69.788 Y68.529 E0.0394
G1 X70.644 Y67.433 E0.04129
G1 X71.347 Y66.308 E0.0394
G1 X71.759 Y65.501 E0.0269
G1 X72.114 Y64.667 E0.02691
G1 X72.544 Y63.345 E0.04129
G1 X72.82 Y62.047 E0.0394
G1 X72.966 Y60.664 E0.04129
G1 X72.966 Y59.336 E0.0394
G1 X72.82 Y57.953 E0.04129
G1 X72.544 Y56.655 E0.0394
G1 X72.114 Y55.333 E0.04129
G1 X71.575 Y54.12 E0.0394
G1 X70.879 Y52.916 E0.04129
G1 X70.099 Y51.842 E0.0394
G1 X69.506 Y51.158 E0.02691
G1 X68.505 Y50.192 E0.04129
G1 X67.46 Y49.375 E0.0394
G1 X66.28 Y48.638 E0.04129
G1 X65.472 Y48.227 E0.02691
G1 X64.242 Y47.73 E0.0394
G1 X62.905 Y47.347 E0.04129
G1 X62.015 Y47.175 E0.02691
G1 X60.695 Y47.036 E0.0394
G1 X59.305 Y47.036 E0.04129
G1 X57.985 Y47.175 E0.0394
G1 X56.624 Y47.464 E0.04129
G1 X55.362 Y47.874 E0.0394
G1 X54.092 Y48.44 E0.04129
G1 X53.3 Y48.88 E0.0269
G1 X52.2 Y49.622 E0.0394
G1 X51.217 Y50.447 E0.0381
G1 X51.446 Y50.72 F18000
G1 F1800
G1 X51.373 Y50.781 E0.00282
G1 X50.486 Y51.7 E0.03792
G1 X49.645 Y52.777 E0.04055
G1 X49.166 Y53.516 E0.02617
G1 X48.567 Y54.644 E0.03792
G1 X48.055 Y55.911 E0.04055
G1 X47.799 Y56.754 E0.02617
G1 X47.533 Y58.003 E0.03792
G1 X47.391 Y59.361 E0.04055
G1 X47.377 Y60.243 E0.02617
G1 X47.466 Y61.517 E0.03792
G1 X47.703 Y62.862 E0.04055
G1 X48.055 Y64.089 E0.03792
G1 X48.567 Y65.356 E0.04055
G1 X49.166 Y66.484 E0.03792
G1 X49.93 Y67.616 E0.04055
G1 X50.751 Y68.594 E0.03792
G1 X51.734 Y69.543 E0.04055
G1 X52.74 Y70.329 E0.03792
G1 X53.478 Y70.811 E0.02617
G1 X54.684 Y71.452 E0.04055
G1 X55.869 Y71.93 E0.03792
G1 X57.182 Y72.307 E0.04055
G1 X58.439 Y72.529 E0.03792
G1 X59.317 Y72.607 E0.02617
G1 X60.683 Y72.607 E0.04055
G1 X61.953 Y72.473 E0.03792
G1 X63.289 Y72.189 E0.04055
G1 X64.504 Y71.795 E0.03792
G1 X65.752 Y71.239 E0.04055
G1 X66.522 Y70.811 E0.02617
G1 X67.58 Y70.096 E0.03792
G1 X68.627 Y69.219 E0.04055
G1 X69.514 Y68.3 E0.03792
G1 X70.355 Y67.223 E0.04055
G1 X70.834 Y66.484 E0.02617
G1 X71.433 Y65.356 E0.03792
G1 X71.779 Y64.545 E0.02617
G1 X72.201 Y63.246 E0.04055
G1 X72.467 Y61.997 E0.03792
G1 X72.609 Y60.639 E0.04055
G1 X72.609 Y59.361 E0.03792
G1 X72.467 Y58.003 E0.04055
G1 X72.201 Y56.754 E0.03792
G1 X71.779 Y55.455 E0.04055
G1 X71.259 Y54.288 E0.03792
G1 X70.577 Y53.105 E0.04055
G1 X69.826 Y52.072 E0.03792
G1 X69.249 Y51.406 E0.02617
G1 X68.266 Y50.457 E0.04055
G1 X67.26 Y49.671 E0.03792
G1 X66.102 Y48.947 E0.04055
G1 X65.316 Y48.548 E0.02617
G1 X64.131 Y48.07 E0.03792
G1 X62.819 Y47.693 E0.04055
G1 X61.953 Y47.527 E0.02617
G1 X60.683 Y47.393 E0.03792
G1 X59.317 Y47.393 E0.04055
G1 X58.047 Y47.527 E0.03792
G1 X57.182 Y47.693 E0.02617
G1 X55.869 Y48.07 E0.04055
G1 X54.684 Y48.548 E0.03792
G1 X53.478 Y49.189 E0.04055
G1 X52.42 Y49.904 E0.03792
G1 X51.492 Y50.682 E0.03595
G1 X51.721 Y50.955 F18000
G1 F1800
G1 X51.612 Y51.047 E0.00423
G1 X50.76 Y51.93 E0.03644
G1 X49.934 Y52.986 E0.03981
G1 X49.469 Y53.706 E0.02543
G1 X48.893 Y54.789 E0.03644
G1 X48.391 Y56.033 E0.03981
G1 X48.142 Y56.852 E0.02543
G1 X47.887 Y58.053 E0.03644
G1 X47.747 Y59.386 E0.03981
G1 X47.734 Y60.243 E0.02543
G1 X47.82 Y61.467 E0.03644
G1 X48.052 Y62.788 E0.03981
G1 X48.391 Y63.967 E0.03644
G1 X48.893 Y65.211 E0.03981
G1 X49.469 Y66.294 E0.03644
G1 X50.219 Y67.406 E0.03981
G1 X51.008 Y68.346 E0.03644
G1 X51.973 Y69.278 E0.03981
G1 X52.94 Y70.033 E0.03644
G1 X53.657 Y70.501 E0.02543
G1 X54.841 Y71.131 E0.03981
G1 X55.979 Y71.591 E0.03644
G1 X57.268 Y71.96 E0.03981
G1 X58.109 Y72.122 E0.02543
G1 X59.33 Y72.25 E0.03644
G1 X60.67 Y72.25 E0.03981
G1 X61.891 Y72.122 E0.03644
G1 X63.203 Y71.843 E0.03981
G1 X64.37 Y71.464 E0.03644
G1 X65.595 Y70.918 E0.03981
G1 X66.343 Y70.501 E0.02543
G1 X67.361 Y69.815 E0.03644
G1 X68.388 Y68.953 E0.03981
G1 X69.24 Y68.07 E0.03644
G1 X70.066 Y67.014 E0.03981
G1 X70.531 Y66.294 E0.02543
G1 X71.107 Y65.211 E0.03644
G1 X71.443 Y64.423 E0.02543
G1 X71.858 Y63.148 E0.03981
G1 X72.113 Y61.947 E0.03644
G1 X72.253 Y60.614 E0.03981
G1 X72.253 Y59.386 E0.03644
G1 X72.113 Y58.053 E0.03981
G1 X71.858 Y56.852 E0.03644
G1 X71.443 Y55.577 E0.03981
G1 X70.944 Y54.456 E0.03644
G1 X70.274 Y53.294 E0.03981
G1 X69.552 Y52.301 E0.03644
G1 X68.992 Y51.654 E0.02543
G1 X68.027 Y50.722 E0.03981
G1 X67.06 Y49.967 E0.03644
G1 X65.923 Y49.256 E0.03981
G1 X65.159 Y48.869 E0.02543
G1 X64.021 Y48.409 E0.03644
G1 X62.732 Y48.04 E0.03981
G1 X61.891 Y47.878 E0.02543
G1 X60.67 Y47.75 E0.03644
G1 X59.33 Y47.75 E0.03981
G1 X58.109 Y47.878 E0.03644
G1 X56.797 Y48.157 E0.03981
G1 X55.63 Y48.536 E0.03644
G1 X54.405 Y49.082 E0.03981
G1 X53.657 Y49.499 E0.02543
G1 X52.639 Y50.185 E0.03644
G1 X51.767 Y50.917 E0.0338
G1 X51.997 Y51.19 F18000
G1 F1800
G1 X51.851 Y51.312 E0.00565
G1 X51.033 Y52.159 E0.03497
G1 X50.223 Y53.196 E0.03907
G1 X49.599 Y54.195 E0.03496
G1 X49.219 Y54.935 E0.02469
G1 X48.726 Y56.155 E0.03907
G1 X48.485 Y56.951 E0.02469
G1 X48.241 Y58.102 E0.03496
G1 X48.103 Y59.411 E0.03907
G1 X48.103 Y60.589 E0.03496
G1 X48.173 Y61.417 E0.02469
G1 X48.402 Y62.713 E0.03907
G1 X48.726 Y63.845 E0.03496
G1 X49.219 Y65.065 E0.03907
G1 X49.772 Y66.105 E0.03496
G1 X50.508 Y67.196 E0.03907
G1 X51.265 Y68.098 E0.03496
G1 X52.212 Y69.012 E0.03907
G1 X53.14 Y69.737 E0.03496
G1 X53.835 Y70.192 E0.02469
G1 X54.997 Y70.81 E0.03907
G1 X56.089 Y71.251 E0.03496
G1 X57.354 Y71.614 E0.03907
G1 X58.171 Y71.77 E0.02469
G1 X59.342 Y71.893 E0.03496
G1 X60.658 Y71.893 E0.03907
G1 X61.829 Y71.77 E0.03496
G1 X63.116 Y71.497 E0.03907
G1 X64.236 Y71.133 E0.03496
G1 X65.439 Y70.597 E0.03907
G1 X66.165 Y70.192 E0.02469
G1 X67.141 Y69.534 E0.03496
G1 X68.149 Y68.688 E0.03907
G1 X68.967 Y67.841 E0.03496
G1 X69.777 Y66.804 E0.03907
G1 X70.401 Y65.805 E0.03496
G1 X70.781 Y65.065 E0.02469
G1 X71.274 Y63.845 E0.03907
G1 X71.598 Y62.713 E0.03496
G1 X71.759 Y61.898 E0.02469
G1 X71.897 Y60.589 E0.03907
G1 X71.897 Y59.411 E0.03496
G1 X71.759 Y58.102 E0.03907
G1 X71.514 Y56.951 E0.03496
G1 X71.108 Y55.699 E0.03907
G1 X70.629 Y54.623 E0.03496
G1 X69.971 Y53.484 E0.03907
G1 X69.279 Y52.531 E0.03496
G1 X68.735 Y51.902 E0.02469
G1 X67.788 Y50.988 E0.03907
G1 X66.86 Y50.263 E0.03496
G1 X65.744 Y49.565 E0.03907
G1 X65.003 Y49.19 E0.02469
G1 X63.911 Y48.749 E0.03496
G1 X62.646 Y48.386 E0.03907
G1 X61.829 Y48.23 E0.02469
G1 X60.658 Y48.107 E0.03496
G1 X59.342 Y48.107 E0.03907
G1 X58.171 Y48.23 E0.03496
G1 X57.354 Y48.386 E0.02469
G1 X56.089 Y48.749 E0.03907
G1 X54.997 Y49.19 E0.03496
G1 X53.835 Y49.808 E0.03907
G1 X52.859 Y50.466 E0.03496
G1 X52.043 Y51.151 E0.03165
G1 X52.272 Y51.425 F18000
G1 F1800
G1 X52.09 Y51.578 E0.00706
G1 X51.307 Y52.389 E0.03349
G1 X50.512 Y53.406 E0.03833
G1 X49.545 Y55.08 E0.05738
G1 X49.062 Y56.277 E0.03833
G1 X48.829 Y57.049 E0.02395
G1 X48.594 Y58.152 E0.03348
G1 X48.459 Y59.436 E0.03833
G1 X48.459 Y60.564 E0.03349
G1 X48.594 Y61.848 E0.03833
G1 X48.829 Y62.951 E0.03348
G1 X49.228 Y64.179 E0.03833
G1 X49.686 Y65.209 E0.03348
G1 X50.332 Y66.327 E0.03833
G1 X51.522 Y67.85 E0.05738
G1 X52.451 Y68.747 E0.03833
G1 X53.339 Y69.441 E0.03348
G1 X54.014 Y69.883 E0.02395
G1 X55.154 Y70.489 E0.03833
G1 X56.2 Y70.912 E0.03348
G1 X57.441 Y71.267 E0.03833
G1 X59.354 Y71.536 E0.05738
G1 X60.646 Y71.536 E0.03833
G1 X61.767 Y71.419 E0.03349
G1 X63.03 Y71.15 E0.03833
G1 X64.103 Y70.802 E0.03348
G1 X65.282 Y70.276 E0.03833
G1 X65.986 Y69.883 E0.02395
G1 X66.921 Y69.252 E0.03348
G1 X67.91 Y68.422 E0.03833
G1 X68.693 Y67.611 E0.03349
G1 X69.488 Y66.594 E0.03833
G1 X70.455 Y64.92 E0.05738
G1 X70.938 Y63.723 E0.03833
G1 X71.249 Y62.639 E0.03348
G1 X71.406 Y61.848 E0.02395
G1 X71.541 Y60.564 E0.03833
G1 X71.541 Y59.436 E0.03349
G1 X71.406 Y58.152 E0.03833
G1 X71.171 Y57.049 E0.03348
G1 X70.772 Y55.821 E0.03833
G1 X70.314 Y54.791 E0.03348
G1 X69.668 Y53.673 E0.03833
G1 X68.478 Y52.15 E0.05738
G1 X67.549 Y51.253 E0.03833
G1 X66.661 Y50.559 E0.03348
G1 X65.566 Y49.875 E0.03833
G1 X64.846 Y49.511 E0.02395
G1 X63.8 Y49.088 E0.03348
G1 X62.559 Y48.733 E0.03833
G1 X60.646 Y48.464 E0.05738
G1 X59.354 Y48.464 E0.03833
G1 X58.233 Y48.581 E0.03349
G1 X56.97 Y48.85 E0.03833
G1 X55.897 Y49.198 E0.03348
G1 X54.718 Y49.724 E0.03833
G1 X53.741 Y50.287 E0.03348
G1 X53.079 Y50.748 E0.02395
G1 X52.318 Y51.386 E0.02949
G1 X52.547 Y51.66 F18000
G1 F1800
G1 X52.329 Y51.843 E0.00847
G1 X51.58 Y52.618 E0.03201
G1 X50.801 Y53.616 E0.03759
G1 X49.872 Y55.225 E0.05517
G1 X49.397 Y56.399 E0.03759
G1 X49.172 Y57.147 E0.02321
G1 X48.948 Y58.202 E0.03201
G1 X48.816 Y59.461 E0.03759
G1 X48.88 Y61.318 E0.05517
G1 X49.1 Y62.565 E0.03759
G1 X49.397 Y63.601 E0.03201
G1 X49.872 Y64.775 E0.03759
G1 X50.378 Y65.727 E0.03201
G1 X51.086 Y66.776 E0.03759
G1 X51.779 Y67.602 E0.03201
G1 X52.689 Y68.482 E0.03759
G1 X53.539 Y69.145 E0.03201
G1 X54.193 Y69.574 E0.02321
G1 X55.31 Y70.168 E0.03759
G1 X56.31 Y70.572 E0.03201
G1 X57.527 Y70.921 E0.03759
G1 X59.367 Y71.18 E0.05517
G1 X60.633 Y71.18 E0.03759
G1 X61.705 Y71.067 E0.03201
G1 X62.944 Y70.804 E0.03759
G1 X63.969 Y70.471 E0.03201
G1 X65.125 Y69.956 E0.03759
G1 X65.807 Y69.574 E0.02321
G1 X66.701 Y68.971 E0.03201
G1 X67.671 Y68.157 E0.03759
G1 X68.42 Y67.382 E0.03201
G1 X69.199 Y66.384 E0.03759
G1 X70.128 Y64.775 E0.05517
G1 X70.437 Y64.057 E0.02321
G1 X70.828 Y62.853 E0.03759
G1 X71.052 Y61.798 E0.03201
G1 X71.184 Y60.539 E0.03759
G1 X71.184 Y59.461 E0.03201
G1 X71.052 Y58.202 E0.03759
G1 X70.828 Y57.147 E0.03201
G1 X70.437 Y55.943 E0.03759
G1 X69.622 Y54.273 E0.05517
G1 X68.914 Y53.224 E0.03759
G1 X68.221 Y52.398 E0.03201
G1 X67.311 Y51.518 E0.03759
G1 X66.461 Y50.855 E0.03201
G1 X65.387 Y50.184 E0.03759
G1 X64.689 Y49.832 E0.02321
G1 X63.69 Y49.428 E0.03201
G1 X62.473 Y49.079 E0.03759
G1 X60.633 Y48.82 E0.05517
G1 X59.367 Y48.82 E0.03759
G1 X58.295 Y48.933 E0.03201
G1 X57.056 Y49.196 E0.03759
G1 X56.031 Y49.529 E0.03201
G1 X54.875 Y50.044 E0.03759
G1 X53.941 Y50.583 E0.03201
G1 X53.299 Y51.029 E0.02321
G1 X52.593 Y51.621 E0.02734
