; generated by SuperSlicer 2.4 on 2023-12-11 at 09:20:48 UTC


;
;

;
;
; TODO: check the size of the extruder and the y-bar clearance. Optimize & test supports.

; external perimeters extrusion width = 0.40mm
; perimeters extrusion width = 0.40mm
; infill extrusion width = 0.40mm
; solid infill extrusion width = 0.40mm
; top infill extrusion width = 0.40mm
; first layer extrusion width = 0.56mm

; object:{"name":"MotorDriver","id":"MotorDriver.STL id:0 copy 0","object_center":[60.000000,60.000000,0.000000],"boundingbox_center":[60.000000,60.000000,3.810293],"boundingbox_size":[58.992973,55.349892,15.560999]}
; plater:{"center":[60.000000,60.000000,0.000000],"boundingbox_center":[60.000000,60.000000,3.810293],"boundingbox_size":[58.992973,55.349892,15.560999]}

;TYPE:Custom
; M190 S0
;M109 S0 ; uncomment to remove set&wait temp gcode added automatically after this start gcode
print_start EXTRUDER=245 BED=90 CHAMBER=50

;G92 E0
;G1 E10 F1500 ; prime the nozzle
M107
G21 ; set units to millimeters
G90 ; use absolute coordinates
M83 ; use relative distances for extrusion
SET_PRESSURE_ADVANCE ADVANCE=0.04
;_TOOLCHANGE 0
M104 S245 ; set temperature
M109 S245 ; set temperature and wait for it to be reached
M190 S90 ; set bed temperature and wait for it to be reached
M107
;LAYER_CHANGE
;Z:0.25
;HEIGHT:0.25
;BEFORE_LAYER_CHANGE
;0.25


G1 Z0.25 F18000
;AFTER_LAYER_CHANGE
;0.25
TIMELAPSE_TAKE_FRAME
G92 E0
G1 E-2 F3000
G1 Z0.65 F18000
M204 S1000
G1 X32.333 Y30.85
G1 Z0.25
G1 E2 F1800
;TYPE:Skirt
;WIDTH:0.52
G1 X30.423 Y32.929 E0.13683
G1 X28.589 Y35.249 E0.14334
G1 X26.35 Y38.682 E0.19869
G1 X24.965 Y41.295 E0.14334
G1 X23.832 Y43.881 E0.13683
G1 X22.89 Y46.542 E0.13683
G1 X22.143 Y49.264 E0.13683
G1 X21.595 Y52.033 E0.13683
G1 X21.25 Y54.835 E0.13683
G1 X21.109 Y57.654 E0.13683
G1 X21.118 Y60.973 E0.16087
G1 X21.613 Y62.813 E0.09235
G1 X36.801 Y89.119 E1.47233
G1 X38.146 Y90.468 E0.09235
G1 X41.133 Y92.2 E0.16738
G1 X43.528 Y93.423 E0.13033
G1 X44.942 Y94.049 E0.07494
G1 X47.582 Y95.047 E0.13683
G1 X50.159 Y95.817 E0.13033
G1 X51.662 Y96.178 E0.07494
G1 X54.439 Y96.683 E0.13683
G1 X57.112 Y96.975 E0.13033
G1 X59.933 Y97.082 E0.13683
G1 X61.479 Y97.054 E0.07494
G1 X64.16 Y96.859 E0.13033
G1 X66.954 Y96.456 E0.13683
G1 X68.469 Y96.149 E0.07493
G1 X71.072 Y95.473 E0.13033
G1 X72.545 Y95.004 E0.07494
G1 X75.182 Y93.997 E0.13683
G1 X77.62 Y92.863 E0.13033
G1 X78.984 Y92.135 E0.07494
G1 X81.854 Y90.468 E0.16087
G1 X83.199 Y89.119 E0.09235
G1 X98.387 Y62.813 E1.47233
G1 X98.882 Y60.973 E0.09235
G1 X98.891 Y57.654 E0.16087
G1 X98.75 Y54.835 E0.13683
G1 X98.383 Y51.901 E0.14334
G1 X97.509 Y47.896 E0.19869
G1 X96.663 Y45.203 E0.13684
G1 X95.625 Y42.578 E0.13683
G1 X94.336 Y39.916 E0.14334
G1 X92.92 Y37.474 E0.13683
G1 X90.557 Y34.124 E0.19869
G1 X88.732 Y31.971 E0.13683
G1 X86.754 Y29.956 E0.13683
G1 X84.636 Y28.09 E0.13683
G1 X82.388 Y26.382 E0.13683
G1 X80.023 Y24.842 E0.13683
G1 X77.029 Y23.122 E0.16738
G1 X75.188 Y22.631 E0.09235
G1 X44.812 Y22.631 E1.47233
G1 X42.971 Y23.122 E0.09235
G1 X39.977 Y24.842 E0.16738
G1 X37.612 Y26.382 E0.13684
G1 X34.389 Y28.915 E0.19869
G1 X32.377 Y30.809 E0.13392
G1 X32.696 Y31.148 F18000
G1 F1800
G1 X32.659 Y31.183 E0.00246
G1 X30.697 Y33.327 E0.14088
G1 X28.97 Y35.518 E0.1352
G1 X26.749 Y38.923 E0.19705
G1 X25.388 Y41.491 E0.14088
G1 X24.268 Y44.045 E0.13519
G1 X23.337 Y46.674 E0.13519
G1 X22.598 Y49.363 E0.13519
G1 X22.057 Y52.099 E0.13519
G1 X21.715 Y54.868 E0.13519
G1 X21.575 Y57.653 E0.13519
G1 X21.584 Y60.972 E0.16087
G1 X22.017 Y62.58 E0.08071
G1 X37.205 Y88.886 E1.47233
G1 X38.381 Y90.065 E0.08071
G1 X41.353 Y91.789 E0.16656
G1 X43.733 Y93.003 E0.12951
G1 X45.115 Y93.616 E0.0733
G1 X47.724 Y94.603 E0.13519
G1 X50.284 Y95.368 E0.12951
G1 X51.754 Y95.721 E0.0733
G1 X54.382 Y96.203 E0.12951
G1 X57.154 Y96.511 E0.13519
G1 X59.941 Y96.616 E0.13519
G1 X61.453 Y96.589 E0.07329
G1 X64.118 Y96.395 E0.12951
G1 X66.878 Y95.996 E0.13519
G1 X68.36 Y95.696 E0.07329
G1 X70.946 Y95.024 E0.12951
G1 X72.387 Y94.565 E0.07329
G1 X74.993 Y93.571 E0.13519
G1 X77.415 Y92.443 E0.12951
G1 X78.75 Y91.732 E0.07329
G1 X81.619 Y90.065 E0.16087
G1 X82.795 Y88.886 E0.08071
G1 X97.983 Y62.58 E1.47233
G1 X98.416 Y60.972 E0.08071
G1 X98.423 Y57.536 E0.16656
G1 X98.139 Y53.48 E0.19705
G1 X97.697 Y50.727 E0.13519
G1 X97.057 Y48.012 E0.13519
G1 X96.221 Y45.351 E0.1352
G1 X95.195 Y42.758 E0.13519
G1 X93.928 Y40.142 E0.14088
G1 X92.53 Y37.729 E0.13519
G1 X90.186 Y34.407 E0.19705
G1 X88.382 Y32.28 E0.13519
G1 X86.428 Y30.289 E0.13519
G1 X84.335 Y28.446 E0.13519
G1 X82.114 Y26.759 E0.13519
G1 X79.776 Y25.238 E0.13519
G1 X76.797 Y23.526 E0.16655
G1 X75.188 Y23.098 E0.08071
G1 X44.812 Y23.098 E1.47233
G1 X43.203 Y23.526 E0.08071
G1 X40.224 Y25.238 E0.16656
G1 X37.886 Y26.759 E0.13519
G1 X34.69 Y29.271 E0.19705
G1 X32.74 Y31.107 E0.12982
G1 E-2 F3000
M204 S1500
G1 Z0.65 F18000
M204 S1000
G1 X35.48 Y33.904
G1 Z0.25
G1 E2 F1800
;WIDTH:0.56
G1 X36.297 Y33.103 E0.06018
G1 X37.23 Y32.254 E0.06642
G1 X38.194 Y31.438 E0.06646
G1 X39.194 Y30.653 E0.06693
G1 X40.192 Y29.927 E0.06493
G1 X41.214 Y29.237 E0.0649
G1 X42.294 Y28.564 E0.06696
G1 X43.707 Y27.775 E0.08519
G1 X44.737 Y27.429 E0.05718
G1 X45.52 Y27.314 E0.04166
G1 X46.326 Y27.317 E0.0424
G1 X48.483 Y27.684 E0.11514
G1 X50.125 Y27.938 E0.08745
G1 X51.762 Y28.153 E0.08692
G1 X53.404 Y28.328 E0.08689
G1 X55.05 Y28.465 E0.08693
G1 X56.698 Y28.563 E0.08692
G1 X58.349 Y28.621 E0.0869
G1 X60 Y28.641 E0.08692
G1 X61.651 Y28.621 E0.08692
G1 X63.302 Y28.563 E0.0869
G1 X64.95 Y28.465 E0.08692
G1 X66.596 Y28.328 E0.08693
G1 X68.238 Y28.153 E0.08688
G1 X69.875 Y27.938 E0.08692
G1 X71.513 Y27.685 E0.08719
G1 X73.686 Y27.317 E0.11602
G1 X74.789 Y27.345 E0.05808
G1 X75.841 Y27.591 E0.05682
G1 X76.533 Y27.891 E0.03971
G1 X77.706 Y28.564 E0.07119
G1 X78.753 Y29.215 E0.06488
G1 X79.776 Y29.904 E0.06494
G1 X80.805 Y30.652 E0.0669
G1 X81.805 Y31.437 E0.06693
G1 X82.769 Y32.253 E0.06645
G1 X83.695 Y33.096 E0.06595
G1 X84.591 Y33.973 E0.06596
G1 X85.46 Y34.889 E0.06644
G1 X86.295 Y35.835 E0.06642
G1 X87.094 Y36.811 E0.06639
G1 X87.83 Y37.778 E0.06395
G1 X88.536 Y38.778 E0.06442
G1 X89.232 Y39.842 E0.06691
G1 X89.888 Y40.932 E0.06695
G1 X90.497 Y42.033 E0.06622
G1 X91.072 Y43.168 E0.06695
G1 X91.602 Y44.319 E0.06671
G1 X92.087 Y45.479 E0.06617
G1 X92.525 Y46.647 E0.06566
G1 X92.922 Y47.835 E0.06589
G1 X93.274 Y49.027 E0.0654
G1 X93.58 Y50.222 E0.06492
G1 X93.845 Y51.436 E0.06539
G1 X94.066 Y52.658 E0.0654
G1 X94.244 Y53.897 E0.06589
G1 X94.376 Y55.137 E0.06563
G1 X94.464 Y56.373 E0.0652
G1 X94.507 Y57.658 E0.06765
G1 X94.505 Y59.067 E0.07414
G1 X94.252 Y60.41 E0.07192
G1 X93.921 Y61.198 E0.04501
G1 X93.486 Y61.902 E0.04352
G1 X92.17 Y63.472 E0.10783
G1 X91.134 Y64.76 E0.08698
G1 X90.13 Y66.071 E0.0869
G1 X89.157 Y67.405 E0.08692
G1 X88.215 Y68.762 E0.08691
G1 X87.307 Y70.141 E0.08691
G1 X86.431 Y71.541 E0.08693
G1 X85.588 Y72.961 E0.0869
G1 X84.779 Y74.401 E0.08693
G1 X84.005 Y75.859 E0.0869
G1 X83.265 Y77.336 E0.08693
G1 X82.561 Y78.83 E0.08691
G1 X81.892 Y80.339 E0.0869
G1 X81.259 Y81.865 E0.08692
G1 X80.662 Y83.405 E0.08692
G1 X80.008 Y85.218 E0.10147
G1 X79.521 Y86.13 E0.05439
G1 X78.81 Y86.986 E0.05858
G1 X78.004 Y87.635 E0.05446
G1 X76.788 Y88.341 E0.07403
G1 X75.687 Y88.928 E0.06563
G1 X74.562 Y89.477 E0.06592
G1 X73.425 Y89.981 E0.06542
G1 X72.267 Y90.445 E0.06569
G1 X71.061 Y90.879 E0.06743
G1 X69.871 Y91.257 E0.06571
G1 X68.674 Y91.591 E0.06543
G1 X67.466 Y91.882 E0.06541
G1 X66.229 Y92.132 E0.06639
G1 X64.975 Y92.339 E0.0669
G1 X63.737 Y92.496 E0.06568
G1 X62.489 Y92.609 E0.06592
G1 X61.243 Y92.677 E0.0657
G1 X60 Y92.699 E0.06544
G1 X58.757 Y92.677 E0.06542
G1 X57.506 Y92.609 E0.06591
G1 X56.268 Y92.497 E0.06544
G1 X55.03 Y92.339 E0.06567
G1 X53.804 Y92.138 E0.0654
G1 X52.58 Y91.892 E0.06567
G1 X51.298 Y91.584 E0.06944
G1 X50.109 Y91.251 E0.06498
G1 X48.933 Y90.877 E0.06494
G1 X47.711 Y90.437 E0.06837
G1 X46.553 Y89.972 E0.06568
G1 X45.408 Y89.463 E0.0659
G1 X44.296 Y88.919 E0.06517
G1 X43.22 Y88.345 E0.0642
G1 X41.896 Y87.567 E0.08079
G1 X40.975 Y86.767 E0.0642
G1 X40.541 Y86.22 E0.03677
G1 X40.177 Y85.621 E0.03689
G1 X38.741 Y81.863 E0.21171
G1 X38.108 Y80.339 E0.08683
G1 X37.439 Y78.829 E0.08693
G1 X36.735 Y77.336 E0.0869
G1 X35.995 Y75.859 E0.08692
G1 X35.221 Y74.401 E0.08691
G1 X34.412 Y72.961 E0.08691
G1 X33.569 Y71.541 E0.08691
G1 X32.693 Y70.141 E0.08693
G1 X32.022 Y69.123 E0.06415
G1 X30.836 Y67.395 E0.11033
G1 X29.87 Y66.071 E0.08624
G1 X28.866 Y64.76 E0.08692
G1 X27.831 Y63.473 E0.08691
G1 X26.582 Y61.994 E0.10187
G1 X26.008 Y61.057 E0.05783
G1 X25.679 Y60.169 E0.04982
G1 X25.51 Y59.23 E0.05023
G1 X25.493 Y57.647 E0.08332
G1 X25.536 Y56.384 E0.0665
G1 X25.625 Y55.125 E0.06644
G1 X25.76 Y53.869 E0.06644
G1 X25.937 Y52.639 E0.06544
G1 X26.161 Y51.407 E0.06587
G1 X26.423 Y50.211 E0.06442
G1 X26.727 Y49.025 E0.06444
G1 X27.084 Y47.815 E0.06642
G1 X27.485 Y46.618 E0.06643
G1 X27.927 Y45.446 E0.06594
G1 X28.418 Y44.272 E0.06693
G1 X28.948 Y43.127 E0.06644
G1 X29.524 Y41.993 E0.06693
G1 X30.137 Y40.889 E0.06644
G1 X30.784 Y39.817 E0.06589
G1 X31.448 Y38.801 E0.06391
G1 X32.148 Y37.808 E0.06391
G1 X32.911 Y36.804 E0.06637
G1 X33.705 Y35.835 E0.06593
G1 X34.54 Y34.889 E0.06642
G1 X35.402 Y33.98 E0.06593
G1 X35.437 Y33.946 E0.00259
G1 X35.792 Y34.307 F18000
G1 F1800
G1 X36.648 Y33.468 E0.06309
G1 X37.567 Y32.631 E0.06545
G1 X38.517 Y31.827 E0.06548
G1 X39.496 Y31.059 E0.06547
G1 X40.486 Y30.339 E0.06445
G1 X41.493 Y29.659 E0.06394
G1 X42.546 Y29.003 E0.06529
G1 X43.934 Y28.228 E0.08364
G1 X44.834 Y27.926 E0.04999
G1 X45.54 Y27.82 E0.03755
G1 X46.262 Y27.82 E0.03803
G1 X48.401 Y28.184 E0.1142
G1 X50.053 Y28.44 E0.08796
G1 X51.702 Y28.656 E0.08755
G1 X53.356 Y28.833 E0.08752
G1 X55.014 Y28.97 E0.08756
G1 X56.674 Y29.069 E0.08755
G1 X58.337 Y29.128 E0.08754
G1 X60 Y29.147 E0.08755
G1 X61.663 Y29.128 E0.08755
G1 X63.326 Y29.069 E0.08754
G1 X64.986 Y28.97 E0.08755
G1 X66.644 Y28.833 E0.08756
G1 X68.298 Y28.656 E0.08751
G1 X69.947 Y28.44 E0.08755
G1 X71.594 Y28.184 E0.08771
G1 X73.7 Y27.824 E0.11244
G1 X74.701 Y27.845 E0.05272
G1 X75.662 Y28.065 E0.05185
G1 X76.294 Y28.337 E0.03621
G1 X77.442 Y28.997 E0.06971
G1 X78.481 Y29.643 E0.0644
G1 X79.49 Y30.322 E0.06398
G1 X80.496 Y31.053 E0.06544
G1 X81.482 Y31.827 E0.06596
G1 X82.431 Y32.63 E0.06547
G1 X83.344 Y33.461 E0.06498
G1 X84.233 Y34.332 E0.06547
G1 X85.09 Y35.234 E0.06547
G1 X85.912 Y36.167 E0.06545
G1 X86.694 Y37.121 E0.06494
G1 X87.424 Y38.081 E0.06347
G1 X88.12 Y39.066 E0.06347
G1 X88.805 Y40.115 E0.06594
G1 X89.452 Y41.189 E0.06597
G1 X90.052 Y42.274 E0.06524
G1 X90.618 Y43.392 E0.06598
G1 X91.137 Y44.518 E0.06525
G1 X91.614 Y45.661 E0.0652
G1 X92.049 Y46.821 E0.06518
G1 X92.438 Y47.982 E0.06444
G1 X92.784 Y49.157 E0.06444
G1 X93.088 Y50.343 E0.06444
G1 X93.349 Y51.539 E0.06443
G1 X93.567 Y52.744 E0.06444
G1 X93.742 Y53.965 E0.06492
G1 X93.872 Y55.178 E0.06419
G1 X93.958 Y56.395 E0.06422
G1 X94.001 Y57.67 E0.06717
G1 X93.998 Y59.042 E0.0722
G1 X93.774 Y60.24 E0.06411
G1 X93.479 Y60.949 E0.04043
G1 X93.065 Y61.62 E0.04149
G1 X91.779 Y63.151 E0.10521
G1 X90.736 Y64.447 E0.08758
G1 X89.724 Y65.767 E0.08753
G1 X88.744 Y67.111 E0.08755
G1 X87.796 Y68.478 E0.08754
G1 X86.881 Y69.867 E0.08754
G1 X85.998 Y71.277 E0.08756
G1 X85.15 Y72.708 E0.08753
G1 X84.335 Y74.158 E0.08756
G1 X83.555 Y75.627 E0.08753
G1 X82.81 Y77.115 E0.08755
G1 X82.1 Y78.619 E0.08754
G1 X81.426 Y80.14 E0.08753
G1 X80.789 Y81.676 E0.08755
G1 X80.188 Y83.227 E0.08755
G1 X79.538 Y85.03 E0.10083
G1 X79.114 Y85.828 E0.04757
G1 X78.472 Y86.609 E0.05322
G1 X77.733 Y87.207 E0.05002
G1 X76.538 Y87.901 E0.07275
G1 X75.453 Y88.479 E0.06468
G1 X74.344 Y89.02 E0.06495
G1 X73.224 Y89.516 E0.06445
G1 X72.091 Y89.971 E0.06424
G1 X70.894 Y90.4 E0.06694
G1 X69.722 Y90.773 E0.06474
G1 X68.542 Y91.102 E0.06446
G1 X67.352 Y91.389 E0.06445
G1 X66.142 Y91.634 E0.06494
G1 X64.906 Y91.837 E0.06593
G1 X63.687 Y91.992 E0.06471
G1 X62.457 Y92.104 E0.06496
G1 X61.229 Y92.171 E0.06473
G1 X60.004 Y92.193 E0.06448
G1 X58.78 Y92.171 E0.06445
G1 X57.548 Y92.104 E0.06494
G1 X56.318 Y91.993 E0.06496
G1 X55.099 Y91.838 E0.0647
G1 X53.89 Y91.639 E0.06444
G1 X52.685 Y91.397 E0.06471
G1 X51.429 Y91.095 E0.06796
G1 X50.249 Y90.765 E0.06449
G1 X49.091 Y90.396 E0.06398
G1 X47.895 Y89.965 E0.0669
G1 X46.754 Y89.507 E0.06471
G1 X45.627 Y89.006 E0.06494
G1 X44.53 Y88.47 E0.06421
G1 X43.463 Y87.901 E0.06369
G1 X42.173 Y87.143 E0.07873
G1 X41.357 Y86.434 E0.05686
G1 X40.948 Y85.918 E0.03469
G1 X40.622 Y85.378 E0.03314
G1 X39.211 Y81.676 E0.20854
G1 X38.574 Y80.14 E0.08753
G1 X37.9 Y78.619 E0.08756
G1 X37.19 Y77.115 E0.08753
G1 X36.445 Y75.627 E0.08755
G1 X35.665 Y74.158 E0.08754
G1 X34.85 Y72.708 E0.08754
G1 X34.002 Y71.277 E0.08754
G1 X33.119 Y69.867 E0.08756
G1 X32.443 Y68.84 E0.06472
G1 X31.249 Y67.102 E0.11096
G1 X30.276 Y65.768 E0.08693
G1 X29.264 Y64.447 E0.08755
G1 X28.221 Y63.151 E0.08754
G1 X26.981 Y61.682 E0.10119
G1 X26.474 Y60.857 E0.05094
G1 X26.162 Y60.015 E0.0473
G1 X26.013 Y59.163 E0.04549
G1 X25.999 Y57.658 E0.07919
G1 X26.041 Y56.415 E0.06548
G1 X26.129 Y55.174 E0.06546
G1 X26.261 Y53.937 E0.06547
G1 X26.438 Y52.716 E0.06496
G1 X26.657 Y51.511 E0.06443
G1 X26.916 Y50.324 E0.06395
G1 X27.216 Y49.156 E0.06349
G1 X27.568 Y47.963 E0.06546
G1 X27.964 Y46.784 E0.06545
G1 X28.399 Y45.628 E0.06497
G1 X28.883 Y44.472 E0.06595
G1 X29.406 Y43.344 E0.06546
G1 X29.969 Y42.235 E0.06547
G1 X30.573 Y41.147 E0.06547
G1 X31.21 Y40.091 E0.06493
G1 X31.87 Y39.082 E0.06344
G1 X32.559 Y38.104 E0.06297
G1 X33.306 Y37.122 E0.06493
G1 X34.088 Y36.167 E0.06496
G1 X34.91 Y35.234 E0.06544
G1 X35.749 Y34.35 E0.06415
G1 X36.117 Y34.698 F18000
G1 F1800
G1 X36.992 Y33.84 E0.06455
G1 X37.898 Y33.015 E0.06448
G1 X38.834 Y32.223 E0.06451
G1 X39.805 Y31.46 E0.06499
G1 X40.773 Y30.756 E0.06301
G1 X41.765 Y30.087 E0.06297
G1 X42.809 Y29.436 E0.06473
G1 X44.16 Y28.682 E0.08144
G1 X44.931 Y28.424 E0.0428
G1 X45.596 Y28.324 E0.03537
G1 X46.239 Y28.326 E0.03389
G1 X48.32 Y28.683 E0.11108
G1 X49.981 Y28.941 E0.08849
G1 X51.643 Y29.159 E0.08818
G1 X53.308 Y29.337 E0.08815
G1 X54.978 Y29.475 E0.08819
G1 X56.65 Y29.574 E0.08818
G1 X58.325 Y29.634 E0.08817
G1 X60 Y29.654 E0.08818
G1 X61.675 Y29.634 E0.08818
G1 X63.35 Y29.574 E0.08817
G1 X65.022 Y29.475 E0.08818
G1 X66.692 Y29.337 E0.08819
G1 X68.357 Y29.159 E0.08815
G1 X70.019 Y28.941 E0.08818
G1 X71.676 Y28.684 E0.08827
G1 X73.716 Y28.331 E0.10895
G1 X74.616 Y28.344 E0.04736
G1 X75.484 Y28.54 E0.04685
G1 X76.055 Y28.783 E0.03264
G1 X77.179 Y29.429 E0.06822
G1 X78.202 Y30.066 E0.06345
G1 X79.203 Y30.739 E0.0635
G1 X80.187 Y31.454 E0.06399
G1 X81.158 Y32.216 E0.06498
G1 X82.094 Y33.008 E0.0645
G1 X83 Y33.833 E0.06449
G1 X83.876 Y34.69 E0.0645
G1 X84.719 Y35.579 E0.06449
G1 X85.523 Y36.491 E0.06399
G1 X86.294 Y37.431 E0.06398
G1 X87.018 Y38.384 E0.06299
G1 X87.704 Y39.355 E0.06252
G1 X88.379 Y40.388 E0.06497
G1 X89.011 Y41.438 E0.06451
G1 X89.602 Y42.507 E0.06426
G1 X90.16 Y43.609 E0.065
G1 X90.675 Y44.726 E0.06476
G1 X91.142 Y45.844 E0.06375
G1 X91.571 Y46.986 E0.06421
G1 X91.953 Y48.13 E0.06348
G1 X92.295 Y49.287 E0.06348
G1 X92.594 Y50.455 E0.06348
G1 X92.853 Y51.643 E0.06395
G1 X93.068 Y52.829 E0.06347
G1 X93.239 Y54.023 E0.06348
G1 X93.367 Y55.218 E0.06323
G1 X93.452 Y56.417 E0.06325
G1 X93.495 Y57.683 E0.06668
G1 X93.492 Y59.018 E0.07026
G1 X93.296 Y60.07 E0.05631
G1 X93.02 Y60.736 E0.03794
G1 X92.645 Y61.337 E0.03727
G1 X91.388 Y62.829 E0.10268
G1 X90.338 Y64.134 E0.08819
G1 X89.319 Y65.464 E0.08816
G1 X88.331 Y66.818 E0.08818
G1 X87.377 Y68.195 E0.08817
G1 X86.455 Y69.593 E0.08817
G1 X85.566 Y71.014 E0.08819
G1 X84.711 Y72.454 E0.08816
G1 X83.89 Y73.915 E0.08819
G1 X83.105 Y75.395 E0.08816
G1 X82.354 Y76.893 E0.08818
G1 X81.64 Y78.408 E0.08818
G1 X80.961 Y79.94 E0.08817
G1 X80.319 Y81.488 E0.08818
G1 X79.713 Y83.05 E0.08818
G1 X79.068 Y84.841 E0.10022
G1 X78.705 Y85.528 E0.04085
G1 X78.132 Y86.233 E0.04784
G1 X77.462 Y86.779 E0.04549
G1 X76.295 Y87.456 E0.07098
G1 X75.227 Y88.026 E0.06371
G1 X74.134 Y88.559 E0.06399
G1 X73.031 Y89.048 E0.06349
G1 X71.907 Y89.499 E0.06375
