; generated by SuperSlicer 2.4 on 2023-12-08 at 23:15:26 UTC


;
;

;
;
; TODO: check the size of the extruder and the y-bar clearance. Optimize & test supports.

; external perimeters extrusion width = 0.40mm
; perimeters extrusion width = 0.40mm
; infill extrusion width = 0.40mm
; solid infill extrusion width = 0.40mm
; top infill extrusion width = 0.40mm
; first layer extrusion width = 0.40mm

; object:{"name":"planet_gear_bearing","id":"planet_gear_bearing.STL id:0 copy 0","object_center":[60.000000,60.000000,0.000000],"boundingbox_center":[60.000000,60.000000,3.000000],"boundingbox_size":[25.843838,25.843838,6.000000]}
; plater:{"center":[60.000000,60.000000,0.000000],"boundingbox_center":[60.000000,60.000000,3.000000],"boundingbox_size":[25.843838,25.843838,6.000000]}

;TYPE:Custom
; M190 S0
;M109 S0 ; uncomment to remove set&wait temp gcode added automatically after this start gcode
print_start EXTRUDER=245 BED=90 CHAMBER=50

;G92 E0
;G1 E10 F1500 ; prime the nozzle
M107
G21 ; set units to millimeters
G90 ; use absolute coordinates
M83 ; use relative distances for extrusion
SET_PRESSURE_ADVANCE ADVANCE=0.04
;_TOOLCHANGE 0
M104 S245 ; set temperature
M109 S245 ; set temperature and wait for it to be reached
M190 S90 ; set bed temperature and wait for it to be reached
M107
;LAYER_CHANGE
;Z:0.25
;HEIGHT:0.25
;BEFORE_LAYER_CHANGE
;0.25


G1 Z0.25 F18000
;AFTER_LAYER_CHANGE
;0.25
TIMELAPSE_TAKE_FRAME
G92 E0
G1 E-2 F3000
G1 Z0.65 F18000
M204 S1000
G1 X46.98 Y48.099
G1 Z0.25
G1 E2 F1800
;TYPE:Skirt
;WIDTH:0.4
G1 X46.5 Y48.568 E0.02416
G1 X46.077 Y49.051 E0.0231
G1 X45.464 Y49.919 E0.03826
G1 X44.001 Y52.452 E0.1053
G1 X43.717 Y53.027 E0.0231
G1 X43.35 Y54.024 E0.03826
G1 X42.593 Y56.85 E0.1053
G1 X42.412 Y57.897 E0.03826
G1 X42.37 Y61.462 E0.12835
G1 X42.412 Y62.103 E0.0231
G1 X42.593 Y63.15 E0.03826
G1 X43.35 Y65.976 E0.1053
G1 X43.556 Y66.583 E0.0231
G1 X44.001 Y67.548 E0.03826
G1 X45.464 Y70.081 E0.1053
G1 X46.077 Y70.949 E0.03826
G1 X48.568 Y73.5 E0.12835
G1 X49.051 Y73.923 E0.0231
G1 X49.919 Y74.536 E0.03826
G1 X52.452 Y75.999 E0.1053
G1 X53.027 Y76.283 E0.0231
G1 X54.024 Y76.65 E0.03826
G1 X56.85 Y77.407 E0.1053
G1 X57.897 Y77.588 E0.03826
G1 X61.462 Y77.63 E0.12835
G1 X62.103 Y77.588 E0.0231
G1 X63.15 Y77.407 E0.03826
G1 X65.976 Y76.65 E0.1053
G1 X66.583 Y76.444 E0.0231
G1 X67.548 Y75.999 E0.03826
G1 X70.081 Y74.536 E0.1053
G1 X70.949 Y73.923 E0.03826
G1 X73.5 Y71.432 E0.12835
G1 X73.923 Y70.949 E0.0231
G1 X74.536 Y70.081 E0.03826
G1 X75.999 Y67.548 E0.1053
G1 X76.444 Y66.583 E0.03826
G1 X76.65 Y65.976 E0.0231
G1 X77.407 Y63.15 E0.1053
G1 X77.588 Y62.103 E0.03826
G1 X77.63 Y58.538 E0.12835
G1 X77.588 Y57.897 E0.0231
G1 X77.407 Y56.85 E0.03826
G1 X76.65 Y54.024 E0.1053
G1 X76.283 Y53.027 E0.03826
G1 X75.999 Y52.452 E0.0231
G1 X74.536 Y49.919 E0.1053
G1 X73.923 Y49.051 E0.03826
G1 X73.5 Y48.568 E0.0231
G1 X70.949 Y46.077 E0.12835
G1 X70.081 Y45.464 E0.03826
G1 X67.548 Y44.001 E0.1053
G1 X66.583 Y43.556 E0.03826
G1 X65.976 Y43.35 E0.0231
G1 X63.15 Y42.593 E0.1053
G1 X62.103 Y42.412 E0.03826
G1 X58.538 Y42.37 E0.12835
G1 X57.897 Y42.412 E0.0231
G1 X56.85 Y42.593 E0.03826
G1 X54.024 Y43.35 E0.1053
G1 X53.027 Y43.717 E0.03826
G1 X52.452 Y44.001 E0.0231
G1 X49.919 Y45.464 E0.1053
G1 X49.051 Y46.077 E0.03826
G1 X47.023 Y48.057 E0.10203
G1 X47.289 Y48.324 F18000
G1 F1800
G1 X46.352 Y49.261 E0.04774
G1 X45.764 Y50.092 E0.03663
G1 X44.301 Y52.625 E0.1053
G1 X43.684 Y54.114 E0.05803
G1 X42.927 Y56.939 E0.1053
G1 X42.756 Y57.943 E0.03663
G1 X42.756 Y62.057 E0.14813
G1 X42.927 Y63.061 E0.03663
G1 X43.684 Y65.886 E0.1053
G1 X44.301 Y67.375 E0.05803
G1 X45.764 Y69.908 E0.1053
G1 X46.352 Y70.739 E0.03663
G1 X49.261 Y73.648 E0.14814
G1 X50.092 Y74.236 E0.03663
G1 X52.625 Y75.699 E0.1053
G1 X54.114 Y76.316 E0.05803
G1 X56.939 Y77.073 E0.1053
G1 X57.943 Y77.244 E0.03663
G1 X62.057 Y77.244 E0.14813
G1 X63.061 Y77.073 E0.03663
G1 X65.886 Y76.316 E0.1053
G1 X67.375 Y75.699 E0.05803
G1 X69.908 Y74.236 E0.1053
G1 X70.739 Y73.648 E0.03663
G1 X73.648 Y70.739 E0.14814
G1 X74.236 Y69.908 E0.03663
G1 X75.699 Y67.375 E0.1053
G1 X76.316 Y65.886 E0.05803
G1 X77.073 Y63.061 E0.1053
G1 X77.244 Y62.057 E0.03663
G1 X77.244 Y57.943 E0.14813
G1 X77.073 Y56.939 E0.03663
G1 X76.316 Y54.114 E0.1053
G1 X75.699 Y52.625 E0.05803
G1 X74.236 Y50.092 E0.1053
G1 X73.648 Y49.261 E0.03663
G1 X70.739 Y46.352 E0.14814
G1 X69.908 Y45.764 E0.03663
G1 X67.375 Y44.301 E0.1053
G1 X65.886 Y43.684 E0.05803
G1 X63.061 Y42.927 E0.1053
G1 X62.057 Y42.756 E0.03663
G1 X57.943 Y42.756 E0.14813
G1 X56.939 Y42.927 E0.03663
G1 X54.114 Y43.684 E0.1053
G1 X52.625 Y44.301 E0.05803
G1 X50.092 Y45.764 E0.1053
G1 X49.261 Y46.352 E0.03663
G1 X47.332 Y48.281 E0.09824
G1 X47.575 Y48.524 F18000
G1 F1800
G1 X46.626 Y49.472 E0.04827
G1 X46.063 Y50.265 E0.035
G1 X44.601 Y52.798 E0.1053
G1 X44.019 Y54.204 E0.05477
G1 X43.262 Y57.029 E0.1053
G1 X43.099 Y57.988 E0.035
G1 X43.099 Y62.012 E0.14488
G1 X43.262 Y62.971 E0.035
G1 X44.019 Y65.796 E0.1053
G1 X44.601 Y67.202 E0.05477
G1 X46.063 Y69.735 E0.1053
G1 X46.626 Y70.528 E0.035
G1 X49.472 Y73.374 E0.14488
G1 X50.265 Y73.937 E0.035
G1 X52.798 Y75.399 E0.1053
G1 X54.204 Y75.981 E0.05477
G1 X57.029 Y76.738 E0.1053
G1 X57.988 Y76.901 E0.035
G1 X62.012 Y76.901 E0.14488
G1 X62.971 Y76.738 E0.035
G1 X65.796 Y75.981 E0.1053
G1 X67.202 Y75.399 E0.05477
G1 X69.735 Y73.937 E0.1053
G1 X70.528 Y73.374 E0.035
G1 X73.374 Y70.528 E0.14488
G1 X73.937 Y69.735 E0.035
G1 X75.399 Y67.202 E0.1053
G1 X75.981 Y65.796 E0.05477
G1 X76.738 Y62.971 E0.1053
G1 X76.901 Y62.012 E0.035
G1 X76.901 Y57.988 E0.14488
G1 X76.738 Y57.029 E0.035
G1 X75.981 Y54.204 E0.1053
G1 X75.399 Y52.798 E0.05477
G1 X73.937 Y50.265 E0.1053
G1 X73.374 Y49.472 E0.035
G1 X70.528 Y46.626 E0.14488
G1 X69.735 Y46.063 E0.035
G1 X67.202 Y44.601 E0.1053
G1 X65.796 Y44.019 E0.05477
G1 X62.971 Y43.262 E0.1053
G1 X62.012 Y43.099 E0.035
G1 X57.988 Y43.099 E0.14488
G1 X57.029 Y43.262 E0.035
G1 X54.204 Y44.019 E0.1053
G1 X52.798 Y44.601 E0.05477
G1 X50.265 Y46.063 E0.1053
G1 X49.472 Y46.626 E0.035
G1 X47.617 Y48.482 E0.09445
G1 X47.86 Y48.724 F18000
G1 F1800
G1 X46.901 Y49.683 E0.04881
G1 X46.363 Y50.438 E0.03337
G1 X44.901 Y52.971 E0.1053
G1 X44.353 Y54.293 E0.05152
G1 X43.596 Y57.119 E0.1053
G1 X43.443 Y58.033 E0.03337
G1 X43.443 Y61.967 E0.14163
G1 X43.596 Y62.881 E0.03337
G1 X44.353 Y65.707 E0.1053
G1 X44.901 Y67.029 E0.05152
G1 X46.363 Y69.562 E0.1053
G1 X46.901 Y70.317 E0.03337
G1 X49.683 Y73.099 E0.14163
G1 X50.438 Y73.637 E0.03337
G1 X52.971 Y75.099 E0.1053
G1 X54.293 Y75.647 E0.05152
G1 X57.119 Y76.404 E0.1053
G1 X58.033 Y76.557 E0.03337
G1 X61.967 Y76.557 E0.14163
G1 X62.881 Y76.404 E0.03337
G1 X65.707 Y75.647 E0.1053
G1 X67.029 Y75.099 E0.05152
G1 X69.562 Y73.637 E0.1053
G1 X70.317 Y73.099 E0.03337
G1 X73.099 Y70.317 E0.14163
G1 X73.637 Y69.562 E0.03337
G1 X75.099 Y67.029 E0.1053
G1 X75.647 Y65.707 E0.05152
G1 X76.404 Y62.881 E0.1053
G1 X76.557 Y61.967 E0.03337
G1 X76.557 Y58.033 E0.14163
G1 X76.404 Y57.119 E0.03337
G1 X75.647 Y54.293 E0.1053
G1 X75.099 Y52.971 E0.05152
G1 X73.637 Y50.438 E0.1053
G1 X73.099 Y49.683 E0.03337
G1 X70.317 Y46.901 E0.14163
G1 X69.562 Y46.363 E0.03337
G1 X67.029 Y44.901 E0.1053
G1 X65.707 Y44.353 E0.05152
G1 X62.881 Y43.596 E0.1053
G1 X61.967 Y43.443 E0.03337
G1 X58.033 Y43.443 E0.14163
G1 X57.119 Y43.596 E0.03337
G1 X54.293 Y44.353 E0.1053
G1 X52.971 Y44.901 E0.05152
G1 X50.438 Y46.363 E0.1053
G1 X49.683 Y46.901 E0.03337
G1 X47.902 Y48.682 E0.09066
G1 X48.145 Y48.925 F18000
G1 F1800
G1 X47.176 Y49.894 E0.04934
G1 X46.663 Y50.611 E0.03174
G1 X45.201 Y53.144 E0.1053
G1 X44.688 Y54.383 E0.04826
G1 X43.931 Y57.208 E0.1053
G1 X43.786 Y58.078 E0.03174
G1 X43.786 Y61.922 E0.13837
G1 X43.931 Y62.792 E0.03174
G1 X44.688 Y65.617 E0.1053
G1 X45.201 Y66.856 E0.04826
G1 X46.663 Y69.389 E0.1053
G1 X47.176 Y70.106 E0.03174
G1 X49.894 Y72.824 E0.13837
G1 X50.611 Y73.337 E0.03174
G1 X53.144 Y74.799 E0.1053
G1 X54.383 Y75.312 E0.04826
G1 X57.208 Y76.069 E0.1053
G1 X58.078 Y76.214 E0.03174
G1 X61.922 Y76.214 E0.13837
G1 X62.792 Y76.069 E0.03174
G1 X65.617 Y75.312 E0.1053
G1 X66.856 Y74.799 E0.04826
G1 X69.389 Y73.337 E0.1053
G1 X70.106 Y72.824 E0.03174
G1 X72.824 Y70.106 E0.13837
G1 X73.337 Y69.389 E0.03174
G1 X74.799 Y66.856 E0.1053
G1 X75.312 Y65.617 E0.04826
G1 X76.069 Y62.792 E0.1053
G1 X76.214 Y61.922 E0.03174
G1 X76.214 Y58.078 E0.13837
G1 X76.069 Y57.208 E0.03174
G1 X75.312 Y54.383 E0.1053
G1 X74.799 Y53.144 E0.04826
G1 X73.337 Y50.611 E0.1053
G1 X72.824 Y49.894 E0.03174
G1 X70.106 Y47.176 E0.13837
G1 X69.389 Y46.663 E0.03174
G1 X66.856 Y45.201 E0.1053
G1 X65.617 Y44.688 E0.04826
G1 X62.792 Y43.931 E0.1053
G1 X61.922 Y43.786 E0.03174
G1 X58.078 Y43.786 E0.13837
G1 X57.208 Y43.931 E0.03174
G1 X54.383 Y44.688 E0.1053
G1 X53.144 Y45.201 E0.04826
G1 X50.611 Y46.663 E0.1053
G1 X49.894 Y47.176 E0.03174
G1 X48.187 Y48.882 E0.08687
G1 X48.43 Y49.125 F18000
G1 F1800
G1 X47.451 Y50.105 E0.04987
G1 X46.963 Y50.785 E0.03011
G1 X45.501 Y53.318 E0.1053
G1 X45.022 Y54.473 E0.04501
G1 X44.265 Y57.298 E0.1053
G1 X44.129 Y58.123 E0.03011
G1 X44.129 Y61.877 E0.13512
G1 X44.265 Y62.702 E0.03011
G1 X45.022 Y65.527 E0.1053
G1 X45.501 Y66.682 E0.04501
G1 X46.963 Y69.215 E0.1053
G1 X47.451 Y69.895 E0.03011
G1 X50.105 Y72.549 E0.13512
G1 X50.785 Y73.037 E0.03011
G1 X53.318 Y74.499 E0.1053
G1 X54.473 Y74.978 E0.04501
G1 X57.298 Y75.735 E0.1053
G1 X58.123 Y75.871 E0.03011
G1 X61.877 Y75.871 E0.13512
G1 X62.702 Y75.735 E0.03011
G1 X65.527 Y74.978 E0.1053
G1 X66.682 Y74.499 E0.04501
G1 X69.215 Y73.037 E0.1053
G1 X69.895 Y72.549 E0.03011
G1 X72.549 Y69.895 E0.13512
G1 X73.037 Y69.215 E0.03011
G1 X74.499 Y66.682 E0.1053
G1 X74.978 Y65.527 E0.04501
G1 X75.735 Y62.702 E0.1053
G1 X75.871 Y61.877 E0.03011
G1 X75.871 Y58.123 E0.13512
G1 X75.735 Y57.298 E0.03011
G1 X74.978 Y54.473 E0.1053
G1 X74.499 Y53.318 E0.04501
G1 X73.037 Y50.785 E0.1053
G1 X72.549 Y50.105 E0.03011
G1 X69.895 Y47.451 E0.13512
G1 X69.215 Y46.963 E0.03011
G1 X66.682 Y45.501 E0.1053
G1 X65.527 Y45.022 E0.04501
G1 X62.702 Y44.265 E0.1053
G1 X61.877 Y44.129 E0.03011
G1 X58.123 Y44.129 E0.13512
G1 X57.298 Y44.265 E0.03011
G1 X54.473 Y45.022 E0.1053
G1 X53.318 Y45.501 E0.04501
G1 X50.785 Y46.963 E0.1053
G1 X50.105 Y47.451 E0.03011
G1 X48.473 Y49.083 E0.08309
G1 E-2 F3000
M204 S1500
G1 Z0.65 F18000
; printing object planet_gear_bearing.STL id:0 copy 0
; acceleration to travel
G1 X51.605 Y51.916
; decel to extrusion
M204 S1000
G1 X53.693 Y53.804
; end travel
G1 Z0.25
G1 E2 F1800
;TYPE:Internal perimeter
G1 X53.052 Y54.513 E0.04129
G1 X52.383 Y55.488 E0.05109
G1 X51.849 Y56.544 E0.05109
G1 X51.462 Y57.661 E0.05109
G1 X51.226 Y58.82 E0.05109
G1 X51.147 Y60 E0.05109
G1 X51.226 Y61.18 E0.05109
G1 X51.462 Y62.339 E0.05109
G1 X51.849 Y63.456 E0.05109
G1 X52.383 Y64.512 E0.05109
G1 X53.052 Y65.487 E0.05109
G1 X53.845 Y66.364 E0.05109
G1 X54.749 Y67.127 E0.05109
G1 X55.745 Y67.764 E0.05109
G1 X56.818 Y68.261 E0.05109
G1 X57.948 Y68.612 E0.05109
G1 X59.114 Y68.809 E0.05109
G1 X60.296 Y68.848 E0.05109
G1 X61.473 Y68.73 E0.05109
G1 X62.623 Y68.456 E0.05109
G1 X63.727 Y68.03 E0.05109
G1 X64.764 Y67.462 E0.05109
G1 X65.716 Y66.761 E0.05109
G1 X66.566 Y65.938 E0.05109
G1 X67.299 Y65.01 E0.05109
G1 X67.901 Y63.993 E0.05109
G1 X68.363 Y62.904 E0.05109
G1 X68.676 Y61.763 E0.05109
G1 X68.83 Y60.613 E0.05015
G1 X68.85 Y60.011 E0.026
G1 X68.83 Y59.388 E0.02694
G1 X68.676 Y58.237 E0.05018
G1 X68.363 Y57.096 E0.05109
G1 X67.901 Y56.007 E0.05109
G1 X67.299 Y54.99 E0.05109
G1 X66.566 Y54.062 E0.05109
G1 X65.716 Y53.239 E0.05109
G1 X64.764 Y52.538 E0.05109
G1 X63.727 Y51.97 E0.05109
G1 X62.623 Y51.544 E0.05109
G1 X61.473 Y51.27 E0.05109
G1 X60.296 Y51.152 E0.05109
G1 X59.873 Y51.166 E0.01829
G1 X59.114 Y51.191 E0.0328
G1 X57.948 Y51.388 E0.05109
G1 X56.818 Y51.739 E0.05109
G1 X55.745 Y52.236 E0.05109
G1 X54.749 Y52.873 E0.05109
G1 X53.845 Y53.636 E0.05109
G1 X53.734 Y53.76 E0.00721
G1 X53.95 Y54.037 F18000
G1 F1800
G1 X53.325 Y54.728 E0.04029
G1 X52.682 Y55.665 E0.04908
G1 X52.169 Y56.679 E0.04908
G1 X51.796 Y57.753 E0.04908
G1 X51.57 Y58.866 E0.04909
G1 X51.494 Y60 E0.04908
G1 X51.57 Y61.134 E0.04908
G1 X51.796 Y62.247 E0.04909
G1 X52.169 Y63.321 E0.04909
G1 X52.682 Y64.335 E0.04908
G1 X53.325 Y65.272 E0.04909
G1 X54.087 Y66.114 E0.04909
G1 X54.954 Y66.848 E0.04908
G1 X55.912 Y67.459 E0.04909
G1 X56.943 Y67.938 E0.04908
G1 X58.028 Y68.274 E0.04909
G1 X59.149 Y68.463 E0.04908
G1 X60.284 Y68.501 E0.04908
G1 X61.415 Y68.387 E0.04909
G1 X62.52 Y68.124 E0.04909
G1 X63.58 Y67.716 E0.04908
G1 X64.577 Y67.17 E0.04908
G1 X65.492 Y66.496 E0.04908
G1 X66.308 Y65.706 E0.04909
G1 X67.013 Y64.814 E0.04908
G1 X67.592 Y63.836 E0.04909
G1 X68.035 Y62.79 E0.04909
G1 X68.335 Y61.694 E0.04908
G1 X68.485 Y60.584 E0.04839
G1 X68.504 Y60.011 E0.02476
G1 X68.485 Y59.417 E0.02569
G1 X68.335 Y58.306 E0.04842
G1 X68.035 Y57.21 E0.04908
G1 X67.592 Y56.164 E0.04909
G1 X67.013 Y55.186 E0.04909
G1 X66.308 Y54.294 E0.04908
G1 X65.492 Y53.504 E0.04909
G1 X64.577 Y52.83 E0.04908
G1 X63.58 Y52.284 E0.04908
G1 X62.52 Y51.876 E0.04908
G1 X61.415 Y51.613 E0.04909
G1 X60.284 Y51.499 E0.04908
G1 X59.884 Y51.512 E0.01728
G1 X59.149 Y51.537 E0.0318
G1 X58.028 Y51.726 E0.04908
G1 X56.943 Y52.062 E0.04908
G1 X55.912 Y52.541 E0.04908
G1 X54.954 Y53.152 E0.04908
G1 X54.087 Y53.886 E0.04908
G1 X53.99 Y53.992 E0.0062
G1 X54.207 Y54.269 F18000
G1 F1800
G1 X53.597 Y54.944 E0.03929
G1 X52.98 Y55.842 E0.04708
G1 X52.489 Y56.815 E0.04708
G1 X52.131 Y57.844 E0.04708
G1 X51.914 Y58.913 E0.04708
G1 X51.841 Y60 E0.04708
G1 X51.914 Y61.087 E0.04708
G1 X52.131 Y62.156 E0.04708
G1 X52.489 Y63.185 E0.04708
G1 X52.98 Y64.158 E0.04708
G1 X53.597 Y65.056 E0.04708
G1 X54.328 Y65.865 E0.04708
G1 X55.16 Y66.568 E0.04708
G1 X56.079 Y67.155 E0.04708
G1 X57.068 Y67.614 E0.04708
G1 X58.109 Y67.936 E0.04708
G1 X59.183 Y68.118 E0.04708
G1 X60.273 Y68.154 E0.04708
G1 X61.357 Y68.045 E0.04708
G1 X62.417 Y67.792 E0.04708
G1 X63.434 Y67.401 E0.04708
G1 X64.39 Y66.877 E0.04708
G1 X65.268 Y66.23 E0.04708
G1 X66.051 Y65.473 E0.04708
G1 X66.726 Y64.617 E0.04708
G1 X67.282 Y63.68 E0.04708
G1 X67.707 Y62.676 E0.04708
G1 X67.995 Y61.625 E0.04708
G1 X68.139 Y60.555 E0.04664
G1 X68.157 Y60.011 E0.02352
G1 X68.139 Y59.445 E0.02444
G1 X67.995 Y58.375 E0.04666
G1 X67.707 Y57.324 E0.04708
G1 X67.282 Y56.32 E0.04708
G1 X66.726 Y55.383 E0.04708
G1 X66.051 Y54.527 E0.04708
G1 X65.268 Y53.77 E0.04708
G1 X64.39 Y53.123 E0.04708
G1 X63.434 Y52.599 E0.04708
G1 X62.417 Y52.208 E0.04708
G1 X61.357 Y51.955 E0.04708
G1 X60.273 Y51.846 E0.04708
G1 X59.896 Y51.858 E0.01628
G1 X59.183 Y51.882 E0.0308
G1 X58.109 Y52.064 E0.04708
G1 X57.068 Y52.386 E0.04708
G1 X56.079 Y52.845 E0.04708
G1 X55.16 Y53.432 E0.04708
G1 X54.328 Y54.135 E0.04708
G1 X54.247 Y54.225 E0.0052
G1 X54.464 Y54.501 F18000
;TYPE:External perimeter
G1 F1800
G1 X53.869 Y55.159 E0.03829
G1 X53.279 Y56.019 E0.04508
G1 X52.808 Y56.95 E0.04508
G1 X52.466 Y57.936 E0.04508
G1 X52.258 Y58.959 E0.04508
G1 X52.188 Y60 E0.04508
G1 X52.258 Y61.041 E0.04508
G1 X52.466 Y62.064 E0.04508
G1 X52.808 Y63.05 E0.04508
G1 X53.279 Y63.981 E0.04508
G1 X53.869 Y64.841 E0.04508
G1 X54.569 Y65.615 E0.04508
G1 X55.366 Y66.289 E0.04508
G1 X56.246 Y66.85 E0.04508
G1 X57.192 Y67.29 E0.04508
G1 X58.189 Y67.599 E0.04508
G1 X59.218 Y67.772 E0.04508
G1 X60.261 Y67.807 E0.04508
G1 X61.299 Y67.703 E0.04508
G1 X62.314 Y67.461 E0.04508
G1 X63.288 Y67.086 E0.04508
G1 X64.203 Y66.584 E0.04508
G1 X65.043 Y65.965 E0.04508
G1 X65.794 Y65.24 E0.04508
G1 X66.44 Y64.421 E0.04508
G1 X66.972 Y63.523 E0.04508
G1 X67.379 Y62.562 E0.04508
G1 X67.655 Y61.556 E0.04508
G1 X67.794 Y60.526 E0.04489
G1 X67.811 Y60.011 E0.02228
G1 X67.794 Y59.474 E0.02319
G1 X67.655 Y58.444 E0.0449
G1 X67.379 Y57.438 E0.04508
G1 X66.972 Y56.477 E0.04508
G1 X66.44 Y55.579 E0.04508
G1 X65.794 Y54.76 E0.04508
G1 X65.043 Y54.035 E0.04508
G1 X64.203 Y53.416 E0.04508
G1 X63.288 Y52.914 E0.04508
G1 X62.314 Y52.539 E0.04508
G1 X61.299 Y52.297 E0.04508
G1 X60.261 Y52.193 E0.04508
G1 X59.907 Y52.205 E0.01528
G1 X59.218 Y52.228 E0.0298
G1 X58.189 Y52.401 E0.04508
