; generated by SuperSlicer 2.5.59 on 2023-12-04 at 17:37:29 UTC


;
;

;
;
; TODO: check the size of the extruder and the y-bar clearance. Optimize & test supports.

; external perimeters extrusion width = 0.40mm
; perimeters extrusion width = 0.40mm
; infill extrusion width = 0.40mm
; solid infill extrusion width = 0.40mm
; top infill extrusion width = 0.40mm
; first layer extrusion width = 0.40mm

; object:{"name":"PlanetaryTrack_Base","id":"PlanetaryTrack_Base.STL id:0 copy 0","object_center":[60.000000,60.000000,0.000000],"boundingbox_center":[60.000000,60.000000,6.500000],"boundingbox_size":[78.784626,70.641777,13.000000]}
EXCLUDE_OBJECT_DEFINE NAME=PlanetaryTrack_Base_STL_id_0_copy_0 CENTER=60.000000,60.000000 POLYGON=[[20.607686,48.374960],[21.188168,45.644012],[21.957734,42.960208],[22.912644,40.336624],[24.048234,37.786040],[25.358978,35.320888],[26.838494,32.953174],[27.685814,31.745614],[28.479566,30.694432],[30.274202,28.555668],[32.213662,26.547298],[33.176118,25.648014],[34.288492,24.679112],[85.711504,24.679112],[87.786328,26.547298],[89.725792,28.555668],[91.520424,30.694432],[93.161496,32.953174],[94.641016,35.320888],[95.951760,37.786040],[96.573872,39.123628],[97.087352,40.336624],[98.042256,42.960208],[98.811832,45.644012],[99.109400,46.927168],[99.392312,48.374960],[73.680800,92.908600],[71.025488,93.771360],[68.316464,94.446792],[65.566924,94.931608],[62.790256,95.223448],[59.999996,95.320896],[57.209736,95.223448],[55.740300,95.093432],[54.433072,94.931608],[51.683528,94.446792],[48.974504,93.771360],[47.714472,93.387488],[46.319192,92.908600],[20.607686,48.374960]]
; plater:{"center":[60.000000,60.000000,0.000000],"boundingbox_center":[60.000000,60.000000,6.500000],"boundingbox_size":[78.784626,70.641777,13.000000]}

;TYPE:Custom
; M190 S0
; M109 S0 ; uncomment to remove set&wait temp gcode added automatically after this start gcode
print_start EXTRUDER=250 BED=100 CHAMBER=50
M107
G21 ; set units to millimeters
G90 ; use absolute coordinates
M83 ; use relative distances for extrusion
SET_PRESSURE_ADVANCE ADVANCE=0.02
;_TOOLCHANGE 0
M104 S250 ; set temperature
M109 S250 ; set temperature and wait for it to be reached
M190 S100 ; set bed temperature and wait for it to be reached
M107
;LAYER_CHANGE
;Z:0.2
;HEIGHT:0.2
;BEFORE_LAYER_CHANGE
;0.2


G1 Z0.2 F18000
;AFTER_LAYER_CHANGE
;0.2
G92 E0
G1 E-2 F3000
G1 Z0.6 F18000
; printing object PlanetaryTrack_Base.STL id:0 copy 0
EXCLUDE_OBJECT_START NAME=PlanetaryTrack_Base_STL_id_0_copy_0
M204 S1000
G1 X64.036 Y63.804
G1 Z0.2
G1 E2 F1800
;TYPE:Internal perimeter
;WIDTH:0.4
G1 X63.985 Y64.189 E0.01612
G1 X64.152 Y65.461 E0.05335
G1 X64.644 Y66.647 E0.05335
G1 X65.425 Y67.665 E0.05335
G1 X66.443 Y68.447 E0.05335
G1 X67.629 Y68.938 E0.05335
G1 X68.901 Y69.105 E0.05335
G1 X70.174 Y68.938 E0.05335
G1 X70.542 Y68.785 E0.01658
G1 X69.864 Y71.014 E0.09686
G1 X69.27 Y73.885 E0.12185
G1 X68.94 Y76.798 E0.12185
G1 X68.877 Y79.728 E0.12185
G1 X69.082 Y82.653 E0.12185
G1 X69.552 Y85.546 E0.12185
G1 X70.284 Y88.384 E0.12185
G1 X71.273 Y91.145 E0.12188
G1 X71.803 Y92.282 E0.05214
G1 X70.711 Y92.633 E0.04768
G1 X68.078 Y93.29 E0.1128
G1 X65.407 Y93.761 E0.11272
G1 X62.71 Y94.044 E0.11272
G1 X61.466 Y94.088 E0.05173
G1 X62.544 Y93.01 E0.06333
G1 X62.937 Y91.542 E0.0632
G1 X62.544 Y90.073 E0.0632
G1 X61.469 Y88.998 E0.0632
G1 X60 Y88.604 E0.0632
G1 X58.531 Y88.998 E0.0632
G1 X57.456 Y90.073 E0.0632
G1 X57.063 Y91.542 E0.0632
G1 X57.456 Y93.01 E0.0632
G1 X58.534 Y94.088 E0.06333
G1 X57.29 Y94.044 E0.05173
G1 X54.688 Y93.771 E0.10877
G1 X54.975 Y92.723 E0.04515
G1 X54.581 Y91.254 E0.06321
G1 X53.509 Y90.182 E0.06305
G1 X52.044 Y89.789 E0.06305
G1 X50.579 Y90.182 E0.06305
G1 X49.505 Y91.256 E0.06311
G1 X49.151 Y92.589 E0.05735
G1 X48.197 Y92.282 E0.04164
G1 X48.727 Y91.145 E0.05215
G1 X49.716 Y88.384 E0.12188
G1 X50.448 Y85.546 E0.12185
G1 X50.918 Y82.653 E0.12185
G1 X51.123 Y79.728 E0.12185
G1 X51.06 Y76.798 E0.12185
G1 X50.73 Y73.885 E0.12185
G1 X50.136 Y71.014 E0.12185
G1 X49.458 Y68.785 E0.09686
G1 X49.826 Y68.938 E0.01658
G1 X51.099 Y69.105 E0.05335
G1 X52.371 Y68.938 E0.05335
G1 X53.557 Y68.447 E0.05335
G1 X54.575 Y67.665 E0.05335
G1 X55.356 Y66.647 E0.05335
G1 X55.848 Y65.461 E0.05335
G1 X56.015 Y64.189 E0.05335
G1 X55.964 Y63.804 E0.01612
G1 X56.764 Y64.178 E0.03669
G1 X58.357 Y64.604 E0.06855
G1 X60 Y64.748 E0.06855
G1 X61.643 Y64.604 E0.06855
G1 X63.236 Y64.178 E0.06855
G1 X63.981 Y63.83 E0.0342
G1 E-2 F3000
M204 S1500
G1 Z0.6 F18000
; acceleration to travel
G1 X62.945 Y79.757
; decel to extrusion
M204 S1000
G1 X62.255 Y90.375
; end travel
G1 Z0.2
G1 E2 F1800
G1 X62.224 Y90.258 E0.00504
G1 X61.284 Y89.318 E0.05525
G1 X60 Y88.974 E0.05525
G1 X58.716 Y89.318 E0.05525
G1 X57.776 Y90.258 E0.05525
G1 X57.432 Y91.542 E0.05525
G1 X57.776 Y92.826 E0.05525
G1 X58.716 Y93.765 E0.05525
G1 X60 Y94.109 E0.05525
G1 X61.284 Y93.765 E0.05525
G1 X62.224 Y92.826 E0.05525
G1 X62.568 Y91.542 E0.05525
G1 X62.271 Y90.433 E0.04771
G1 X61.919 Y90.501 F18000
G1 F1800
G1 X61.903 Y90.443 E0.00252
G1 X61.099 Y89.638 E0.04729
G1 X60 Y89.344 E0.04729
G1 X58.901 Y89.638 E0.04729
G1 X58.096 Y90.443 E0.04729
G1 X57.802 Y91.542 E0.04729
G1 X58.096 Y92.641 E0.04729
G1 X58.901 Y93.445 E0.04729
G1 X60 Y93.74 E0.04729
G1 X61.099 Y93.445 E0.04729
G1 X61.903 Y92.641 E0.04729
G1 X62.198 Y91.542 E0.04729
G1 X61.935 Y90.559 E0.04228
G1 X61.583 Y90.628 F18000
;TYPE:External perimeter
G1 F1800
G1 X60.914 Y89.958 E0.03934
G1 X60 Y89.713 E0.03934
G1 X59.086 Y89.958 E0.03934
G1 X58.417 Y90.628 E0.03934
G1 X58.172 Y91.542 E0.03934
G1 X58.417 Y92.456 E0.03934
G1 X59.086 Y93.125 E0.03934
G1 X60 Y93.37 E0.03934
G1 X60.914 Y93.125 E0.03934
G1 X61.583 Y92.456 E0.03934
G1 X61.828 Y91.542 E0.03934
G1 X61.599 Y90.685 E0.03685
;WIPE_START
M204 S1500
G1 X61.752 Y90.265 F18000
;WIPE_END
G1 E-2 F3000
G1 Z0.6 F18000
; acceleration to travel
G1 X63.386 Y74.029
; decel to extrusion
M204 S1000
G1 X64.475 Y63.206
; end travel
G1 Z0.2
G1 E2 F1800
;TYPE:Internal perimeter
G1 X64.345 Y64.189 E0.04122
G1 X64.5 Y65.368 E0.04944
G1 X64.955 Y66.467 E0.04944
G1 X65.68 Y67.411 E0.04944
G1 X66.623 Y68.135 E0.04944
G1 X67.722 Y68.59 E0.04944
G1 X68.901 Y68.745 E0.04944
G1 X70.08 Y68.59 E0.04944
G1 X71.104 Y68.166 E0.04604
G1 X70.21 Y71.103 E0.1276
G1 X69.623 Y73.941 E0.1205
G1 X69.297 Y76.822 E0.12049
G1 X69.235 Y79.72 E0.1205
G1 X69.437 Y82.611 E0.12049
G1 X69.902 Y85.473 E0.1205
G1 X70.626 Y88.279 E0.12049
G1 X71.603 Y91.009 E0.12052
G1 X72.297 Y92.498 E0.06828
G1 X70.809 Y92.977 E0.065
G1 X68.152 Y93.639 E0.11382
G1 X65.457 Y94.115 E0.11376
G1 X62.735 Y94.401 E0.11376
G1 X60 Y94.496 E0.11376
G1 X57.265 Y94.401 E0.11376
G1 X54.536 Y94.114 E0.11406
G1 X54.236 Y94.066 E0.01261
G1 X54.605 Y92.722 E0.05791
G1 X54.261 Y91.439 E0.05521
G1 X53.324 Y90.502 E0.0551
G1 X52.044 Y90.159 E0.05509
G1 X50.763 Y90.502 E0.05509
G1 X49.825 Y91.44 E0.05514
G1 X49.479 Y92.745 E0.05611
G1 X49.588 Y93.081 E0.01471
G1 X49.197 Y92.979 E0.0168
G1 X47.703 Y92.498 E0.06524
G1 X48.397 Y91.009 E0.06828
G1 X49.374 Y88.279 E0.12052
G1 X50.098 Y85.473 E0.12049
G1 X50.563 Y82.611 E0.1205
G1 X50.765 Y79.72 E0.12049
G1 X50.703 Y76.822 E0.1205
G1 X50.377 Y73.941 E0.12049
G1 X49.79 Y71.103 E0.1205
G1 X48.896 Y68.166 E0.1276
G1 X49.92 Y68.59 E0.04604
G1 X51.099 Y68.745 E0.04944
G1 X52.278 Y68.59 E0.04944
G1 X53.377 Y68.135 E0.04944
G1 X54.32 Y67.411 E0.04944
G1 X55.045 Y66.467 E0.04944
G1 X55.5 Y65.368 E0.04944
G1 X55.655 Y64.189 E0.04944
G1 X55.525 Y63.206 E0.04122
G1 X56.887 Y63.841 E0.06245
G1 X58.42 Y64.251 E0.06595
G1 X60 Y64.39 E0.06595
G1 X61.58 Y64.251 E0.06595
G1 X63.113 Y63.841 E0.06595
G1 X64.42 Y63.231 E0.05995
G1 X65.039 Y62.643 F18000
G1 F1800
G1 X64.848 Y63.103 E0.02072
G1 X64.705 Y64.189 E0.04554
G1 X64.848 Y65.275 E0.04553
G1 X65.267 Y66.287 E0.04553
G1 X65.934 Y67.156 E0.04553
G1 X66.803 Y67.823 E0.04553
G1 X67.815 Y68.242 E0.04553
G1 X68.901 Y68.385 E0.04553
G1 X69.987 Y68.242 E0.04553
G1 X70.999 Y67.823 E0.04553
G1 X71.608 Y67.355 E0.03193
G1 X71.782 Y67.488 E0.00908
G1 X71.391 Y68.449 E0.04314
G1 X70.557 Y71.191 E0.11914
G1 X69.976 Y73.998 E0.11914
G1 X69.653 Y76.846 E0.11914
G1 X69.592 Y79.711 E0.11914
G1 X69.792 Y82.57 E0.11914
G1 X70.252 Y85.399 E0.11914
G1 X70.968 Y88.174 E0.11914
G1 X71.934 Y90.873 E0.11915
G1 X72.792 Y92.714 E0.08441
G1 X70.907 Y93.321 E0.08232
G1 X68.226 Y93.989 E0.11483
G1 X65.506 Y94.468 E0.1148
G1 X62.76 Y94.757 E0.11479
G1 X60 Y94.853 E0.1148
G1 X57.24 Y94.757 E0.1148
G1 X54.489 Y94.468 E0.11499
G1 X53.413 Y94.295 E0.04531
G1 X53.931 Y93.829 E0.02899
G1 X54.235 Y92.721 E0.04774
G1 X53.941 Y91.624 E0.04721
G1 X53.139 Y90.822 E0.04714
G1 X52.044 Y90.529 E0.04714
G1 X50.948 Y90.822 E0.04714
G1 X50.146 Y91.625 E0.04717
G1 X49.851 Y92.735 E0.04775
G1 X50.128 Y93.592 E0.03745
G1 X49.097 Y93.322 E0.04431
G1 X47.208 Y92.714 E0.08247
G1 X48.066 Y90.873 E0.08442
G1 X49.032 Y88.174 E0.11915
G1 X49.748 Y85.399 E0.11914
G1 X50.208 Y82.57 E0.11914
G1 X50.408 Y79.711 E0.11914
G1 X50.347 Y76.846 E0.11914
G1 X50.024 Y73.998 E0.11914
G1 X49.443 Y71.191 E0.11914
G1 X48.609 Y68.449 E0.11914
G1 X48.218 Y67.488 E0.04314
G1 X48.392 Y67.355 E0.00908
G1 X49.001 Y67.823 E0.03193
G1 X50.013 Y68.242 E0.04553
G1 X51.099 Y68.385 E0.04553
G1 X52.185 Y68.242 E0.04553
G1 X53.197 Y67.823 E0.04553
G1 X54.066 Y67.156 E0.04553
G1 X54.733 Y66.287 E0.04553
G1 X55.152 Y65.275 E0.04553
G1 X55.295 Y64.189 E0.04553
G1 X55.152 Y63.103 E0.04554
G1 X54.961 Y62.643 E0.02072
G1 X55.128 Y62.508 E0.00892
G1 X55.628 Y62.86 E0.0254
G1 X57.01 Y63.504 E0.06337
G1 X58.482 Y63.898 E0.06335
G1 X60 Y64.031 E0.06335
G1 X61.518 Y63.898 E0.06335
G1 X62.99 Y63.504 E0.06335
G1 X64.372 Y62.86 E0.06337
G1 X64.872 Y62.508 E0.0254
G1 X64.993 Y62.605 E0.00643
G1 E-2 F3000
M204 S1500
G1 Z0.6 F18000
; acceleration to travel
G1 X79.313 Y47.409
; decel to extrusion
M204 S1000
G1 X88.86 Y37.278
; end travel
G1 Z0.2
G1 E2 F1800
G1 X89.173 Y38.445 E0.05021
G1 X90.113 Y39.385 E0.05525
G1 X91.397 Y39.729 E0.05525
G1 X92.681 Y39.385 E0.05525
G1 X93.62 Y38.445 E0.05525
G1 X93.964 Y37.161 E0.05525
G1 X93.62 Y35.877 E0.05525
G1 X92.681 Y34.937 E0.05525
G1 X91.397 Y34.593 E0.05525
G1 X90.755 Y34.765 E0.02762
G1 X90.113 Y34.937 E0.02762
G1 X89.173 Y35.877 E0.05525
G1 X88.829 Y37.161 E0.05525
G1 X88.845 Y37.22 E0.00255
G1 X89.214 Y37.22 F18000
G1 F1800
G1 X89.493 Y38.26 E0.04477
G1 X90.298 Y39.065 E0.04729
G1 X91.397 Y39.359 E0.04729
G1 X92.496 Y39.065 E0.04729
G1 X93.3 Y38.26 E0.04729
G1 X93.595 Y37.161 E0.04729
G1 X93.3 Y36.062 E0.04729
G1 X92.496 Y35.258 E0.04729
G1 X91.397 Y34.963 E0.04729
G1 X90.847 Y35.11 E0.02365
G1 X90.298 Y35.258 E0.02365
G1 X89.493 Y36.062 E0.04729
G1 X89.199 Y37.162 E0.04732
G1 X89.568 Y37.161 F18000
;TYPE:External perimeter
G1 F1800
G1 X89.813 Y38.075 E0.03934
G1 X90.483 Y38.744 E0.03934
G1 X91.397 Y38.989 E0.03934
G1 X92.311 Y38.744 E0.03934
G1 X92.98 Y38.075 E0.03934
G1 X93.225 Y37.161 E0.03934
G1 X92.98 Y36.247 E0.03934
G1 X92.311 Y35.578 E0.03934
G1 X91.397 Y35.333 E0.03934
G1 X90.94 Y35.455 E0.01967
G1 X90.483 Y35.578 E0.01967
G1 X89.813 Y36.247 E0.03934
G1 X89.584 Y37.103 E0.03685
;WIPE_START
M204 S1500
G1 X89.241 Y37.39 F18000
;WIPE_END
G1 E-2 F3000
G1 Z0.6 F18000
; acceleration to travel
G1 X87.378 Y30.898
; decel to extrusion
M204 S1000
G1 X86.137 Y26.57
; end travel
G1 Z0.2
G1 E2 F1800
;TYPE:Internal perimeter
G1 X86.987 Y27.339 E0.04768
G1 X88.872 Y29.292 E0.1128
G1 X90.615 Y31.369 E0.11272
G1 X92.209 Y33.563 E0.11272
G1 X92.868 Y34.618 E0.05173
G1 X91.397 Y34.224 E0.06333
G1 X89.928 Y34.617 E0.0632
G1 X88.853 Y35.692 E0.0632
G1 X88.459 Y37.161 E0.0632
G1 X88.853 Y38.63 E0.0632
G1 X89.928 Y39.705 E0.0632
G1 X91.397 Y40.098 E0.0632
G1 X92.865 Y39.705 E0.0632
G1 X93.94 Y38.63 E0.0632
G1 X94.335 Y37.158 E0.06333
G1 X94.919 Y38.257 E0.05173
G1 X95.984 Y40.648 E0.1088
G1 X94.932 Y40.923 E0.0452
G1 X93.857 Y41.997 E0.06316
G1 X93.465 Y43.462 E0.06305
G1 X93.857 Y44.928 E0.06305
G1 X94.93 Y46 E0.06305
G1 X96.396 Y46.393 E0.06311
G1 X97.728 Y46.033 E0.05735
G1 X97.939 Y47.012 E0.04164
G1 X96.689 Y47.122 E0.05215
G1 X93.805 Y47.646 E0.12188
G1 X90.98 Y48.431 E0.12185
G1 X88.239 Y49.471 E0.12185
G1 X85.605 Y50.756 E0.12185
G1 X83.098 Y52.275 E0.12185
G1 X80.74 Y54.017 E0.12185
G1 X78.551 Y55.967 E0.12185
G1 X76.549 Y58.108 E0.12185
G1 X74.751 Y60.423 E0.12185
G1 X73.455 Y62.447 E0.0999
G1 X73.159 Y61.731 E0.03223
G1 X72.377 Y60.713 E0.05335
G1 X71.359 Y59.931 E0.05335
G1 X70.174 Y59.44 E0.05335
G1 X68.901 Y59.273 E0.05335
G1 X68.517 Y59.323 E0.01612
G1 X68.89 Y58.523 E0.03669
G1 X69.316 Y56.931 E0.06855
G1 X69.46 Y55.288 E0.06855
G1 X69.316 Y53.645 E0.06855
G1 X68.89 Y52.052 E0.06855
G1 X68.517 Y51.252 E0.03669
G1 X68.901 Y51.303 E0.01612
G1 X70.174 Y51.135 E0.05335
G1 X71.359 Y50.644 E0.05335
G1 X72.377 Y49.863 E0.05335
G1 X73.159 Y48.845 E0.05335
G1 X73.65 Y47.659 E0.05335
G1 X73.817 Y46.387 E0.05335
G1 X73.65 Y45.114 E0.05335
G1 X73.159 Y43.929 E0.05335
G1 X72.377 Y42.91 E0.05335
G1 X71.359 Y42.129 E0.05335
G1 X70.174 Y41.638 E0.05335
G1 X68.901 Y41.471 E0.05335
G1 X67.629 Y41.638 E0.05335
G1 X66.443 Y42.129 E0.05335
G1 X65.425 Y42.91 E0.05335
G1 X64.644 Y43.929 E0.05335
G1 X64.152 Y45.114 E0.05335
G1 X63.985 Y46.387 E0.05335
G1 X64.036 Y46.771 E0.01612
G1 X63.236 Y46.398 E0.03669
G1 X61.643 Y45.971 E0.06855
G1 X60 Y45.828 E0.06855
G1 X58.357 Y45.971 E0.06855
G1 X56.764 Y46.398 E0.06855
G1 X55.964 Y46.771 E0.03669
G1 X56.015 Y46.387 E0.01612
G1 X55.848 Y45.114 E0.05335
G1 X55.356 Y43.929 E0.05335
G1 X54.575 Y42.91 E0.05335
G1 X53.557 Y42.129 E0.05335
G1 X52.371 Y41.638 E0.05335
G1 X51.099 Y41.471 E0.05335
G1 X49.826 Y41.638 E0.05335
G1 X48.641 Y42.129 E0.05335
G1 X47.623 Y42.91 E0.05335
G1 X46.841 Y43.929 E0.05335
G1 X46.35 Y45.114 E0.05335
G1 X46.183 Y46.387 E0.05335
G1 X46.35 Y47.659 E0.05335
G1 X46.841 Y48.845 E0.05335
G1 X47.623 Y49.863 E0.05335
G1 X48.641 Y50.644 E0.05335
G1 X49.826 Y51.135 E0.05335
G1 X51.099 Y51.303 E0.05335
G1 X51.483 Y51.252 E0.01612
G1 X51.11 Y52.052 E0.03669
G1 X50.684 Y53.645 E0.06855
G1 X50.54 Y55.288 E0.06855
G1 X50.684 Y56.931 E0.06855
G1 X51.11 Y58.523 E0.06855
G1 X51.483 Y59.323 E0.03669
G1 X51.099 Y59.273 E0.01612
G1 X49.826 Y59.44 E0.05335
G1 X48.641 Y59.931 E0.05335
G1 X47.623 Y60.713 E0.05335
G1 X46.841 Y61.731 E0.05335
G1 X46.545 Y62.447 E0.03223
G1 X45.249 Y60.423 E0.0999
G1 X43.451 Y58.108 E0.12185
G1 X41.449 Y55.967 E0.12185
G1 X39.26 Y54.017 E0.12185
G1 X36.902 Y52.275 E0.12185
G1 X34.395 Y50.756 E0.12185
G1 X31.761 Y49.471 E0.12185
G1 X29.02 Y48.431 E0.12185
G1 X26.195 Y47.646 E0.12185
G1 X23.311 Y47.122 E0.12188
G1 X22.061 Y47.012 E0.05214
G1 X22.303 Y45.891 E0.04768
G1 X23.05 Y43.282 E0.1128
G1 X23.978 Y40.734 E0.11272
G1 X25.081 Y38.257 E0.11272
G1 X25.665 Y37.158 E0.05173
G1 X26.06 Y38.63 E0.06333
G1 X27.135 Y39.705 E0.0632
G1 X28.603 Y40.098 E0.0632
G1 X30.072 Y39.705 E0.0632
G1 X31.147 Y38.63 E0.0632
G1 X31.541 Y37.161 E0.0632
G1 X31.147 Y35.692 E0.0632
G1 X30.072 Y34.617 E0.0632
G1 X28.603 Y34.224 E0.0632
G1 X27.132 Y34.618 E0.06333
G1 X27.791 Y33.563 E0.05173
G1 X29.329 Y31.446 E0.10877
G1 X30.092 Y32.218 E0.04515
G1 X31.561 Y32.612 E0.06321
G1 X33.027 Y32.219 E0.06305
G1 X34.099 Y31.147 E0.06305
G1 X34.492 Y29.682 E0.06305
G1 X34.099 Y28.215 E0.06311
G1 X33.121 Y27.242 E0.05735
G1 X33.864 Y26.569 E0.04166
G1 X34.583 Y27.597 E0.05214
G1 X36.48 Y29.833 E0.12189
G1 X38.572 Y31.886 E0.12185
G1 X40.842 Y33.74 E0.12185
G1 X43.273 Y35.38 E0.12185
G1 X45.842 Y36.791 E0.12185
G1 X48.529 Y37.961 E0.12185
G1 X51.312 Y38.882 E0.12185
G1 X54.168 Y39.546 E0.12185
G1 X57.072 Y39.946 E0.12185
G1 X60 Y40.08 E0.12185
G1 X62.928 Y39.946 E0.12185
G1 X65.832 Y39.546 E0.12185
G1 X68.688 Y38.882 E0.12185
G1 X71.471 Y37.961 E0.12185
G1 X74.158 Y36.791 E0.12185
G1 X76.727 Y35.38 E0.12185
G1 X79.158 Y33.74 E0.12185
G1 X81.428 Y31.886 E0.12185
G1 X83.52 Y29.833 E0.12185
G1 X85.417 Y27.597 E0.12188
G1 X86.102 Y26.619 E0.04965
G1 E-2 F3000
M204 S1500
G1 Z0.6 F18000
; acceleration to travel
G1 X52.956 Y33.644
; decel to extrusion
M204 S1000
G1 X30.858 Y38.328
; end travel
G1 Z0.2
G1 E2 F1800
G1 X31.171 Y37.161 E0.05021
