; generated by SuperSlicer 2.4 on 2023-12-10 at 22:02:30 UTC


;
;

;
;
; TODO: check the size of the extruder and the y-bar clearance. Optimize & test supports.

; external perimeters extrusion width = 0.40mm
; perimeters extrusion width = 0.40mm
; infill extrusion width = 0.40mm
; solid infill extrusion width = 0.40mm
; top infill extrusion width = 0.40mm
; first layer extrusion width = 0.56mm

; object:{"name":"RingBackPlate","id":"RingBackPlate.STL id:0 copy 0","object_center":[60.000000,60.000000,0.000000],"boundingbox_center":[60.000000,60.000000,1.000000],"boundingbox_size":[87.943527,88.000000,2.000000]}
; plater:{"center":[60.000000,60.000000,0.000000],"boundingbox_center":[60.000000,60.000000,1.000000],"boundingbox_size":[87.943527,88.000000,2.000000]}

;TYPE:Custom
; M190 S0
;M109 S0 ; uncomment to remove set&wait temp gcode added automatically after this start gcode
print_start EXTRUDER=245 BED=90 CHAMBER=50

;G92 E0
;G1 E10 F1500 ; prime the nozzle
M107
G21 ; set units to millimeters
G90 ; use absolute coordinates
M83 ; use relative distances for extrusion
SET_PRESSURE_ADVANCE ADVANCE=0.04
;_TOOLCHANGE 0
M104 S245 ; set temperature
M109 S245 ; set temperature and wait for it to be reached
M190 S90 ; set bed temperature and wait for it to be reached
M107
;LAYER_CHANGE
;Z:0.25
;HEIGHT:0.25
;BEFORE_LAYER_CHANGE
;0.25


G1 Z0.25 F18000
;AFTER_LAYER_CHANGE
;0.25
TIMELAPSE_TAKE_FRAME
G92 E0
G1 E-2 F3000
G1 Z0.65 F18000
M204 S1000
G1 X12.686 Y12.274
G1 Z0.25
G1 E2 F1800
;TYPE:Skirt
;WIDTH:0.52
G1 X11.09 Y13.924 E0.11128
G1 X9.505 Y16.188 E0.13394
G1 X8.015 Y19.251 E0.16511
G1 X7.079 Y22.526 E0.16511
G1 X6.734 Y25.977 E0.16812
G1 X6.734 Y94.023 E3.29826
G1 X6.967 Y96.839 E0.13697
G1 X7.079 Y97.474 E0.03126
G1 X8.015 Y100.749 E0.16511
G1 X9.505 Y103.812 E0.16511
G1 X11.09 Y106.076 E0.13394
G1 X13.458 Y108.524 E0.1651
G1 X13.952 Y108.938 E0.03126
G1 X16.216 Y110.523 E0.13394
G1 X19.279 Y112.014 E0.16511
G1 X22.554 Y112.949 E0.16511
G1 X26.005 Y113.294 E0.16811
G1 X60.166 Y113.309 E1.65582
G1 X65.245 Y113.041 E0.24654
G1 X70.573 Y112.243 E0.26114
G1 X76.162 Y110.796 E0.27983
G1 X81.218 Y108.903 E0.26169
G1 X86.057 Y106.509 E0.26169
G1 X90.628 Y103.637 E0.26169
G1 X94.602 Y100.561 E0.24355
G1 X97.669 Y97.713 E0.20289
G1 X98.826 Y96.541 E0.07981
G1 X102.06 Y92.77 E0.24081
G1 X105.159 Y88.351 E0.26161
G1 X107.795 Y83.64 E0.26169
G1 X109.942 Y78.686 E0.26169
G1 X111.67 Y73.178 E0.27983
G1 X112.738 Y67.885 E0.26169
G1 X113.265 Y62.569 E0.25897
G1 X113.247 Y57.113 E0.26445
G1 X112.682 Y51.744 E0.26166
G1 X111.67 Y46.822 E0.24355
G1 X110.072 Y41.666 E0.26169
G1 X107.96 Y36.697 E0.26169
G1 X105.159 Y31.649 E0.27983
G1 X102.06 Y27.23 E0.26161
G1 X98.826 Y23.459 E0.24081
G1 X97.669 Y22.287 E0.07981
G1 X94.602 Y19.439 E0.20289
G1 X90.628 Y16.363 E0.24355
G1 X86.057 Y13.491 E0.26169
G1 X80.874 Y10.949 E0.27983
G1 X75.804 Y9.092 E0.26169
G1 X70.573 Y7.757 E0.26169
G1 X65.606 Y6.996 E0.24355
G1 X60.366 Y6.696 E0.2544
G1 X26.005 Y6.706 E1.66554
G1 X22.554 Y7.051 E0.16811
G1 X19.279 Y7.986 E0.16511
G1 X16.774 Y9.154 E0.13394
G1 X13.952 Y11.062 E0.16511
G1 X13.458 Y11.476 E0.03126
G1 X12.728 Y12.231 E0.05091
G1 X13.08 Y12.583 F18000
G1 F1800
G1 X11.472 Y14.192 E0.11025
G1 X9.605 Y16.943 E0.16118
G1 X8.437 Y19.448 E0.13394
G1 X7.529 Y22.647 E0.16118
G1 X7.201 Y25.977 E0.16223
G1 X7.201 Y94.023 E3.29824
G1 X7.431 Y96.798 E0.13501
G1 X8.437 Y100.552 E0.18837
G1 X9.605 Y103.057 E0.13394
G1 X11.472 Y105.808 E0.16118
G1 X14.22 Y108.556 E0.18837
G1 X16.971 Y110.423 E0.16118
G1 X19.476 Y111.591 E0.13394
G1 X22.675 Y112.499 E0.16118
G1 X26.005 Y112.827 E0.16222
G1 X60.166 Y112.843 E1.65582
G1 X65.22 Y112.576 E0.24531
G1 X70.502 Y111.782 E0.25892
G1 X76 Y110.359 E0.27526
G1 X81.013 Y108.485 E0.2594
G1 X85.81 Y106.113 E0.2594
G1 X90.343 Y103.268 E0.2594
G1 X94.316 Y100.192 E0.24355
G1 X97.35 Y97.372 E0.20076
G1 X98.472 Y96.238 E0.07735
G1 X101.706 Y92.466 E0.24081
G1 X104.776 Y88.085 E0.25933
G1 X107.388 Y83.413 E0.2594
G1 X109.513 Y78.502 E0.2594
G1 X111.131 Y73.401 E0.2594
G1 X112.274 Y67.838 E0.27526
G1 X112.799 Y62.562 E0.25702
G1 X112.783 Y57.16 E0.26183
G1 X112.225 Y51.838 E0.25937
G1 X111.213 Y46.916 E0.24355
G1 X109.627 Y41.805 E0.2594
G1 X107.388 Y36.587 E0.27526
G1 X104.776 Y31.915 E0.2594
G1 X101.706 Y27.534 E0.25933
G1 X98.472 Y23.762 E0.24081
G1 X97.35 Y22.628 E0.07735
G1 X94.316 Y19.808 E0.20076
G1 X90.343 Y16.732 E0.24355
G1 X85.81 Y13.887 E0.2594
G1 X80.712 Y11.386 E0.27526
G1 X75.687 Y9.543 E0.2594
G1 X70.502 Y8.218 E0.2594
G1 X65.536 Y7.457 E0.24355
G1 X60.341 Y7.162 E0.25219
G1 X26.005 Y7.173 E1.66432
G1 X22.675 Y7.501 E0.16222
G1 X19.476 Y8.409 E0.16118
G1 X16.971 Y9.577 E0.13394
G1 X14.22 Y11.444 E0.16118
G1 X13.123 Y12.541 E0.07521
G1 E-2 F3000
M204 S1500
G1 Z0.65 F18000
M204 S1000
G1 X15.89 Y15.302
G1 Z0.25
G1 E2 F1800
;WIDTH:0.56
G1 X16.707 Y14.484 E0.06085
G1 X18.687 Y13.121 E0.12647
G1 X20.833 Y12.096 E0.1252
G1 X23.578 Y11.33 E0.14997
G1 X26.157 Y11.089 E0.13633
G1 X60.217 Y11.08 E1.79254
G1 X65.008 Y11.343 E0.2525
G1 X69.731 Y12.062 E0.25145
G1 X74.528 Y13.288 E0.2606
G1 X79.266 Y15.031 E0.26565
G1 X83.789 Y17.249 E0.26511
G1 X88.086 Y19.938 E0.26679
G1 X91.786 Y22.802 E0.24629
G1 X93.468 Y24.38 E0.12135
G1 X94.576 Y25.395 E0.07906
G1 X95.601 Y26.433 E0.07678
G1 X98.627 Y29.96 E0.24458
G1 X101.457 Y34.003 E0.25974
G1 X103.904 Y38.387 E0.26421
G1 X105.894 Y43.013 E0.26504
G1 X107.398 Y47.819 E0.26505
G1 X108.396 Y52.735 E0.26398
G1 X108.869 Y57.386 E0.24604
G1 X108.915 Y59.762 E0.12507
G1 X108.868 Y62.621 E0.1505
G1 X108.396 Y67.266 E0.24569
G1 X107.377 Y72.26 E0.26824
G1 X105.843 Y77.125 E0.26849
G1 X103.881 Y81.661 E0.2601
G1 X101.464 Y85.986 E0.26074
G1 X98.627 Y90.04 E0.26042
G1 X95.601 Y93.567 E0.24459
G1 X94.576 Y94.605 E0.07678
G1 X93.468 Y95.62 E0.07906
G1 X91.786 Y97.198 E0.12135
G1 X88.087 Y100.062 E0.24625
G1 X83.894 Y102.692 E0.26047
G1 X79.441 Y104.893 E0.26144
G1 X74.809 Y106.623 E0.26019
G1 X69.733 Y107.938 E0.27598
G1 X64.984 Y108.659 E0.25282
G1 X60.176 Y108.921 E0.25341
G1 X26.151 Y108.911 E1.79071
G1 X23.421 Y108.641 E0.14437
G1 X20.829 Y107.901 E0.14188
G1 X18.69 Y106.88 E0.12473
G1 X16.728 Y105.533 E0.12526
G1 X14.49 Y103.293 E0.16663
G1 X13.094 Y101.246 E0.1304
G1 X12.049 Y98.993 E0.13071
G1 X11.385 Y96.597 E0.13087
G1 X11.13 Y94.145 E0.12975
G1 X11.117 Y61.512 E1.71742
G1 X11.105 Y60.022 E0.0784
G1 X11.117 Y58.488 E0.08074
G1 X11.117 Y26.123 E1.70336
G1 X11.387 Y23.393 E0.14439
G1 X12.127 Y20.8 E0.14189
G1 X13.148 Y18.661 E0.12475
G1 X14.495 Y16.701 E0.12515
G1 X15.848 Y15.345 E0.10085
G1 X16.204 Y15.699 F18000
G1 F1800
G1 X17.014 Y14.887 E0.06036
G1 X18.923 Y13.57 E0.12209
G1 X21.032 Y12.563 E0.12298
G1 X23.692 Y11.824 E0.1453
G1 X26.169 Y11.596 E0.13092
G1 X60.196 Y11.586 E1.79083
G1 X64.944 Y11.846 E0.25021
G1 X69.643 Y12.56 E0.25015
G1 X74.39 Y13.776 E0.25793
G1 X79.055 Y15.492 E0.26156
G1 X83.531 Y17.685 E0.26236
G1 X87.786 Y20.346 E0.2641
G1 X91.467 Y23.195 E0.24499
G1 X93.123 Y24.751 E0.11961
G1 X94.229 Y25.764 E0.0789
G1 X95.223 Y26.769 E0.07438
G1 X98.234 Y30.28 E0.24346
G1 X101.035 Y34.283 E0.2571
G1 X103.456 Y38.622 E0.2615
G1 X105.415 Y43.176 E0.26094
G1 X106.904 Y47.933 E0.26231
G1 X107.893 Y52.799 E0.26131
G1 X108.364 Y57.426 E0.24478
G1 X108.378 Y58.683 E0.06619
G1 X108.409 Y59.759 E0.05666
G1 X108.363 Y62.581 E0.1485
G1 X107.893 Y67.202 E0.24446
G1 X106.884 Y72.145 E0.26555
G1 X105.373 Y76.936 E0.26436
G1 X103.432 Y81.425 E0.2574
G1 X101.042 Y85.706 E0.25805
G1 X98.234 Y89.72 E0.25778
G1 X95.223 Y93.231 E0.24346
G1 X94.229 Y94.236 E0.07438
G1 X93.124 Y95.249 E0.07889
G1 X91.467 Y96.805 E0.11962
G1 X87.786 Y99.654 E0.24496
G1 X83.636 Y102.256 E0.25782
G1 X79.228 Y104.434 E0.25874
G1 X74.645 Y106.144 E0.25747
G1 X69.644 Y107.439 E0.27186
G1 X64.92 Y108.157 E0.25149
G1 X60.169 Y108.415 E0.2504
G1 X26.163 Y108.404 E1.7897
G1 X23.537 Y108.148 E0.13885
G1 X21.027 Y107.435 E0.13732
G1 X18.926 Y106.432 E0.12255
G1 X17.034 Y105.129 E0.12089
G1 X14.895 Y102.988 E0.15929
G1 X13.545 Y101.013 E0.12589
G1 X12.531 Y98.838 E0.12631
G1 X11.878 Y96.482 E0.12864
G1 X11.635 Y94.106 E0.12571
G1 X11.624 Y61.51 E1.71549
G1 X11.611 Y60.02 E0.0784
G1 X11.624 Y58.49 E0.08052
G1 X11.624 Y26.135 E1.70282
G1 X11.88 Y23.509 E0.13887
G1 X12.593 Y20.999 E0.13733
G1 X13.596 Y18.897 E0.12257
G1 X14.899 Y17.007 E0.12079
G1 X16.161 Y15.742 E0.09409
G1 X16.517 Y16.096 F18000
G1 F1800
G1 X17.32 Y15.291 E0.05988
G1 X19.194 Y13.998 E0.1198
G1 X21.229 Y13.03 E0.11863
G1 X23.805 Y12.318 E0.14063
G1 X26.181 Y12.102 E0.12555
G1 X60.176 Y12.092 E1.78913
G1 X64.88 Y12.348 E0.24792
G1 X69.554 Y13.059 E0.24884
G1 X74.252 Y14.263 E0.25525
G1 X78.867 Y15.963 E0.25884
G1 X83.274 Y18.121 E0.25825
G1 X87.486 Y20.754 E0.26141
G1 X91.147 Y23.588 E0.24369
G1 X92.779 Y25.123 E0.11787
G1 X93.882 Y26.133 E0.07874
G1 X94.844 Y27.105 E0.07198
G1 X97.842 Y30.6 E0.24233
G1 X100.613 Y34.562 E0.25445
G1 X103.007 Y38.857 E0.25878
G1 X104.944 Y43.365 E0.2582
G1 X106.411 Y48.047 E0.25821
G1 X107.391 Y52.862 E0.25864
G1 X107.859 Y57.465 E0.24351
G1 X107.871 Y58.693 E0.06462
G1 X107.902 Y59.757 E0.05601
G1 X107.858 Y62.54 E0.14649
G1 X107.391 Y67.138 E0.24322
G1 X106.397 Y72.006 E0.26147
G1 X104.903 Y76.747 E0.26162
G1 X102.984 Y81.19 E0.25469
G1 X100.62 Y85.427 E0.25535
G1 X97.842 Y89.4 E0.25513
G1 X94.844 Y92.895 E0.24233
G1 X93.882 Y93.867 E0.07198
G1 X92.779 Y94.877 E0.07874
G1 X91.147 Y96.412 E0.11788
G1 X87.486 Y99.246 E0.24366
G1 X83.378 Y101.821 E0.25517
G1 X79.015 Y103.974 E0.25604
G1 X74.48 Y105.665 E0.25475
G1 X69.555 Y106.941 E0.26774
G1 X64.88 Y107.652 E0.24888
G1 X60.162 Y107.909 E0.24866
G1 X26.175 Y107.898 E1.78869
G1 X23.653 Y107.655 E0.13336
G1 X21.226 Y106.969 E0.13276
G1 X19.196 Y106.004 E0.11825
G1 X17.341 Y104.725 E0.11861
G1 X15.3 Y102.683 E0.15196
G1 X13.974 Y100.745 E0.12355
G1 X12.999 Y98.643 E0.12191
G1 X12.372 Y96.368 E0.12421
G1 X12.14 Y94.068 E0.12168
G1 X12.13 Y61.508 E1.7136
G1 X12.117 Y60.018 E0.0784
G1 X12.13 Y58.492 E0.08029
G1 X12.13 Y26.147 E1.70228
G1 X12.373 Y23.625 E0.13337
G1 X13.059 Y21.197 E0.13277
G1 X14.025 Y19.168 E0.11827
G1 X15.303 Y17.314 E0.11852
G1 X16.474 Y16.139 E0.08732
G1 X16.83 Y16.494 F18000
G1 F1800
G1 X17.627 Y15.694 E0.05942
G1 X19.43 Y14.446 E0.11537
G1 X21.427 Y13.496 E0.11638
G1 X23.917 Y12.812 E0.13592
G1 X26.192 Y12.608 E0.12021
G1 X60.155 Y12.598 E1.78744
G1 X64.84 Y12.853 E0.24691
G1 X69.465 Y13.558 E0.24624
G1 X74.114 Y14.75 E0.25258
G1 X78.68 Y16.433 E0.25612
G1 X83.039 Y18.57 E0.25551
G1 X87.186 Y21.162 E0.25736
G1 X90.828 Y23.981 E0.24238
G1 X92.435 Y25.494 E0.11613
G1 X93.536 Y26.502 E0.0786
G1 X94.466 Y27.442 E0.06958
G1 X97.449 Y30.921 E0.24119
G1 X100.19 Y34.842 E0.25179
G1 X102.547 Y39.069 E0.25471
G1 X104.465 Y43.528 E0.25547
G1 X105.917 Y48.16 E0.25548
G1 X106.888 Y52.926 E0.25596
G1 X107.354 Y57.505 E0.24223
G1 X107.365 Y58.703 E0.06305
G1 X107.396 Y59.755 E0.05538
G1 X107.353 Y62.5 E0.14448
G1 X106.888 Y67.074 E0.24198
G1 X105.904 Y71.891 E0.25878
G1 X104.433 Y76.558 E0.25752
G1 X102.535 Y80.954 E0.25199
G1 X100.198 Y85.147 E0.25265
G1 X97.449 Y89.079 E0.25248
G1 X94.466 Y92.558 E0.24119
G1 X93.536 Y93.498 E0.06958
G1 X92.435 Y94.506 E0.07859
G1 X90.828 Y96.019 E0.11613
G1 X87.186 Y98.838 E0.24236
G1 X83.12 Y101.385 E0.25251
G1 X78.803 Y103.514 E0.25334
G1 X74.316 Y105.186 E0.25204
G1 X69.466 Y106.442 E0.26363
G1 X64.84 Y107.147 E0.24627
G1 X60.155 Y107.402 E0.24692
G1 X26.187 Y107.392 E1.7877
G1 X23.768 Y107.161 E0.1279
G1 X21.424 Y106.502 E0.12818
G1 X19.432 Y105.555 E0.11604
G1 X17.647 Y104.321 E0.1142
G1 X15.704 Y102.377 E0.14469
G1 X14.425 Y100.512 E0.119
G1 X13.467 Y98.449 E0.11969
G1 X12.866 Y96.255 E0.11976
G1 X12.645 Y94.03 E0.11766
G1 X12.636 Y61.506 E1.71173
G1 X12.624 Y60.016 E0.0784
G1 X12.636 Y58.495 E0.08007
G1 X12.636 Y26.16 E1.70176
G1 X12.867 Y23.74 E0.12791
G1 X13.526 Y21.395 E0.12819
G1 X14.473 Y19.404 E0.11606
G1 X15.706 Y17.62 E0.11412
G1 X16.788 Y16.536 E0.08059
G1 X17.143 Y16.891 F18000
G1 F1800
G1 X17.934 Y16.097 E0.05897
G1 X19.701 Y14.874 E0.11308
G1 X21.623 Y13.963 E0.11195
G1 X24.029 Y13.307 E0.13122
G1 X26.203 Y13.115 E0.11489
G1 X58.526 Y13.115 E1.70109
G1 X60.135 Y13.104 E0.08472
G1 X64.776 Y13.356 E0.24457
G1 X69.376 Y14.056 E0.24493
G1 X73.975 Y15.238 E0.24989
G1 X78.493 Y16.904 E0.2534
G1 X82.805 Y19.019 E0.25278
G1 X86.886 Y21.57 E0.25331
G1 X90.508 Y24.374 E0.24106
G1 X92.09 Y25.865 E0.11438
G1 X93.189 Y26.872 E0.07846
G1 X94.087 Y27.779 E0.06717
G1 X97.057 Y31.241 E0.24005
G1 X99.768 Y35.121 E0.24914
G1 X102.098 Y39.304 E0.252
G1 X103.995 Y43.716 E0.25275
G1 X105.43 Y48.299 E0.25275
G1 X106.386 Y52.99 E0.25193
G1 X106.849 Y57.545 E0.24095
G1 X106.859 Y58.713 E0.06148
G1 X106.89 Y59.753 E0.05476
G1 X106.848 Y62.46 E0.14246
G1 X106.386 Y67.01 E0.24074
G1 X105.417 Y71.752 E0.2547
G1 X103.963 Y76.37 E0.25479
G1 X102.087 Y80.719 E0.24929
G1 X99.775 Y84.868 E0.24995
G1 X97.057 Y88.759 E0.24982
G1 X94.087 Y92.221 E0.24006
G1 X93.189 Y93.128 E0.06717
G1 X92.09 Y94.135 E0.07846
G1 X90.508 Y95.626 E0.11438
G1 X86.886 Y98.43 E0.24105
G1 X82.862 Y100.949 E0.24985
G1 X78.591 Y103.054 E0.25064
G1 X74.151 Y104.707 E0.24933
G1 X69.377 Y105.943 E0.25953
G1 X64.776 Y106.644 E0.24494
G1 X60.149 Y106.896 E0.24389
G1 X26.2 Y106.885 E1.7867
G1 X23.839 Y106.659 E0.12481
G1 X21.621 Y106.035 E0.12126
G1 X19.703 Y105.127 E0.11168
G1 X17.954 Y103.918 E0.11191
G1 X16.108 Y102.071 E0.13744
G1 X14.875 Y100.279 E0.11446
G1 X13.95 Y98.294 E0.11525
G1 X13.368 Y96.183 E0.11525
G1 X13.15 Y93.992 E0.11587
G1 X13.143 Y61.503 E1.70986
G1 X13.13 Y60.014 E0.0784
G1 X13.143 Y58.497 E0.07985
G1 X13.143 Y26.172 E1.70123
G1 X13.369 Y23.811 E0.12481
G1 X13.993 Y21.593 E0.12127
G1 X14.901 Y19.675 E0.1117
G1 X16.11 Y17.927 E0.11184
G1 X17.101 Y16.933 E0.07386
G1 X17.456 Y17.288 F18000
G1 F1800
G1 X18.242 Y16.5 E0.05854
G1 X19.937 Y15.323 E0.1086
G1 X21.82 Y14.431 E0.10967
G1 X24.139 Y13.801 E0.12649
G1 X26.214 Y13.621 E0.1096
G1 X58.527 Y13.621 E1.70061
G1 X60.116 Y13.61 E0.08359
G1 X64.736 Y13.861 E0.24351
G1 X69.287 Y14.555 E0.24232
G1 X73.837 Y15.725 E0.24721
G1 X78.281 Y17.364 E0.24932
G1 X82.548 Y19.455 E0.25004
G1 X86.586 Y21.978 E0.25062
G1 X90.188 Y24.767 E0.23975
G1 X91.745 Y26.235 E0.11263
G1 X92.843 Y27.241 E0.07834
G1 X93.709 Y28.115 E0.06477
G1 X96.664 Y31.561 E0.23891
G1 X99.345 Y35.401 E0.24647
G1 X101.65 Y39.539 E0.24929
G1 X103.524 Y43.904 E0.25002
G1 X104.936 Y48.413 E0.24867
G1 X105.884 Y53.054 E0.24925
G1 X106.344 Y57.584 E0.23966
G1 X106.353 Y58.722 E0.05991
G1 X106.383 Y59.751 E0.05416
G1 X106.344 Y62.419 E0.14044
G1 X105.884 Y66.946 E0.23949
G1 X104.93 Y71.612 E0.25064
G1 X103.492 Y76.181 E0.25206
G1 X101.638 Y80.484 E0.24658
G1 X99.353 Y84.588 E0.24725
G1 X96.664 Y88.439 E0.24716
G1 X93.709 Y91.885 E0.23892
G1 X92.843 Y92.759 E0.06477
G1 X91.745 Y93.765 E0.07833
G1 X90.188 Y95.233 E0.11263
G1 X86.586 Y98.022 E0.23974
G1 X82.605 Y100.513 E0.24718
G1 X78.378 Y102.594 E0.24794
G1 X73.987 Y104.228 E0.24661
G1 X69.288 Y105.445 E0.25544
G1 X64.736 Y106.139 E0.24232
G1 X60.129 Y106.39 E0.24284
G1 X58.528 Y106.379 E0.08427
G1 X26.212 Y106.379 E1.70076
G1 X23.954 Y106.165 E0.11937
G1 X21.818 Y105.569 E0.11668
G1 X19.939 Y104.678 E0.10945
G1 X18.261 Y103.515 E0.10744
G1 X16.512 Y101.765 E0.13023
G1 X15.304 Y100.01 E0.11212
G1 X14.418 Y98.101 E0.11078
G1 X13.862 Y96.07 E0.11079
G1 X13.655 Y93.955 E0.11183
G1 X13.649 Y61.501 E1.70803
G1 X13.636 Y60.012 E0.0784
G1 X13.649 Y58.499 E0.07963
G1 X13.649 Y26.184 E1.70071
G1 X13.863 Y23.926 E0.11937
G1 X14.46 Y21.79 E0.11669
G1 X15.35 Y19.91 E0.10947
G1 X16.513 Y18.234 E0.10738
G1 X17.414 Y17.33 E0.06716
G1 X17.77 Y17.685 F18000
G1 F1800
G1 X18.55 Y16.903 E0.05812
G1 X20.208 Y15.751 E0.10629
G1 X22.015 Y14.898 E0.10517
G1 X24.249 Y14.296 E0.12176
G1 X26.225 Y14.127 E0.10435
G1 X58.529 Y14.127 E1.70014
G1 X60.096 Y14.116 E0.08246
G1 X64.672 Y14.363 E0.24116
G1 X69.199 Y15.054 E0.241
G1 X73.698 Y16.212 E0.24453
G1 X78.094 Y17.835 E0.24661
G1 X82.29 Y19.892 E0.24596
G1 X86.286 Y22.387 E0.24793
G1 X89.869 Y25.16 E0.23842
G1 X91.4 Y26.606 E0.11087
G1 X92.496 Y27.61 E0.07822
G1 X93.33 Y28.452 E0.06237
