; generated by SuperSlicer 2.4 on 2023-12-10 at 22:51:09 UTC


;
;

;
;
; TODO: check the size of the extruder and the y-bar clearance. Optimize & test supports.

; external perimeters extrusion width = 0.40mm
; perimeters extrusion width = 0.40mm
; infill extrusion width = 0.40mm
; solid infill extrusion width = 0.40mm
; top infill extrusion width = 0.40mm
; first layer extrusion width = 0.56mm

; object:{"name":"sun_gear","id":"sun_gear.STL id:0 copy 0","object_center":[60.000000,60.000000,0.000000],"boundingbox_center":[60.000000,60.000000,8.000000],"boundingbox_size":[25.000000,24.991140,16.000000]}
; plater:{"center":[60.000000,60.000000,0.000000],"boundingbox_center":[60.000000,60.000000,8.000000],"boundingbox_size":[25.000000,24.991140,16.000000]}

;TYPE:Custom
; M190 S0
;M109 S0 ; uncomment to remove set&wait temp gcode added automatically after this start gcode
print_start EXTRUDER=245 BED=90 CHAMBER=50

;G92 E0
;G1 E10 F1500 ; prime the nozzle
M107
G21 ; set units to millimeters
G90 ; use absolute coordinates
M83 ; use relative distances for extrusion
SET_PRESSURE_ADVANCE ADVANCE=0.04
;_TOOLCHANGE 0
M104 S245 ; set temperature
M109 S245 ; set temperature and wait for it to be reached
M190 S90 ; set bed temperature and wait for it to be reached
M107
;LAYER_CHANGE
;Z:0.25
;HEIGHT:0.25
;BEFORE_LAYER_CHANGE
;0.25


G1 Z0.25 F18000
;AFTER_LAYER_CHANGE
;0.25
TIMELAPSE_TAKE_FRAME
G92 E0
G1 E-2 F3000
G1 Z0.65 F18000
M204 S1000
G1 X44.157 Y44.048
G1 Z0.25
G1 E2 F1800
;TYPE:Skirt
;WIDTH:0.52
G1 X42.552 Y45.822 E0.116
G1 X41.388 Y47.387 E0.09453
G1 X40.153 Y49.437 E0.116
G1 X39.143 Y51.607 E0.116
G1 X38.369 Y53.871 E0.116
G1 X37.84 Y56.205 E0.116
G1 X37.571 Y58.504 E0.11218
G1 X37.52 Y59.889 E0.06719
G1 X37.571 Y61.496 E0.07794
G1 X37.84 Y63.795 E0.11218
G1 X38.369 Y66.129 E0.116
G1 X39.143 Y68.393 E0.116
G1 X40.153 Y70.563 E0.116
G1 X41.143 Y72.243 E0.09453
G1 X42.552 Y74.178 E0.116
G1 X44.157 Y75.952 E0.116
G1 X45.943 Y77.546 E0.116
G1 X47.887 Y78.941 E0.116
G1 X50.368 Y80.315 E0.13746
G1 X52.582 Y81.224 E0.116
G1 X54.88 Y81.892 E0.116
G1 X57.236 Y82.312 E0.116
G1 X59.623 Y82.479 E0.116
G1 X61.91 Y82.401 E0.11091
G1 X64.165 Y82.092 E0.11031
G1 X66.278 Y81.588 E0.10531
G1 X68.537 Y80.799 E0.116
G1 X70.699 Y79.773 E0.116
G1 X72.741 Y78.524 E0.116
G1 X74.637 Y77.065 E0.116
G1 X76.368 Y75.412 E0.116
G1 X78.178 Y73.229 E0.13746
G1 X79.482 Y71.222 E0.116
G1 X80.564 Y69.088 E0.116
G1 X81.413 Y66.85 E0.116
G1 X81.927 Y64.969 E0.09453
G1 X82.331 Y62.61 E0.116
G1 X82.481 Y60.222 E0.116
G1 X82.331 Y57.39 E0.13746
G1 X81.927 Y55.031 E0.116
G1 X81.274 Y52.729 E0.116
G1 X80.381 Y50.508 E0.116
G1 X79.256 Y48.396 E0.116
G1 X77.914 Y46.415 E0.116
G1 X76.368 Y44.588 E0.116
G1 X74.637 Y42.935 E0.116
G1 X72.741 Y41.476 E0.116
G1 X71.087 Y40.441 E0.09453
G1 X68.946 Y39.374 E0.116
G1 X66.702 Y38.54 E0.116
G1 X64.383 Y37.949 E0.116
G1 X62.015 Y37.608 E0.116
G1 X60.378 Y37.541 E0.07941
G1 X59.18 Y37.532 E0.05807
G1 X56.796 Y37.747 E0.116
G1 X54.449 Y38.213 E0.116
G1 X52.165 Y38.927 E0.116
G1 X49.969 Y39.879 E0.116
G1 X47.887 Y41.059 E0.116
G1 X45.943 Y42.454 E0.116
G1 X44.202 Y44.008 E0.11309
G1 X44.511 Y44.354 F18000
G1 F1800
G1 X42.926 Y46.1 E0.1143
G1 X41.763 Y47.666 E0.09453
G1 X40.555 Y49.674 E0.11359
G1 X39.568 Y51.799 E0.1136
G1 X38.812 Y54.018 E0.1136
G1 X38.296 Y56.304 E0.11359
G1 X38.034 Y58.553 E0.10978
G1 X37.987 Y59.902 E0.06539
G1 X38.034 Y61.447 E0.07493
G1 X38.296 Y63.696 E0.10978
G1 X38.812 Y65.982 E0.11359
G1 X39.568 Y68.201 E0.1136
G1 X40.555 Y70.326 E0.11359
G1 X41.545 Y72.006 E0.09453
G1 X42.926 Y73.9 E0.11359
G1 X44.5 Y75.636 E0.1136
G1 X46.25 Y77.195 E0.11359
G1 X48.155 Y78.559 E0.11359
G1 X50.549 Y79.885 E0.13265
G1 X52.717 Y80.777 E0.11359
G1 X54.966 Y81.433 E0.1136
G1 X57.273 Y81.847 E0.11359
G1 X59.611 Y82.013 E0.1136
G1 X61.855 Y81.938 E0.10884
G1 X64.088 Y81.632 E0.10927
G1 X66.167 Y81.135 E0.10361
G1 X68.379 Y80.36 E0.11359
G1 X70.496 Y79.354 E0.11359
G1 X72.493 Y78.129 E0.11359
G1 X74.349 Y76.698 E0.1136
G1 X76.043 Y75.078 E0.1136
G1 X77.79 Y72.971 E0.13265
G1 X79.068 Y71.007 E0.1136
G1 X80.13 Y68.918 E0.11359
G1 X80.964 Y66.728 E0.1136
G1 X81.477 Y64.846 E0.09453
G1 X81.87 Y62.536 E0.11359
G1 X82.016 Y60.197 E0.1136
G1 X81.87 Y57.464 E0.13265
G1 X81.477 Y55.154 E0.11359
G1 X80.84 Y52.898 E0.1136
G1 X79.967 Y50.724 E0.1136
G1 X78.868 Y48.654 E0.11359
G1 X77.555 Y46.712 E0.1136
G1 X76.043 Y44.922 E0.11359
G1 X74.349 Y43.302 E0.1136
G1 X72.493 Y41.871 E0.11359
G1 X70.496 Y40.646 E0.1136
G1 X68.742 Y39.793 E0.09453
G1 X66.544 Y38.978 E0.11359
G1 X64.273 Y38.402 E0.1136
G1 X61.953 Y38.07 E0.11359
G1 X60.365 Y38.007 E0.07701
G1 X59.217 Y37.997 E0.05566
G1 X56.883 Y38.205 E0.11359
G1 X54.584 Y38.66 E0.1136
G1 X52.346 Y39.357 E0.1136
G1 X50.195 Y40.287 E0.11359
G1 X48.155 Y41.441 E0.1136
G1 X46.25 Y42.805 E0.11359
G1 X44.556 Y44.314 E0.10998
G1 X44.864 Y44.661 F18000
G1 F1800
G1 X44.843 Y44.68 E0.00139
G1 X43.52 Y46.113 E0.09453
G1 X42.137 Y47.944 E0.11119
G1 X40.957 Y49.911 E0.11119
G1 X39.992 Y51.992 E0.11119
G1 X39.254 Y54.164 E0.11119
G1 X38.752 Y56.402 E0.11119
G1 X38.498 Y58.603 E0.10738
G1 X38.453 Y59.914 E0.06358
G1 X38.498 Y61.397 E0.07192
G1 X38.752 Y63.598 E0.10738
G1 X39.254 Y65.836 E0.11119
G1 X39.992 Y68.008 E0.11119
G1 X40.798 Y69.784 E0.09453
G1 X41.947 Y71.769 E0.11119
G1 X43.3 Y73.622 E0.11119
G1 X44.843 Y75.32 E0.11119
G1 X46.557 Y76.844 E0.11119
G1 X48.424 Y78.177 E0.11119
G1 X50.731 Y79.456 E0.12785
G1 X52.851 Y80.331 E0.11119
G1 X55.053 Y80.975 E0.11119
G1 X57.31 Y81.382 E0.11119
G1 X59.598 Y81.547 E0.11119
G1 X61.8 Y81.475 E0.10677
G1 X64.012 Y81.172 E0.10824
G1 X66.386 Y80.583 E0.11856
G1 X68.538 Y79.787 E0.11119
G1 X70.292 Y78.935 E0.09453
G1 X72.246 Y77.733 E0.11119
G1 X74.061 Y76.331 E0.11119
G1 X75.718 Y74.744 E0.11119
G1 X77.401 Y72.714 E0.12785
G1 X78.654 Y70.792 E0.11119
G1 X79.695 Y68.748 E0.11119
G1 X80.514 Y66.605 E0.11119
G1 X81.099 Y64.387 E0.11119
G1 X81.41 Y62.462 E0.09453
G1 X81.55 Y60.172 E0.11119
G1 X81.41 Y57.538 E0.12785
G1 X81.027 Y55.277 E0.11119
G1 X80.406 Y53.068 E0.11119
G1 X79.553 Y50.939 E0.11119
G1 X78.479 Y48.912 E0.11119
G1 X77.196 Y47.01 E0.11119
G1 X75.718 Y45.256 E0.11119
G1 X74.061 Y43.669 E0.11119
G1 X72.246 Y42.267 E0.11119
G1 X70.292 Y41.065 E0.11119
G1 X68.538 Y40.213 E0.09453
G1 X66.386 Y39.417 E0.11119
G1 X64.162 Y38.855 E0.11119
G1 X61.891 Y38.532 E0.11119
G1 X60.353 Y38.473 E0.0746
G1 X59.254 Y38.462 E0.05326
G1 X56.969 Y38.663 E0.11119
G1 X54.718 Y39.106 E0.11119
G1 X52.527 Y39.786 E0.11119
G1 X50.421 Y40.695 E0.11119
G1 X48.424 Y41.823 E0.11119
G1 X46.557 Y43.156 E0.11119
G1 X44.909 Y44.621 E0.10689
G1 E-2 F3000
M204 S1500
G1 Z0.65 F18000
M204 S1000
G1 X47.632 Y47.436
G1 Z0.25
G1 E2 F1800
;WIDTH:0.56
G1 X49.035 Y46.195 E0.0986
G1 X50.541 Y45.123 E0.09727
G1 X52.15 Y44.214 E0.09727
G1 X53.858 Y43.475 E0.09796
G1 X55.662 Y42.912 E0.09942
G1 X57.49 Y42.55 E0.09808
G1 X59.347 Y42.383 E0.09815
G1 X60.209 Y42.387 E0.04537
G1 X61.565 Y42.44 E0.07139
G1 X63.42 Y42.705 E0.09862
G1 X65.239 Y43.167 E0.09875
G1 X66.994 Y43.817 E0.09851
G1 X68.597 Y44.608 E0.09407
G1 X70.132 Y45.572 E0.09541
G1 X71.54 Y46.672 E0.09403
G1 X72.839 Y47.919 E0.09476
G1 X74.056 Y49.359 E0.09925
G1 X75.104 Y50.908 E0.09842
G1 X76.122 Y52.866 E0.11615
G1 X76.786 Y54.612 E0.0983
G1 X77.264 Y56.426 E0.09875
G1 X77.546 Y58.281 E0.09876
G1 X77.629 Y60.153 E0.09862
G1 X77.519 Y61.968 E0.0957
G1 X77.218 Y63.788 E0.09707
G1 X76.728 Y65.565 E0.09701
G1 X76.055 Y67.283 E0.09708
G1 X75.22 Y68.898 E0.09571
G1 X74.207 Y70.439 E0.09703
G1 X73.039 Y71.865 E0.09704
G1 X71.737 Y73.154 E0.09642
G1 X70.263 Y74.334 E0.09938
G1 X68.687 Y75.341 E0.09842
G1 X66.704 Y76.305 E0.11603
G1 X65 Y76.906 E0.09509
G1 X63.243 Y77.33 E0.09512
G1 X62.553 Y77.441 E0.0368
G1 X61.487 Y77.568 E0.05649
G1 X59.682 Y77.627 E0.09504
G1 X57.815 Y77.494 E0.09852
G1 X55.968 Y77.162 E0.09875
G1 X54.167 Y76.637 E0.09875
G1 X52.439 Y75.926 E0.0983
G1 X50.509 Y74.857 E0.11614
G1 X48.991 Y73.77 E0.09829
G1 X47.592 Y72.524 E0.09854
G1 X46.371 Y71.183 E0.09549
G1 X45.309 Y69.745 E0.09406
G1 X44.385 Y68.185 E0.09542
G1 X43.637 Y66.561 E0.09409
G1 X43.033 Y64.789 E0.09853
G1 X42.623 Y62.974 E0.09796
G1 X42.408 Y61.13 E0.09768
G1 X42.37 Y59.91 E0.06424
G1 X42.408 Y58.866 E0.05496
G1 X42.623 Y57.026 E0.0975
G1 X43.034 Y55.208 E0.09808
G1 X43.643 Y53.423 E0.0993
G1 X44.4 Y51.787 E0.09483
G1 X45.325 Y50.229 E0.09537
G1 X46.406 Y48.775 E0.09535
G1 X47.592 Y47.481 E0.09238
G1 X47.965 Y47.823 F18000
G1 F1800
G1 X47.996 Y47.789 E0.00246
G1 X49.36 Y46.583 E0.0958
G1 X50.823 Y45.543 E0.09446
G1 X52.387 Y44.662 E0.09447
G1 X54.047 Y43.945 E0.09515
G1 X55.799 Y43.4 E0.09659
G1 X57.575 Y43.05 E0.09524
G1 X59.38 Y42.889 E0.0954
G1 X60.202 Y42.894 E0.04326
G1 X61.507 Y42.943 E0.06869
G1 X63.309 Y43.199 E0.09581
G1 X65.076 Y43.646 E0.09592
G1 X66.782 Y44.277 E0.09573
G1 X68.339 Y45.044 E0.09134
G1 X69.83 Y45.98 E0.09267
G1 X71.218 Y47.063 E0.09266
G1 X72.479 Y48.275 E0.09201
G1 X73.66 Y49.675 E0.09645
G1 X74.677 Y51.179 E0.09552
G1 X75.654 Y53.06 E0.11156
G1 X76.3 Y54.754 E0.09542
G1 X76.765 Y56.516 E0.09591
G1 X77.041 Y58.318 E0.09592
G1 X77.123 Y60.136 E0.09581
G1 X77.018 Y61.899 E0.09292
G1 X76.726 Y63.667 E0.09429
G1 X76.252 Y65.393 E0.09423
G1 X75.599 Y67.062 E0.09429
G1 X74.776 Y68.653 E0.09432
G1 X73.791 Y70.149 E0.09425
G1 X72.656 Y71.534 E0.09425
G1 X71.391 Y72.785 E0.09363
G1 X69.957 Y73.93 E0.09657
G1 X68.427 Y74.906 E0.09552
G1 X66.522 Y75.833 E0.11148
G1 X64.869 Y76.417 E0.09229
G1 X63.153 Y76.831 E0.09291
G1 X62.488 Y76.939 E0.03544
G1 X61.438 Y77.064 E0.05564
G1 X59.679 Y77.12 E0.09263
G1 X57.865 Y76.99 E0.09573
G1 X56.071 Y76.666 E0.09592
G1 X54.322 Y76.155 E0.09591
G1 X52.646 Y75.464 E0.09541
G1 X50.792 Y74.437 E0.11155
G1 X49.317 Y73.382 E0.09541
G1 X47.958 Y72.173 E0.09574
G1 X46.77 Y70.871 E0.09274
G1 X45.724 Y69.455 E0.09269
G1 X44.828 Y67.938 E0.09269
G1 X44.102 Y66.362 E0.09136
G1 X43.517 Y64.639 E0.09574
G1 X43.12 Y62.875 E0.09514
G1 X42.912 Y61.082 E0.095
G1 X42.877 Y59.92 E0.06122
G1 X42.913 Y58.915 E0.05292
G1 X43.12 Y57.124 E0.09485
G1 X43.518 Y55.359 E0.09525
G1 X44.109 Y53.623 E0.09649
G1 X44.854 Y52.012 E0.09344
G1 X45.754 Y50.5 E0.09262
G1 X46.804 Y49.088 E0.09262
G1 X47.924 Y47.867 E0.08717
G1 X48.296 Y48.208 F18000
G1 F1800
G1 X48.342 Y48.159 E0.00353
G1 X49.665 Y46.988 E0.093
G1 X51.083 Y45.978 E0.09165
G1 X52.624 Y45.11 E0.09306
G1 X54.235 Y44.415 E0.09232
G1 X55.936 Y43.888 E0.09376
G1 X57.659 Y43.549 E0.0924
G1 X59.413 Y43.394 E0.09265
G1 X60.195 Y43.4 E0.04116
G1 X61.449 Y43.446 E0.06604
G1 X63.198 Y43.694 E0.09299
G1 X64.913 Y44.126 E0.09308
G1 X66.57 Y44.737 E0.09293
G1 X68.103 Y45.493 E0.08995
G1 X69.55 Y46.401 E0.08993
G1 X70.896 Y47.454 E0.08992
G1 X72.118 Y48.63 E0.08927
G1 X73.265 Y49.991 E0.09366
G1 X74.249 Y51.45 E0.09263
G1 X75.186 Y53.254 E0.107
G1 X75.814 Y54.897 E0.09253
G1 X76.267 Y56.606 E0.09308
G1 X76.535 Y58.355 E0.09309
G1 X76.617 Y60.12 E0.093
G1 X76.513 Y61.856 E0.09152
G1 X76.229 Y63.571 E0.0915
G1 X75.767 Y65.246 E0.09144
G1 X75.133 Y66.865 E0.0915
G1 X74.332 Y68.409 E0.09153
G1 X73.376 Y69.859 E0.09146
G1 X72.273 Y71.203 E0.09146
G1 X71.044 Y72.415 E0.09084
G1 X69.652 Y73.526 E0.09375
G1 X68.167 Y74.471 E0.09263
G1 X66.34 Y75.36 E0.10694
G1 X64.712 Y75.935 E0.09085
G1 X63.062 Y76.333 E0.08934
G1 X62.423 Y76.437 E0.03409
G1 X61.389 Y76.559 E0.05478
G1 X59.676 Y76.614 E0.09021
G1 X57.915 Y76.486 E0.09294
G1 X56.174 Y76.171 E0.09308
G1 X54.478 Y75.672 E0.09308
G1 X52.853 Y75.001 E0.09253
G1 X51.074 Y74.016 E0.10699
G1 X49.643 Y72.995 E0.09253
G1 X48.323 Y71.822 E0.09294
G1 X47.17 Y70.56 E0.08998
G1 X46.153 Y69.186 E0.08995
G1 X45.283 Y67.715 E0.08995
G1 X44.568 Y66.162 E0.08998
G1 X44.001 Y64.489 E0.09295
G1 X43.617 Y62.778 E0.09231
G1 X43.416 Y61.035 E0.09232
G1 X43.383 Y59.929 E0.05823
G1 X43.417 Y58.963 E0.05089
G1 X43.617 Y57.222 E0.0922
G1 X44.001 Y55.509 E0.09241
G1 X44.574 Y53.823 E0.09368
G1 X45.296 Y52.259 E0.09067
G1 X46.168 Y50.791 E0.08988
G1 X47.186 Y49.42 E0.08988
G1 X48.256 Y48.253 E0.08332
G1 X48.629 Y48.595 F18000
G1 F1800
G1 X48.706 Y48.511 E0.00598
G1 X49.99 Y47.376 E0.09018
G1 X51.366 Y46.398 E0.08883
G1 X52.861 Y45.558 E0.09024
G1 X54.423 Y44.886 E0.08949
G1 X56.073 Y44.375 E0.09092
G1 X57.743 Y44.049 E0.08956
G1 X59.445 Y43.9 E0.0899
G1 X60.187 Y43.906 E0.03905
G1 X61.391 Y43.95 E0.06343
G1 X63.088 Y44.188 E0.09018
G1 X64.751 Y44.606 E0.09025
G1 X66.358 Y45.197 E0.09013
G1 X67.845 Y45.929 E0.0872
G1 X69.249 Y46.809 E0.08719
G1 X70.554 Y47.828 E0.08717
G1 X71.757 Y48.986 E0.08788
G1 X72.868 Y50.307 E0.09084
G1 X73.821 Y51.721 E0.08974
G1 X74.718 Y53.449 E0.10247
G1 X75.328 Y55.04 E0.08966
G1 X75.768 Y56.697 E0.09024
G1 X76.03 Y58.392 E0.09025
G1 X76.11 Y60.103 E0.09018
G1 X76.011 Y61.786 E0.08873
G1 X75.737 Y63.449 E0.08871
G1 X75.291 Y65.074 E0.08865
G1 X74.677 Y66.644 E0.08871
G1 X73.902 Y68.141 E0.08874
G1 X72.976 Y69.549 E0.08867
G1 X71.908 Y70.852 E0.08866
G1 X70.698 Y72.045 E0.08944
G1 X69.347 Y73.122 E0.09092
G1 X67.908 Y74.036 E0.08974
G1 X66.158 Y74.887 E0.10243
G1 X64.581 Y75.446 E0.08805
G1 X62.971 Y75.835 E0.08713
G1 X62.358 Y75.935 E0.03272
G1 X61.341 Y76.055 E0.05391
G1 X59.674 Y76.107 E0.08778
G1 X57.966 Y75.982 E0.09014
G1 X56.278 Y75.675 E0.09025
G1 X54.633 Y75.191 E0.09024
G1 X53.06 Y74.539 E0.08966
G1 X51.356 Y73.595 E0.10247
G1 X49.969 Y72.607 E0.08965
G1 X48.687 Y71.471 E0.09014
G1 X47.569 Y70.248 E0.08723
G1 X46.582 Y68.917 E0.0872
G1 X45.725 Y67.468 E0.08856
G1 X45.033 Y65.963 E0.08721
G1 X44.485 Y64.34 E0.09015
G1 X44.114 Y62.68 E0.08948
G1 X43.921 Y60.988 E0.08965
G1 X43.889 Y59.938 E0.05528
G1 X43.921 Y59.01 E0.04887
G1 X44.114 Y57.319 E0.08955
G1 X44.485 Y55.659 E0.08957
G1 X45.039 Y54.023 E0.09087
G1 X45.738 Y52.506 E0.0879
G1 X46.583 Y51.082 E0.08714
G1 X47.569 Y49.752 E0.08712
G1 X48.589 Y48.639 E0.07948
G1 X48.961 Y48.98 F18000
G1 F1800
G1 X49.052 Y48.881 E0.00703
G1 X50.295 Y47.781 E0.08736
G1 X51.648 Y46.819 E0.08741
G1 X53.097 Y46.006 E0.08741
G1 X54.61 Y45.357 E0.08666
G1 X56.209 Y44.863 E0.08809
G1 X57.827 Y44.548 E0.08673
G1 X59.476 Y44.405 E0.08713
G1 X60.178 Y44.412 E0.03695
G1 X61.334 Y44.453 E0.06087
G1 X62.978 Y44.683 E0.08736
G1 X64.589 Y45.086 E0.08741
G1 X66.147 Y45.657 E0.08731
G1 X67.61 Y46.377 E0.08581
G1 X68.968 Y47.23 E0.08443
G1 X70.232 Y48.219 E0.08443
G1 X71.396 Y49.341 E0.08511
G1 X72.472 Y50.622 E0.08803
G1 X73.392 Y51.992 E0.08686
G1 X74.251 Y53.644 E0.09798
G1 X74.842 Y55.183 E0.08679
G1 X75.27 Y56.788 E0.08741
G1 X75.525 Y58.429 E0.08741
G1 X75.604 Y60.087 E0.08736
G1 X75.51 Y61.717 E0.08592
G1 X75.24 Y63.354 E0.08731
G1 X74.806 Y64.926 E0.08585
G1 X74.21 Y66.447 E0.08593
G1 X73.459 Y67.896 E0.08595
G1 X72.561 Y69.259 E0.08588
G1 X71.525 Y70.52 E0.08587
G1 X70.353 Y71.675 E0.08663
G1 X69.043 Y72.717 E0.08809
G1 X67.649 Y73.601 E0.08686
G1 X65.975 Y74.415 E0.09796
G1 X64.449 Y74.957 E0.08524
G1 X62.881 Y75.337 E0.08492
G1 X62.293 Y75.432 E0.03135
G1 X61.292 Y75.551 E0.05304
G1 X59.671 Y75.601 E0.08533
G1 X58.017 Y75.478 E0.08733
G1 X56.383 Y75.179 E0.08741
G1 X54.79 Y74.709 E0.08741
G1 X53.267 Y74.077 E0.08679
G1 X51.638 Y73.175 E0.09798
G1 X50.295 Y72.219 E0.08678
G1 X49.052 Y71.119 E0.08733
G1 X47.951 Y69.916 E0.08584
G1 X46.997 Y68.626 E0.08443
G1 X46.168 Y67.222 E0.0858
G1 X45.499 Y65.764 E0.08444
G1 X44.969 Y64.191 E0.08735
G1 X44.611 Y62.584 E0.08666
G1 X44.425 Y60.942 E0.08697
G1 X44.396 Y59.947 E0.05236
G1 X44.425 Y59.057 E0.04686
G1 X44.611 Y57.416 E0.08691
G1 X44.969 Y55.808 E0.08673
G1 X45.505 Y54.223 E0.08806
G1 X46.181 Y52.753 E0.08514
G1 X46.997 Y51.373 E0.0844
G1 X47.951 Y50.084 E0.08436
G1 X48.921 Y49.024 E0.07563
G1 X49.294 Y49.366 F18000
G1 F1800
G1 X49.416 Y49.233 E0.00949
G1 X50.62 Y48.17 E0.08454
G1 X51.93 Y47.24 E0.08458
G1 X53.332 Y46.454 E0.08457
G1 X54.797 Y45.827 E0.08383
G1 X56.345 Y45.351 E0.08526
G1 X57.91 Y45.048 E0.08389
G1 X59.507 Y44.911 E0.08437
G1 X60.169 Y44.919 E0.03485
G1 X61.278 Y44.956 E0.05836
G1 X62.869 Y45.177 E0.08454
G1 X64.428 Y45.566 E0.08458
G1 X65.936 Y46.118 E0.0845
G1 X67.352 Y46.813 E0.08303
G1 X68.667 Y47.637 E0.08167
