; generated by SuperSlicer 2.5.59 on 2023-12-26 at 17:43:36 UTC


;
;

;
;
; TODO: check the size of the extruder and the y-bar clearance. Optimize & test supports.

; external perimeters extrusion width = 0.40mm
; perimeters extrusion width = 0.40mm
; infill extrusion width = 0.40mm
; solid infill extrusion width = 0.40mm
; top infill extrusion width = 0.40mm
; first layer extrusion width = 0.40mm

; object:{"name":"sun_gear_phat","id":"sun_gear_phat.STL id:0 copy 0","object_center":[60.000000,60.000000,0.000000],"boundingbox_center":[60.000000,60.000000,9.500000],"boundingbox_size":[25.000000,24.984772,19.000000]}
EXCLUDE_OBJECT_DEFINE NAME=sun_gear_phat_STL_id_0_copy_0 CENTER=60.000000,60.000000 POLYGON=[[47.500000,60.000000],[47.530448,59.128044],[47.621652,58.260336],[47.653192,58.049024],[47.773156,57.401104],[47.984232,56.554536],[48.253840,55.724748],[48.580680,54.915792],[48.963156,54.131608],[49.399400,53.376012],[49.887288,52.652684],[50.424448,51.965156],[51.008256,51.316772],[51.635868,50.710688],[52.304228,50.149864],[53.010092,49.637032],[53.750000,49.174684],[54.520364,48.765076],[55.317416,48.410204],[56.137288,48.111792],[56.975976,47.871304],[57.829400,47.689904],[58.693392,47.568476],[59.563760,47.507616],[60.436244,47.507616],[61.306608,47.568476],[62.170600,47.689904],[63.024024,47.871304],[63.862712,48.111792],[64.682588,48.410204],[65.479636,48.765076],[66.250000,49.174684],[66.989916,49.637032],[67.695768,50.149864],[68.364136,50.710688],[68.991744,51.316772],[69.575552,51.965156],[70.112720,52.652684],[70.600600,53.376012],[71.036840,54.131608],[71.419320,54.915792],[71.746152,55.724748],[72.015768,56.554536],[72.226848,57.401104],[72.378352,58.260336],[72.469552,59.128044],[72.500000,60.000000],[72.469552,60.871956],[72.378352,61.739664],[72.226848,62.598896],[72.015768,63.445464],[71.746152,64.275252],[71.419320,65.084204],[71.036840,65.868392],[70.600600,66.623992],[70.112720,67.347312],[69.575552,68.034840],[68.991744,68.683224],[68.364136,69.289304],[67.695768,69.850136],[66.989916,70.362968],[66.250000,70.825320],[65.479636,71.234928],[64.682588,71.589800],[63.862712,71.888208],[63.024024,72.128696],[62.170600,72.310096],[61.950804,72.346832],[61.306608,72.431528],[60.436244,72.492384],[59.563760,72.492384],[58.693392,72.431528],[57.829400,72.310096],[56.975976,72.128696],[56.137288,71.888208],[55.317416,71.589800],[54.520364,71.234928],[53.750000,70.825320],[53.010092,70.362968],[52.304228,69.850136],[51.635868,69.289304],[51.008256,68.683224],[50.424448,68.034840],[49.887288,67.347312],[49.399400,66.623992],[48.963156,65.868392],[48.580680,65.084204],[48.253840,64.275252],[47.984232,63.445464],[47.773156,62.598896],[47.621652,61.739664],[47.530448,60.871956],[47.500000,60.000000]]
; plater:{"center":[60.000000,60.000000,0.000000],"boundingbox_center":[60.000000,60.000000,9.500000],"boundingbox_size":[25.000000,24.984772,19.000000]}

;TYPE:Custom
; M190 S0
; M109 S0 ; uncomment to remove set&wait temp gcode added automatically after this start gcode
print_start EXTRUDER=245 BED=90 CHAMBER=50
M107
G21 ; set units to millimeters
G90 ; use absolute coordinates
M83 ; use relative distances for extrusion
SET_PRESSURE_ADVANCE ADVANCE=0.02
;_TOOLCHANGE 0
M104 S245 ; set temperature
M109 S245 ; set temperature and wait for it to be reached
M190 S90 ; set bed temperature and wait for it to be reached
M107
;LAYER_CHANGE
;Z:0.2
;HEIGHT:0.2
;BEFORE_LAYER_CHANGE
;0.2


G1 Z0.2 F18000
;AFTER_LAYER_CHANGE
;0.2
G92 E0
G1 E-2 F3000
G1 Z0.6 F18000
M204 S1000
G1 X47.948 Y46.892
G1 Z0.2
G1 E2 F1800
;TYPE:Skirt
;WIDTH:0.4
G1 X46.479 Y48.412 E0.06276
G1 X45.704 Y49.384 E0.0369
G1 X44.801 Y50.722 E0.04792
G1 X43.809 Y52.588 E0.06276
G1 X43.204 Y54.085 E0.04792
G1 X42.622 Y56.116 E0.06276
G1 X42.393 Y57.338 E0.0369
G1 X42.225 Y58.943 E0.04792
G1 X42.225 Y61.057 E0.06276
G1 X42.393 Y62.662 E0.04792
G1 X42.833 Y64.729 E0.06276
G1 X43.204 Y65.915 E0.0369
G1 X43.809 Y67.412 E0.04792
G1 X44.366 Y68.523 E0.0369
G1 X45.486 Y70.316 E0.06276
G1 X46.479 Y71.588 E0.04792
G1 X47.948 Y73.108 E0.06276
G1 X49.184 Y74.145 E0.04792
G1 X50.936 Y75.327 E0.06276
G1 X52.361 Y76.085 E0.04792
G1 X54.321 Y76.877 E0.06276
G1 X55.873 Y77.322 E0.04792
G1 X57.091 Y77.568 E0.0369
G1 X59.193 Y77.788 E0.06276
G1 X60.807 Y77.788 E0.04792
G1 X62.909 Y77.568 E0.06276
G1 X64.488 Y77.232 E0.04792
G1 X66.498 Y76.579 E0.06276
G1 X67.972 Y75.922 E0.04792
G1 X69.803 Y74.866 E0.06276
G1 X70.816 Y74.145 E0.0369
G1 X72.052 Y73.108 E0.04792
G1 X73.521 Y71.588 E0.06276
G1 X74.296 Y70.616 E0.0369
G1 X75.199 Y69.278 E0.04792
G1 X76.191 Y67.412 E0.06276
G1 X76.796 Y65.915 E0.04792
G1 X77.167 Y64.729 E0.0369
G1 X77.607 Y62.662 E0.06276
G1 X77.775 Y61.057 E0.04792
G1 X77.775 Y58.943 E0.06276
G1 X77.607 Y57.338 E0.04792
G1 X77.167 Y55.271 E0.06276
G1 X76.796 Y54.085 E0.0369
G1 X76.191 Y52.588 E0.04792
G1 X75.634 Y51.477 E0.0369
G1 X74.514 Y49.684 E0.06276
G1 X73.521 Y48.412 E0.04792
G1 X72.052 Y46.892 E0.06276
G1 X70.816 Y45.854 E0.04792
G1 X69.064 Y44.673 E0.06276
G1 X67.639 Y43.915 E0.04792
G1 X66.498 Y43.421 E0.0369
G1 X64.488 Y42.768 E0.06276
G1 X62.909 Y42.432 E0.04792
G1 X60.807 Y42.212 E0.06276
G1 X59.193 Y42.212 E0.04792
G1 X57.091 Y42.432 E0.06276
G1 X55.512 Y42.768 E0.04792
G1 X53.502 Y43.421 E0.06276
G1 X52.028 Y44.078 E0.04792
G1 X50.197 Y45.134 E0.06276
G1 X49.184 Y45.854 E0.0369
G1 X47.994 Y46.853 E0.04614
G1 X48.223 Y47.126 F18000
G1 F1800
G1 X48.196 Y47.149 E0.00104
G1 X46.745 Y48.651 E0.06202
G1 X45.985 Y49.604 E0.03616
G1 X45.111 Y50.9 E0.04644
G1 X44.13 Y52.745 E0.06202
G1 X43.544 Y54.195 E0.04644
G1 X42.968 Y56.203 E0.06202
G1 X42.697 Y57.743 E0.04644
G1 X42.581 Y58.956 E0.03616
G1 X42.581 Y61.044 E0.06202
G1 X42.745 Y62.6 E0.04644
G1 X43.179 Y64.643 E0.06202
G1 X43.544 Y65.805 E0.03616
G1 X44.13 Y67.255 E0.04644
G1 X44.675 Y68.345 E0.03616
G1 X45.782 Y70.116 E0.06202
G1 X46.745 Y71.349 E0.04644
G1 X48.196 Y72.851 E0.06202
G1 X49.394 Y73.857 E0.04644
G1 X51.125 Y75.025 E0.06202
G1 X52.507 Y75.759 E0.04644
G1 X53.624 Y76.243 E0.03616
G1 X55.611 Y76.889 E0.06202
G1 X57.141 Y77.214 E0.04644
G1 X59.218 Y77.432 E0.06202
G1 X60.782 Y77.432 E0.04644
G1 X62.859 Y77.214 E0.06202
G1 X64.053 Y76.973 E0.03616
G1 X65.557 Y76.541 E0.04644
G1 X67.493 Y75.759 E0.06202
G1 X68.875 Y75.025 E0.04644
G1 X69.901 Y74.369 E0.03616
G1 X71.547 Y73.083 E0.06202
G1 X72.672 Y71.996 E0.04644
G1 X74.015 Y70.396 E0.06202
G1 X74.889 Y69.1 E0.04644
G1 X75.87 Y67.255 E0.06202
G1 X76.456 Y65.805 E0.04644
G1 X76.821 Y64.643 E0.03616
G1 X77.255 Y62.6 E0.06202
G1 X77.419 Y61.044 E0.04644
G1 X77.419 Y58.956 E0.06202
G1 X77.255 Y57.4 E0.04644
G1 X76.821 Y55.357 E0.06202
G1 X76.456 Y54.195 E0.03616
G1 X75.87 Y52.745 E0.04644
G1 X75.325 Y51.655 E0.03616
G1 X74.218 Y49.884 E0.06202
G1 X73.255 Y48.651 E0.04644
G1 X71.804 Y47.149 E0.06202
G1 X70.606 Y46.143 E0.04644
G1 X68.875 Y44.975 E0.06202
G1 X67.493 Y44.241 E0.04644
G1 X66.376 Y43.757 E0.03616
G1 X64.389 Y43.111 E0.06202
G1 X62.859 Y42.786 E0.04644
G1 X60.782 Y42.568 E0.06202
G1 X59.218 Y42.568 E0.04644
G1 X57.141 Y42.786 E0.06202
G1 X55.611 Y43.111 E0.04644
G1 X53.624 Y43.757 E0.06202
G1 X52.195 Y44.393 E0.04644
G1 X50.386 Y45.437 E0.06202
G1 X49.394 Y46.143 E0.03616
G1 X48.268 Y47.088 E0.04362
G1 X48.52 Y47.348 F18000
G1 F1800
G1 X47.593 Y48.242 E0.03824
G1 X46.267 Y49.823 E0.06128
G1 X45.42 Y51.079 E0.04496
G1 X44.642 Y52.509 E0.04835
G1 X43.994 Y54.003 E0.04835
G1 X43.526 Y55.443 E0.04496
G1 X43.097 Y57.462 E0.06128
G1 X42.938 Y58.968 E0.04496
G1 X42.908 Y60.161 E0.03542
G1 X43.052 Y62.22 E0.06128
G1 X43.315 Y63.711 E0.04496
G1 X43.884 Y65.695 E0.06128
G1 X44.451 Y67.099 E0.04496
G1 X44.984 Y68.166 E0.03542
G1 X46.078 Y69.916 E0.06128
G1 X47.01 Y71.11 E0.04496
G1 X48.444 Y72.594 E0.06128
G1 X49.604 Y73.568 E0.04496
G1 X51.315 Y74.722 E0.06128
G1 X52.652 Y75.433 E0.04496
G1 X53.746 Y75.908 E0.03542
G1 X55.709 Y76.545 E0.06128
G1 X57.19 Y76.86 E0.04496
G1 X59.243 Y77.076 E0.06128
G1 X60.757 Y77.076 E0.04496
G1 X62.81 Y76.86 E0.06128
G1 X64.291 Y76.545 E0.04496
G1 X65.435 Y76.206 E0.03542
G1 X67.348 Y75.433 E0.06128
G1 X68.685 Y74.722 E0.04496
G1 X69.691 Y74.08 E0.03542
G1 X71.317 Y72.809 E0.06128
G1 X72.407 Y71.758 E0.04496
G1 X73.733 Y70.177 E0.06128
G1 X74.58 Y68.921 E0.04496
G1 X75.549 Y67.099 E0.06128
G1 X76.116 Y65.695 E0.04496
G1 X76.474 Y64.557 E0.03542
G1 X76.903 Y62.538 E0.06128
G1 X77.062 Y61.032 E0.04496
G1 X77.062 Y58.968 E0.06128
G1 X76.903 Y57.462 E0.04496
G1 X76.474 Y55.443 E0.06128
G1 X76.116 Y54.305 E0.03542
G1 X75.68 Y53.195 E0.03542
G1 X75.016 Y51.834 E0.04496
G1 X73.922 Y50.084 E0.06128
G1 X72.99 Y48.89 E0.04496
G1 X71.556 Y47.406 E0.06128
G1 X70.396 Y46.432 E0.04496
G1 X68.685 Y45.278 E0.06128
G1 X67.348 Y44.567 E0.04496
G1 X66.254 Y44.092 E0.03542
G1 X64.291 Y43.455 E0.06128
G1 X62.81 Y43.14 E0.04496
G1 X60.757 Y42.924 E0.06128
G1 X59.243 Y42.924 E0.04496
G1 X57.19 Y43.14 E0.06128
G1 X55.709 Y43.455 E0.04496
G1 X54.565 Y43.794 E0.03542
G1 X52.652 Y44.567 E0.06128
G1 X51.315 Y45.278 E0.04496
G1 X50.309 Y45.92 E0.03542
G1 X48.683 Y47.191 E0.06128
G1 X48.563 Y47.306 E0.00494
G1 X48.793 Y47.576 F18000
G1 F1800
G1 X48.692 Y47.663 E0.00396
G1 X47.275 Y49.129 E0.06054
G1 X46.374 Y50.283 E0.04348
G1 X45.293 Y52.012 E0.06054
G1 X44.772 Y53.058 E0.03468
G1 X44.223 Y54.416 E0.04348
G1 X43.661 Y56.375 E0.06054
G1 X43.448 Y57.524 E0.03468
G1 X43.295 Y58.981 E0.04348
G1 X43.265 Y60.148 E0.03468
G1 X43.407 Y62.182 E0.06054
G1 X43.661 Y63.625 E0.04348
G1 X44.223 Y65.584 E0.06054
G1 X44.772 Y66.942 E0.04348
G1 X45.293 Y67.988 E0.03468
G1 X46.374 Y69.717 E0.06054
G1 X47.275 Y70.871 E0.04348
G1 X48.692 Y72.337 E0.06054
G1 X49.814 Y73.279 E0.04348
G1 X51.504 Y74.419 E0.06054
G1 X52.797 Y75.107 E0.04348
G1 X53.868 Y75.572 E0.03468
G1 X55.807 Y76.202 E0.06054
G1 X57.24 Y76.507 E0.04348
G1 X59.268 Y76.72 E0.06054
G1 X60.732 Y76.72 E0.04348
G1 X62.76 Y76.507 E0.06054
G1 X64.193 Y76.202 E0.04348
G1 X66.132 Y75.572 E0.06054
G1 X67.47 Y74.977 E0.04348
G1 X69.235 Y73.957 E0.06054
G1 X70.186 Y73.279 E0.03468
G1 X71.308 Y72.337 E0.04348
G1 X72.725 Y70.871 E0.06054
G1 X73.452 Y69.957 E0.03468
G1 X74.271 Y68.743 E0.04348
G1 X75.228 Y66.942 E0.06054
G1 X75.777 Y65.584 E0.04348
G1 X76.128 Y64.47 E0.03468
G1 X76.552 Y62.476 E0.06054
G1 X76.705 Y61.019 E0.04348
G1 X76.705 Y58.981 E0.06054
G1 X76.593 Y57.818 E0.03468
G1 X76.339 Y56.375 E0.04348
G1 X75.777 Y54.416 E0.06054
G1 X75.228 Y53.058 E0.04348
G1 X74.707 Y52.012 E0.03468
G1 X73.626 Y50.283 E0.06054
G1 X72.725 Y49.129 E0.04349
G1 X71.308 Y47.663 E0.06054
G1 X70.186 Y46.721 E0.04348
G1 X68.496 Y45.581 E0.06054
G1 X67.203 Y44.893 E0.04348
G1 X66.132 Y44.428 E0.03468
G1 X64.193 Y43.798 E0.06054
G1 X62.76 Y43.493 E0.04348
G1 X60.732 Y43.28 E0.06054
G1 X59.268 Y43.28 E0.04348
G1 X57.24 Y43.493 E0.06054
G1 X55.807 Y43.798 E0.04348
G1 X53.868 Y44.428 E0.06054
G1 X52.53 Y45.023 E0.04348
G1 X50.765 Y46.043 E0.06054
G1 X49.58 Y46.904 E0.04348
G1 X48.839 Y47.537 E0.02894
G1 X49.069 Y47.811 F18000
G1 F1800
G1 X48.94 Y47.919 E0.00501
G1 X47.541 Y49.368 E0.0598
G1 X46.829 Y50.263 E0.03394
G1 X46.038 Y51.436 E0.04201
G1 X45.093 Y53.214 E0.0598
G1 X44.563 Y54.526 E0.042
G1 X44.008 Y56.462 E0.0598
G1 X43.762 Y57.855 E0.042
G1 X43.652 Y58.993 E0.03394
G1 X43.622 Y60.136 E0.03394
G1 X43.762 Y62.145 E0.0598
G1 X44.008 Y63.538 E0.04201
G1 X44.563 Y65.474 E0.0598
G1 X45.093 Y66.786 E0.042
G1 X45.603 Y67.809 E0.03394
G1 X46.67 Y69.517 E0.0598
G1 X47.541 Y70.632 E0.04201
G1 X48.94 Y72.081 E0.0598
G1 X50.023 Y72.99 E0.042
G1 X51.693 Y74.116 E0.0598
G1 X52.942 Y74.78 E0.042
G1 X53.991 Y75.237 E0.03394
G1 X55.906 Y75.859 E0.0598
G1 X57.29 Y76.153 E0.04201
G1 X59.293 Y76.364 E0.0598
G1 X60.707 Y76.364 E0.04201
G1 X62.71 Y76.153 E0.0598
G1 X64.094 Y75.859 E0.04201
G1 X66.009 Y75.237 E0.0598
G1 X67.302 Y74.661 E0.04201
G1 X69.046 Y73.654 E0.0598
G1 X69.977 Y72.99 E0.03395
G1 X71.06 Y72.081 E0.042
G1 X72.459 Y70.632 E0.0598
G1 X73.33 Y69.517 E0.04201
G1 X73.962 Y68.564 E0.03394
G1 X74.907 Y66.786 E0.0598
G1 X75.437 Y65.474 E0.042
G1 X75.781 Y64.384 E0.03394
G1 X76.2 Y62.414 E0.0598
G1 X76.348 Y61.007 E0.04201
G1 X76.348 Y58.993 E0.0598
G1 X76.238 Y57.855 E0.03394
G1 X75.992 Y56.462 E0.04201
G1 X75.437 Y54.526 E0.0598
G1 X75.018 Y53.462 E0.03394
G1 X74.397 Y52.191 E0.04201
G1 X73.33 Y50.483 E0.0598
G1 X72.459 Y49.368 E0.04201
G1 X71.06 Y47.919 E0.0598
G1 X70.191 Y47.177 E0.03394
G1 X69.046 Y46.346 E0.04201
G1 X67.302 Y45.339 E0.0598
G1 X66.009 Y44.763 E0.042
G1 X64.094 Y44.141 E0.0598
G1 X62.71 Y43.847 E0.04201
G1 X60.707 Y43.636 E0.0598
G1 X59.293 Y43.636 E0.04201
G1 X57.29 Y43.847 E0.0598
G1 X55.906 Y44.141 E0.04201
G1 X53.991 Y44.763 E0.0598
G1 X52.698 Y45.339 E0.04201
G1 X50.954 Y46.346 E0.0598
G1 X50.024 Y47.01 E0.03394
G1 X49.115 Y47.772 E0.03522
G1 X49.344 Y48.045 F18000
G1 F1800
G1 X49.188 Y48.176 E0.00605
G1 X47.806 Y49.607 E0.05906
G1 X46.966 Y50.683 E0.04053
G1 X45.912 Y52.369 E0.05906
G1 X45.414 Y53.371 E0.0332
G1 X44.903 Y54.636 E0.04053
G1 X44.354 Y56.548 E0.05906
G1 X44.152 Y57.648 E0.0332
G1 X44.009 Y59.005 E0.04053
G1 X44.009 Y60.995 E0.05906
G1 X44.152 Y62.352 E0.04053
G1 X44.565 Y64.298 E0.05906
G1 X44.903 Y65.364 E0.0332
G1 X45.414 Y66.629 E0.04053
G1 X45.912 Y67.631 E0.0332
G1 X46.966 Y69.317 E0.05906
G1 X47.806 Y70.393 E0.04053
G1 X49.188 Y71.824 E0.05906
G1 X50.233 Y72.701 E0.04053
G1 X51.882 Y73.813 E0.05906
G1 X53.088 Y74.454 E0.04053
G1 X54.932 Y75.199 E0.05906
G1 X56.244 Y75.575 E0.04053
G1 X57.339 Y75.8 E0.0332
G1 X59.318 Y76.007 E0.05906
G1 X60.682 Y76.007 E0.04053
G1 X62.661 Y75.8 E0.05906
G1 X63.996 Y75.516 E0.04053
G1 X65.068 Y75.199 E0.0332
G1 X66.912 Y74.454 E0.05906
G1 X68.118 Y73.813 E0.04053
G1 X69.061 Y73.213 E0.0332
G1 X70.629 Y71.989 E0.05906
G1 X71.611 Y71.041 E0.04053
G1 X72.889 Y69.517 E0.05906
G1 X73.652 Y68.385 E0.04053
G1 X74.586 Y66.629 E0.05906
G1 X75.097 Y65.364 E0.04053
G1 X75.435 Y64.298 E0.0332
G1 X75.848 Y62.352 E0.05906
G1 X75.991 Y60.995 E0.04053
G1 X75.991 Y59.005 E0.05906
G1 X75.883 Y57.892 E0.0332
G1 X75.646 Y56.548 E0.04053
G1 X75.097 Y54.636 E0.05906
G1 X74.586 Y53.371 E0.04053
G1 X74.088 Y52.369 E0.0332
G1 X73.034 Y50.683 E0.05906
G1 X72.194 Y49.607 E0.04053
G1 X70.812 Y48.176 E0.05906
G1 X69.767 Y47.299 E0.04053
G1 X68.857 Y46.649 E0.0332
G1 X67.134 Y45.654 E0.05906
G1 X65.887 Y45.099 E0.04053
G1 X63.996 Y44.484 E0.05906
G1 X62.661 Y44.2 E0.04053
G1 X60.682 Y43.993 E0.05906
G1 X59.318 Y43.993 E0.04053
G1 X57.339 Y44.2 E0.05906
G1 X56.004 Y44.484 E0.04053
G1 X54.113 Y45.099 E0.05906
G1 X52.866 Y45.654 E0.04053
G1 X51.143 Y46.649 E0.05906
G1 X50.233 Y47.299 E0.0332
G1 X49.39 Y48.007 E0.0327
G1 X49.605 Y48.282 F18000
G1 F1800
G1 X48.655 Y49.198 E0.03919
G1 X47.392 Y50.703 E0.05832
G1 X46.657 Y51.793 E0.03905
G1 X45.735 Y53.527 E0.05832
G1 X45.242 Y54.747 E0.03905
G1 X44.701 Y56.635 E0.05832
G1 X44.503 Y57.71 E0.03246
G1 X44.366 Y59.018 E0.03905
G1 X44.366 Y60.982 E0.05832
G1 X44.503 Y62.29 E0.03905
G1 X44.912 Y64.211 E0.05832
G1 X45.242 Y65.253 E0.03247
G1 X45.735 Y66.473 E0.03905
G1 X46.221 Y67.452 E0.03247
G1 X47.262 Y69.118 E0.05832
G1 X48.071 Y70.154 E0.03905
G1 X49.436 Y71.567 E0.05832
G1 X50.443 Y72.412 E0.03905
G1 X52.072 Y73.511 E0.05832
G1 X53.233 Y74.128 E0.03905
G1 X55.054 Y74.864 E0.05832
G1 X56.318 Y75.226 E0.03905
G1 X57.389 Y75.446 E0.03246
G1 X59.342 Y75.651 E0.05832
G1 X60.658 Y75.651 E0.03905
G1 X62.611 Y75.446 E0.05832
G1 X63.682 Y75.226 E0.03247
G1 X64.946 Y74.864 E0.03905
G1 X66.767 Y74.128 E0.05832
G1 X67.928 Y73.511 E0.03905
G1 X68.852 Y72.925 E0.03246
G1 X70.399 Y71.715 E0.05832
G1 X71.345 Y70.802 E0.03905
G1 X72.608 Y69.297 E0.05832
G1 X73.343 Y68.207 E0.03905
G1 X74.265 Y66.473 E0.05832
G1 X74.758 Y65.253 E0.03905
G1 X75.088 Y64.211 E0.03247
G1 X75.497 Y62.29 E0.05832
G1 X75.634 Y60.982 E0.03905
G1 X75.634 Y59.018 E0.05832
G1 X75.528 Y57.93 E0.03246
G1 X75.299 Y56.635 E0.03905
G1 X74.758 Y54.747 E0.05832
G1 X74.356 Y53.73 E0.03246
G1 X73.779 Y52.548 E0.03905
G1 X72.738 Y50.882 E0.05832
G1 X71.929 Y49.846 E0.03905
G1 X70.564 Y48.433 E0.05832
G1 X69.557 Y47.588 E0.03905
G1 X67.928 Y46.489 E0.05832
