; generated by SuperSlicer 2.5.59 on 2024-01-15 at 03:38:55 UTC


;
;

;
;
; TODO: check the size of the extruder and the y-bar clearance. Optimize & test supports.

; external perimeters extrusion width = 0.40mm
; perimeters extrusion width = 0.40mm
; infill extrusion width = 0.40mm
; solid infill extrusion width = 0.40mm
; top infill extrusion width = 0.40mm
; first layer extrusion width = 0.40mm

; object:{"name":"TestStand","id":"TestStand.STL id:0 copy 0","object_center":[60.000000,60.000000,0.000000],"boundingbox_center":[60.000000,60.000000,10.000000],"boundingbox_size":[60.000000,104.000000,20.000000]}
EXCLUDE_OBJECT_DEFINE NAME=TestStand_STL_id_0_copy_0 CENTER=60.000000,60.000000 POLYGON=[[30.000000,14.000000],[30.456722,11.703903],[31.757358,9.757362],[33.703900,8.456718],[36.000000,8.000000],[84.000000,8.000000],[86.296096,8.456718],[88.242648,9.757362],[89.543272,11.703903],[90.000000,14.000000],[90.000000,18.000000],[78.000000,106.000000],[77.543272,108.296096],[76.242648,110.242648],[74.296104,111.543272],[72.000000,112.000000],[68.000000,112.000000],[65.703904,111.543272],[63.757364,110.242648],[62.456728,108.296096],[30.456722,20.296104],[30.000000,18.000000],[30.000000,14.000000]]
; plater:{"center":[60.000000,60.000000,0.000000],"boundingbox_center":[60.000000,60.000000,10.000000],"boundingbox_size":[60.000000,104.000000,20.000000]}

;TYPE:Custom
; M190 S0
; M109 S0 ; uncomment to remove set&wait temp gcode added automatically after this start gcode
print_start EXTRUDER=245 BED=90 CHAMBER=50
M107
G21 ; set units to millimeters
G90 ; use absolute coordinates
M83 ; use relative distances for extrusion
SET_PRESSURE_ADVANCE ADVANCE=0.02
;_TOOLCHANGE 0
M104 S245 ; set temperature
M109 S245 ; set temperature and wait for it to be reached
M190 S90 ; set bed temperature and wait for it to be reached
M107
;LAYER_CHANGE
;Z:0.2
;HEIGHT:0.2
;BEFORE_LAYER_CHANGE
;0.2


G1 Z0.2 F18000
;AFTER_LAYER_CHANGE
;0.2
G92 E0
G1 E-2 F3000
G1 Z0.6 F18000
M204 S1000
G1 X25.221 Y9.279
G1 Z0.2
G1 E2 F1800
;TYPE:Skirt
;WIDTH:0.4
G1 X27.104 Y6.285 E0.10501
G1 X27.717 Y5.546 E0.0285
G1 X31.417 Y3.072 E0.13218
G1 X32.289 Y2.797 E0.02715
G1 X35.038 Y2.251 E0.08319
G1 X84.922 Y2.247 E1.48114
G1 X87.79 Y2.812 E0.0868
G1 X89.283 Y3.429 E0.04797
G1 X91.606 Y4.981 E0.08292
G1 X92.291 Y5.556 E0.02658
G1 X94.388 Y8.515 E0.10766
G1 X95.036 Y10.065 E0.04988
G1 X95.609 Y13.035 E0.08981
G1 X95.646 Y17.97 E0.14653
G1 X94.782 Y22.094 E0.12512
G1 X94.337 Y22.939 E0.02835
G1 X92.285 Y25.83 E0.10527
G1 X91.56 Y26.431 E0.02796
G1 X88.566 Y28.313 E0.10501
G1 X87.712 Y28.583 E0.02658
G1 X83.977 Y29.326 E0.11306
G1 X83.815 Y29.434 E0.0058
G1 X83.706 Y29.597 E0.00581
G1 X83.561 Y30.325 E0.02204
G1 X83.507 Y107.137 E2.28064
G1 X82.963 Y109.867 E0.08266
G1 X82.694 Y110.721 E0.02658
G1 X80.764 Y113.789 E0.10761
G1 X79.596 Y114.969 E0.04932
G1 X77.198 Y116.571 E0.08562
G1 X75.689 Y117.192 E0.04844
G1 X72.678 Y117.769 E0.09104
G1 X67.24 Y117.745 E0.16147
G1 X64.513 Y117.203 E0.08253
G1 X63.66 Y116.934 E0.02658
G1 X60.666 Y115.052 E0.10501
G1 X59.941 Y114.45 E0.02796
G1 X57.889 Y111.559 E0.10527
G1 X57.444 Y110.717 E0.02827
G1 X56.611 Y106.898 E0.11607
G1 X56.579 Y30.324 E2.27357
G1 X56.435 Y29.597 E0.02202
G1 X56.326 Y29.434 E0.00581
G1 X56.164 Y29.326 E0.0058
G1 X55.437 Y29.181 E0.02201
G1 X35.59 Y29.181 E0.58925
G1 X32.31 Y28.589 E0.09897
G1 X31.078 Y28.142 E0.03892
G1 X28.428 Y26.423 E0.09377
G1 X27.715 Y25.829 E0.02757
G1 X25.663 Y22.939 E0.10524
G1 X25.217 Y22.094 E0.02836
G1 X24.353 Y17.957 E0.1255
G1 X24.41 Y12.856 E0.15145
G1 X24.952 Y10.133 E0.08244
G1 X25.203 Y9.336 E0.0248
G1 X25.544 Y9.444 F18000
G1 F1800
G1 X25.555 Y9.409 E0.0011
G1 X27.399 Y6.485 E0.10264
G1 X27.975 Y5.795 E0.02669
G1 X31.549 Y3.404 E0.12767
G1 X32.368 Y3.145 E0.02552
G1 X35.09 Y2.605 E0.08238
G1 X84.87 Y2.601 E1.47804
G1 X87.704 Y3.159 E0.08576
G1 X89.1 Y3.736 E0.04484
G1 X91.399 Y5.272 E0.08211
G1 X92.044 Y5.815 E0.02502
G1 X94.085 Y8.705 E0.10504
G1 X94.689 Y10.15 E0.04652
G1 X95.255 Y13.086 E0.08878
G1 X95.289 Y17.953 E0.14451
G1 X94.455 Y21.95 E0.12123
G1 X94.039 Y22.742 E0.02656
G1 X92.038 Y25.57 E0.10285
G1 X91.36 Y26.136 E0.02623
G1 X88.436 Y27.98 E0.10263
G1 X87.633 Y28.234 E0.02502
G1 X83.838 Y28.989 E0.11488
G1 X83.557 Y29.177 E0.01002
G1 X83.37 Y29.457 E0.01002
G1 X83.204 Y30.289 E0.02519
G1 X83.153 Y107.084 E2.28013
G1 X82.615 Y109.788 E0.08185
G1 X82.361 Y110.591 E0.02502
G1 X80.473 Y113.582 E0.105
G1 X79.382 Y114.682 E0.046
G1 X77.014 Y116.265 E0.08456
G1 X75.604 Y116.845 E0.04527
G1 X72.628 Y117.415 E0.08999
G1 X67.292 Y117.392 E0.15841
G1 X64.593 Y116.855 E0.08173
G1 X63.789 Y116.6 E0.02502
G1 X60.866 Y114.756 E0.10263
G1 X60.187 Y114.191 E0.02623
G1 X58.187 Y111.363 E0.10285
G1 X57.772 Y110.572 E0.0265
G1 X56.964 Y106.841 E0.11336
G1 X56.936 Y30.289 E2.27293
G1 X56.771 Y29.457 E0.02517
G1 X56.584 Y29.177 E0.01002
G1 X56.303 Y28.989 E0.01002
G1 X55.472 Y28.824 E0.02516
G1 X35.606 Y28.824 E0.58982
G1 X32.389 Y28.24 E0.0971
G1 X31.255 Y27.832 E0.03578
G1 X28.632 Y26.129 E0.09284
G1 X27.961 Y25.57 E0.02593
G1 X25.961 Y22.742 E0.10283
G1 X25.545 Y21.95 E0.02657
G1 X24.71 Y17.941 E0.12158
G1 X24.764 Y12.91 E0.1494
G1 X25.3 Y10.212 E0.08166
G1 X25.525 Y9.501 E0.02214
G1 X25.866 Y9.61 F18000
G1 F1800
G1 X25.888 Y9.539 E0.0022
G1 X27.695 Y6.686 E0.10025
G1 X28.232 Y6.043 E0.02489
G1 X31.681 Y3.737 E0.12319
G1 X32.448 Y3.493 E0.02388
G1 X35.142 Y2.958 E0.08156
G1 X84.818 Y2.954 E1.47494
G1 X87.618 Y3.506 E0.08472
G1 X88.916 Y4.043 E0.04171
G1 X91.192 Y5.564 E0.08129
G1 X91.796 Y6.073 E0.02346
G1 X93.782 Y8.894 E0.10243
G1 X94.341 Y10.236 E0.04317
G1 X94.902 Y13.138 E0.08775
G1 X94.932 Y17.937 E0.14248
G1 X94.127 Y21.807 E0.11737
G1 X93.74 Y22.546 E0.02478
G1 X91.792 Y25.311 E0.10043
G1 X91.159 Y25.84 E0.02449
G1 X88.306 Y27.647 E0.10025
G1 X87.553 Y27.886 E0.02345
G1 X83.699 Y28.653 E0.11669
G1 X83.3 Y28.919 E0.01424
G1 X83.034 Y29.318 E0.01424
G1 X82.847 Y30.254 E0.02834
G1 X82.799 Y107.032 E2.27962
G1 X82.267 Y109.708 E0.08104
G1 X82.027 Y110.461 E0.02345
G1 X80.181 Y113.374 E0.1024
G1 X79.169 Y114.395 E0.04269
G1 X76.831 Y115.958 E0.0835
G1 X75.52 Y116.498 E0.0421
G1 X72.577 Y117.061 E0.08894
G1 X67.345 Y117.038 E0.15535
G1 X64.672 Y116.506 E0.08092
G1 X63.92 Y116.267 E0.02345
G1 X61.067 Y114.46 E0.10025
G1 X60.434 Y113.932 E0.02449
G1 X58.486 Y111.167 E0.10043
G1 X58.099 Y110.428 E0.02474
G1 X57.317 Y106.784 E0.11066
G1 X57.294 Y30.254 E2.2723
G1 X57.107 Y29.318 E0.02832
G1 X56.841 Y28.919 E0.01424
G1 X56.442 Y28.653 E0.01424
G1 X55.507 Y28.467 E0.02832
G1 X35.623 Y28.467 E0.59039
G1 X32.467 Y27.891 E0.09524
G1 X31.432 Y27.521 E0.03265
G1 X28.835 Y25.836 E0.09191
G1 X28.208 Y25.311 E0.02427
G1 X26.26 Y22.546 E0.10042
G1 X25.873 Y21.806 E0.02479
G1 X25.068 Y17.926 E0.11769
G1 X25.117 Y12.963 E0.14735
G1 X25.649 Y10.292 E0.08087
G1 X25.847 Y9.667 E0.01947
G1 X26.187 Y9.775 F18000
G1 F1800
G1 X26.221 Y9.67 E0.0033
G1 X27.99 Y6.888 E0.09787
G1 X28.489 Y6.292 E0.02309
G1 X31.814 Y4.07 E0.11874
G1 X32.527 Y3.842 E0.02223
G1 X35.195 Y3.312 E0.08074
G1 X84.766 Y3.308 E1.47184
G1 X87.531 Y3.853 E0.08368
G1 X88.732 Y4.349 E0.03858
G1 X90.986 Y5.855 E0.08046
G1 X91.548 Y6.331 E0.02187
G1 X93.478 Y9.083 E0.09982
G1 X93.994 Y10.322 E0.03983
G1 X94.548 Y13.189 E0.08672
G1 X94.574 Y17.92 E0.14046
G1 X93.799 Y21.664 E0.11352
G1 X93.441 Y22.351 E0.023
G1 X91.544 Y25.053 E0.09802
G1 X90.957 Y25.545 E0.02275
G1 X88.175 Y27.314 E0.09787
G1 X87.474 Y27.538 E0.02187
G1 X83.559 Y28.316 E0.1185
G1 X83.043 Y28.662 E0.01846
G1 X82.697 Y29.179 E0.01846
G1 X82.49 Y30.219 E0.03149
G1 X82.446 Y106.979 E2.27911
G1 X81.919 Y109.629 E0.08022
G1 X81.694 Y110.331 E0.02187
G1 X79.89 Y113.166 E0.09979
G1 X78.956 Y114.108 E0.0394
G1 X76.647 Y115.651 E0.08244
G1 X75.435 Y116.15 E0.03893
G1 X72.527 Y116.708 E0.0879
G1 X67.398 Y116.685 E0.15229
G1 X64.752 Y116.158 E0.08011
G1 X64.05 Y115.934 E0.02187
G1 X61.268 Y114.165 E0.09787
G1 X60.681 Y113.673 E0.02275
G1 X58.785 Y110.971 E0.09802
G1 X58.427 Y110.285 E0.02297
G1 X57.67 Y106.728 E0.10797
G1 X57.651 Y30.218 E2.27168
G1 X57.444 Y29.179 E0.03147
G1 X57.098 Y28.662 E0.01846
G1 X56.582 Y28.316 E0.01846
G1 X55.542 Y28.11 E0.03147
G1 X35.639 Y28.11 E0.59095
G1 X32.546 Y27.543 E0.09337
G1 X31.609 Y27.21 E0.02952
G1 X29.039 Y25.542 E0.09096
G1 X28.456 Y25.053 E0.02261
G1 X26.559 Y22.351 E0.09801
G1 X26.201 Y21.663 E0.02301
G1 X25.425 Y17.91 E0.11381
G1 X25.471 Y13.016 E0.1453
G1 X25.997 Y10.371 E0.08007
G1 X26.169 Y9.833 E0.01679
G1 X26.509 Y9.942 F18000
G1 F1800
G1 X26.554 Y9.801 E0.0044
G1 X28.284 Y7.09 E0.09549
G1 X28.746 Y6.541 E0.02129
G1 X31.947 Y4.402 E0.11431
G1 X32.607 Y4.19 E0.02058
G1 X35.247 Y3.666 E0.07992
G1 X84.714 Y3.662 E1.46874
G1 X87.445 Y4.2 E0.08264
G1 X88.548 Y4.656 E0.03545
G1 X90.779 Y6.146 E0.07964
G1 X91.299 Y6.588 E0.02028
G1 X93.175 Y9.272 E0.09721
G1 X93.647 Y10.407 E0.03651
G1 X94.194 Y13.241 E0.08569
G1 X94.217 Y17.903 E0.13843
G1 X93.47 Y21.521 E0.10969
G1 X93.142 Y22.156 E0.02122
G1 X91.296 Y24.795 E0.0956
G1 X90.755 Y25.25 E0.02101
G1 X88.044 Y26.981 E0.09548
G1 X87.394 Y27.19 E0.02028
G1 X83.42 Y27.98 E0.1203
G1 X82.785 Y28.404 E0.02268
G1 X82.361 Y29.039 E0.02268
G1 X82.133 Y30.184 E0.03464
G1 X82.092 Y106.927 E2.2786
G1 X81.57 Y109.549 E0.07939
G1 X81.361 Y110.199 E0.02028
G1 X79.6 Y112.958 E0.09719
G1 X78.743 Y113.821 E0.03612
G1 X76.463 Y115.344 E0.08139
G1 X75.35 Y115.803 E0.03576
G1 X72.477 Y116.354 E0.08685
G1 X67.451 Y116.331 E0.14923
G1 X64.832 Y115.81 E0.0793
G1 X64.181 Y115.601 E0.02028
G1 X61.471 Y113.871 E0.09548
G1 X60.929 Y113.415 E0.02101
G1 X59.084 Y110.776 E0.0956
G1 X58.755 Y110.142 E0.0212
G1 X58.023 Y106.673 E0.10528
G1 X58.008 Y30.183 E2.27107
G1 X57.78 Y29.039 E0.03462
G1 X57.356 Y28.404 E0.02268
G1 X56.721 Y27.98 E0.02268
G1 X55.577 Y27.753 E0.03462
G1 X35.655 Y27.753 E0.59151
G1 X32.624 Y27.194 E0.09151
G1 X31.785 Y26.899 E0.0264
G1 X29.243 Y25.249 E0.09
G1 X28.704 Y24.795 E0.02093
G1 X26.858 Y22.156 E0.0956
G1 X26.53 Y21.521 E0.02123
G1 X25.782 Y17.894 E0.10996
G1 X25.824 Y13.069 E0.14325
G1 X26.345 Y10.451 E0.07927
G1 X26.49 Y9.999 E0.0141
G1 X26.83 Y10.109 F18000
G1 F1800
G1 X26.887 Y9.932 E0.0055
G1 X28.579 Y7.292 E0.0931
G1 X29.003 Y6.791 E0.0195
G1 X32.08 Y4.734 E0.10991
G1 X32.687 Y4.538 E0.01892
G1 X35.299 Y4.019 E0.07909
G1 X84.662 Y4.015 E1.46565
G1 X87.359 Y4.547 E0.0816
G1 X88.365 Y4.963 E0.03232
G1 X90.572 Y6.437 E0.07881
G1 X91.05 Y6.845 E0.01867
G1 X92.871 Y9.46 E0.09461
G1 X93.3 Y10.493 E0.0332
G1 X93.84 Y13.292 E0.08465
G1 X93.86 Y17.886 E0.1364
G1 X93.142 Y21.379 E0.10589
G1 X92.842 Y21.961 E0.01944
G1 X91.048 Y24.537 E0.09319
G1 X90.552 Y24.956 E0.01927
G1 X87.912 Y26.648 E0.0931
G1 X87.314 Y26.841 E0.01867
G1 X83.281 Y27.644 E0.1221
G1 X82.528 Y28.147 E0.02689
G1 X82.024 Y28.9 E0.02689
G1 X81.776 Y30.148 E0.03779
G1 X81.738 Y106.874 E2.27808
G1 X81.222 Y109.469 E0.07856
G1 X81.029 Y110.068 E0.01867
G1 X79.309 Y112.75 E0.09459
G1 X78.529 Y113.534 E0.03285
G1 X76.28 Y115.038 E0.08033
G1 X75.265 Y115.456 E0.03259
G1 X72.427 Y116 E0.0858
G1 X67.504 Y115.978 E0.14617
G1 X64.911 Y115.462 E0.07848
G1 X64.313 Y115.268 E0.01867
G1 X61.673 Y113.577 E0.0931
G1 X61.178 Y113.157 E0.01927
G1 X59.384 Y110.582 E0.09319
G1 X59.084 Y110 E0.01943
G1 X58.377 Y106.618 E0.1026
G1 X58.365 Y30.148 E2.27048
G1 X58.117 Y28.9 E0.03778
G1 X57.613 Y28.147 E0.02689
G1 X56.86 Y27.644 E0.02689
G1 X55.612 Y27.396 E0.03778
G1 X35.671 Y27.396 E0.59207
G1 X32.702 Y26.846 E0.08965
G1 X31.962 Y26.587 E0.02329
G1 X29.446 Y24.955 E0.08903
G1 X28.952 Y24.537 E0.01923
G1 X27.158 Y21.961 E0.09319
G1 X26.858 Y21.379 E0.01945
G1 X26.139 Y17.878 E0.10612
G1 X26.178 Y13.123 E0.1412
G1 X26.693 Y10.531 E0.07846
G1 X26.811 Y10.166 E0.01139
G1 X27.15 Y10.276 F18000
G1 F1800
G1 X27.219 Y10.065 E0.0066
G1 X28.872 Y7.496 E0.09071
G1 X29.259 Y7.041 E0.01771
G1 X32.214 Y5.066 E0.10555
G1 X32.767 Y4.886 E0.01725
G1 X35.352 Y4.373 E0.07825
G1 X84.61 Y4.369 E1.46255
G1 X87.272 Y4.894 E0.08056
G1 X88.181 Y5.269 E0.02919
G1 X90.364 Y6.728 E0.07797
G1 X90.801 Y7.102 E0.01705
G1 X92.566 Y9.648 E0.09201
G1 X92.953 Y10.578 E0.0299
G1 X93.487 Y13.343 E0.08362
G1 X93.503 Y17.869 E0.13437
G1 X92.813 Y21.238 E0.10211
G1 X92.542 Y21.768 E0.01767
G1 X90.799 Y24.28 E0.09078
G1 X90.349 Y24.662 E0.01753
G1 X87.78 Y26.316 E0.09071
G1 X87.234 Y26.493 E0.01705
G1 X83.141 Y27.307 E0.1239
G1 X82.27 Y27.89 E0.03111
G1 X81.688 Y28.761 E0.03111
G1 X81.419 Y30.113 E0.04094
G1 X81.385 Y106.822 E2.27757
G1 X80.874 Y109.389 E0.07773
G1 X80.696 Y109.935 E0.01705
G1 X79.019 Y112.54 E0.09199
G1 X78.316 Y113.247 E0.0296
G1 X76.096 Y114.731 E0.07928
G1 X75.18 Y115.108 E0.02942
G1 X72.377 Y115.646 E0.08475
G1 X67.557 Y115.624 E0.14311
G1 X64.991 Y115.114 E0.07766
G1 X64.445 Y114.936 E0.01705
G1 X61.876 Y113.283 E0.09071
G1 X61.427 Y112.9 E0.01753
G1 X59.684 Y110.388 E0.09078
G1 X59.413 Y109.859 E0.01766
G1 X58.73 Y106.563 E0.09993
G1 X58.722 Y30.113 E2.26991
G1 X58.453 Y28.761 E0.04093
G1 X57.871 Y27.89 E0.03111
G1 X57 Y27.307 E0.03111
G1 X55.648 Y27.038 E0.04093
G1 X35.688 Y27.038 E0.59263
G1 X32.781 Y26.497 E0.0878
G1 X32.138 Y26.276 E0.02018
G1 X29.65 Y24.662 E0.08804
G1 X29.201 Y24.28 E0.01751
G1 X27.458 Y21.768 E0.09078
G1 X27.187 Y21.238 E0.01767
G1 X26.497 Y17.862 E0.10231
G1 X26.531 Y13.176 E0.13915
G1 X27.041 Y10.611 E0.07765
G1 X27.132 Y10.333 E0.00867
G1 X27.47 Y10.444 F18000
G1 F1800
G1 X27.551 Y10.198 E0.0077
G1 X29.166 Y7.699 E0.08832
G1 X29.514 Y7.292 E0.01592
G1 X32.349 Y5.398 E0.10122
G1 X32.847 Y5.234 E0.01556
G1 X35.404 Y4.727 E0.07741
G1 X84.558 Y4.723 E1.45945
G1 X87.186 Y5.241 E0.07952
G1 X87.997 Y5.576 E0.02606
G1 X90.157 Y7.019 E0.07713
G1 X90.551 Y7.357 E0.01541
G1 X92.262 Y9.836 E0.08942
G1 X92.606 Y10.664 E0.02662
G1 X93.133 Y13.395 E0.08258
G1 X93.146 Y17.852 E0.13234
G1 X92.484 Y21.098 E0.09836
G1 X92.241 Y21.575 E0.01589
G1 X90.549 Y24.024 E0.08838
G1 X90.145 Y24.369 E0.01578
G1 X87.647 Y25.983 E0.08832
G1 X87.154 Y26.145 E0.01541
G1 X83.002 Y26.971 E0.12569
G1 X82.013 Y27.632 E0.03533
G1 X81.352 Y28.621 E0.03533
G1 X81.062 Y30.078 E0.04409
G1 X81.031 Y106.769 E2.27706
G1 X80.526 Y109.309 E0.07689
G1 X80.364 Y109.802 E0.01541
G1 X78.73 Y112.331 E0.0894
G1 X78.103 Y112.96 E0.02637
G1 X75.912 Y114.424 E0.07823
G1 X75.095 Y114.761 E0.02625
G1 X72.326 Y115.292 E0.0837
G1 X67.61 Y115.27 E0.14005
G1 X65.072 Y114.766 E0.07683
G1 X64.579 Y114.604 E0.01541
G1 X62.08 Y112.989 E0.08832
G1 X61.676 Y112.644 E0.01578
G1 X59.985 Y110.195 E0.08838
G1 X59.742 Y109.718 E0.01589
G1 X59.083 Y106.509 E0.09726
G1 X59.079 Y30.078 E2.26935
G1 X58.789 Y28.621 E0.04408
G1 X58.128 Y27.632 E0.03533
G1 X57.139 Y26.971 E0.03533
G1 X55.683 Y26.681 E0.04408
G1 X35.704 Y26.681 E0.59318
G1 X32.859 Y26.148 E0.08596
G1 X32.313 Y25.964 E0.01709
G1 X29.855 Y24.369 E0.08702
G1 X29.451 Y24.024 E0.01578
G1 X27.759 Y21.575 E0.08838
G1 X27.516 Y21.098 E0.01589
G1 X26.854 Y17.846 E0.09853
G1 X26.885 Y13.229 E0.13709
G1 X27.39 Y10.691 E0.07682
G1 X27.452 Y10.501 E0.00593
G1 X27.79 Y10.613 F18000
G1 F1800
G1 X27.883 Y10.332 E0.0088
G1 X29.459 Y7.904 E0.08594
G1 X29.769 Y7.543 E0.01413
G1 X32.484 Y5.729 E0.09694
G1 X32.927 Y5.582 E0.01387
G1 X35.457 Y5.08 E0.07657
G1 X84.506 Y5.076 E1.45635
G1 X87.1 Y5.588 E0.07848
G1 X87.813 Y5.883 E0.02293
G1 X89.95 Y7.31 E0.07628
G1 X90.3 Y7.613 E0.01375
G1 X91.957 Y10.023 E0.08683
G1 X92.258 Y10.749 E0.02336
G1 X92.779 Y13.446 E0.08154
G1 X92.789 Y17.834 E0.13031
G1 X92.154 Y20.958 E0.09463
G1 X91.94 Y21.382 E0.01411
G1 X90.299 Y23.768 E0.08598
G1 X89.941 Y24.076 E0.01403
G1 X87.513 Y25.652 E0.08594
G1 X87.073 Y25.797 E0.01375
G1 X82.863 Y26.635 E0.12747
G1 X81.755 Y27.375 E0.03955
G1 X81.015 Y28.482 E0.03955
G1 X80.705 Y30.043 E0.04724
G1 X80.677 Y106.717 E2.27655
G1 X80.178 Y109.229 E0.07604
G1 X80.032 Y109.668 E0.01375
G1 X78.44 Y112.121 E0.08682
G1 X77.89 Y112.673 E0.02315
G1 X75.729 Y114.117 E0.07718
G1 X75.01 Y114.414 E0.02308
G1 X72.276 Y114.938 E0.08265
G1 X67.662 Y114.917 E0.13699
G1 X65.152 Y114.417 E0.07599
G1 X64.713 Y114.272 E0.01375
G1 X62.285 Y112.696 E0.08594
G1 X61.926 Y112.388 E0.01403
