; generated by SuperSlicer 2.4 on 2023-12-10 at 21:40:48 UTC


;
;

;
;
; TODO: check the size of the extruder and the y-bar clearance. Optimize & test supports.

; external perimeters extrusion width = 0.40mm
; perimeters extrusion width = 0.40mm
; infill extrusion width = 0.40mm
; solid infill extrusion width = 0.40mm
; top infill extrusion width = 0.40mm
; first layer extrusion width = 0.56mm

; object:{"name":"TestMotorClamp_Top2","id":"TestMotorClamp_Top2.STL id:0 copy 0","object_center":[60.000000,60.000000,0.000000],"boundingbox_center":[60.000000,60.000000,1.500000],"boundingbox_size":[66.966927,60.045509,3.000000]}
; plater:{"center":[60.000000,60.000000,0.000000],"boundingbox_center":[60.000000,60.000000,1.500000],"boundingbox_size":[66.966927,60.045509,3.000000]}

;TYPE:Custom
; M190 S0
;M109 S0 ; uncomment to remove set&wait temp gcode added automatically after this start gcode
print_start EXTRUDER=245 BED=90 CHAMBER=50

;G92 E0
;G1 E10 F1500 ; prime the nozzle
M107
G21 ; set units to millimeters
G90 ; use absolute coordinates
M83 ; use relative distances for extrusion
SET_PRESSURE_ADVANCE ADVANCE=0.04
;_TOOLCHANGE 0
M104 S245 ; set temperature
M109 S245 ; set temperature and wait for it to be reached
M190 S90 ; set bed temperature and wait for it to be reached
M107
;LAYER_CHANGE
;Z:0.25
;HEIGHT:0.25
;BEFORE_LAYER_CHANGE
;0.25


G1 Z0.25 F18000
;AFTER_LAYER_CHANGE
;0.25
TIMELAPSE_TAKE_FRAME
G92 E0
G1 E-2 F3000
G1 Z0.65 F18000
M204 S1000
G1 X39.315 Y26.047
G1 Z0.25
G1 E2 F1800
;TYPE:Skirt
;WIDTH:0.52
G1 X16.833 Y64.987 E2.17947
G1 X16.45 Y65.931 E0.0494
G1 X16.425 Y67.64 E0.08282
G1 X18.123 Y75.214 E0.37622
G1 X19.281 Y78.867 E0.18576
G1 X20.748 Y82.384 E0.18471
G1 X22.363 Y85.491 E0.16972
G1 X24.409 Y88.726 E0.18554
G1 X26.932 Y92.004 E0.20051
G1 X29.527 Y94.804 E0.18504
G1 X35.017 Y99.841 E0.36114
G1 X35.856 Y100.42 E0.04941
G1 X37.518 Y100.815 E0.08282
G1 X82.482 Y100.815 E2.17947
G1 X83.492 Y100.675 E0.04941
G1 X84.983 Y99.841 E0.08282
G1 X90.471 Y94.806 E0.361
G1 X93.21 Y91.834 E0.19589
G1 X95.588 Y88.73 E0.18955
G1 X97.637 Y85.491 E0.18579
G1 X99.396 Y82.074 E0.18628
G1 X100.873 Y78.434 E0.19038
G1 X101.958 Y74.91 E0.17875
G1 X103.575 Y67.64 E0.36099
G1 X103.657 Y66.624 E0.04941
G1 X103.167 Y64.987 E0.08282
G1 X80.685 Y26.047 E2.17947
G1 X80.059 Y25.243 E0.04941
G1 X78.591 Y24.368 E0.08282
G1 X71.487 Y22.133 E0.361
G1 X67.544 Y21.247 E0.19589
G1 X63.666 Y20.739 E0.18955
G1 X59.837 Y20.584 E0.18579
G1 X56.331 Y20.739 E0.17007
G1 X52.424 Y21.253 E0.19103
G1 X48.513 Y22.133 E0.19431
G1 X41.408 Y24.368 E0.36099
G1 X40.488 Y24.804 E0.04941
G1 X39.356 Y26.003 E0.07991
G1 X39.718 Y26.28 F18000
G1 F1800
G1 X17.237 Y65.22 E2.17947
G1 X16.881 Y67.539 E0.1137
G1 X18.568 Y75.074 E0.37432
G1 X19.712 Y78.689 E0.18377
G1 X21.161 Y82.169 E0.18272
G1 X22.777 Y85.276 E0.16972
G1 X24.966 Y88.708 E0.19734
G1 X27.275 Y91.688 E0.18275
G1 X29.65 Y94.268 E0.16995
G1 X35.332 Y99.498 E0.37432
G1 X37.518 Y100.349 E0.1137
G1 X82.482 Y100.349 E2.17947
G1 X84.668 Y99.498 E0.1137
G1 X90.155 Y94.462 E0.361
G1 X92.841 Y91.549 E0.19204
G1 X95.195 Y88.479 E0.18752
G1 X97.223 Y85.276 E0.18379
G1 X98.965 Y81.897 E0.18424
G1 X100.428 Y78.296 E0.18842
G1 X101.502 Y74.808 E0.17687
G1 X103.12 Y67.539 E0.36099
G1 X102.763 Y65.22 E0.1137
G1 X80.281 Y26.28 E2.17947
G1 X78.451 Y24.812 E0.1137
G1 X71.347 Y22.578 E0.361
G1 X67.482 Y21.709 E0.19204
G1 X63.646 Y21.205 E0.18752
G1 X59.857 Y21.05 E0.18379
G1 X56.352 Y21.205 E0.17007
G1 X52.21 Y21.765 E0.20258
G1 X48.653 Y22.578 E0.17687
G1 X41.548 Y24.813 E0.36099
G1 X39.765 Y26.243 E0.11079
G1 E-2 F3000
M204 S1500
G1 Z0.65 F18000
; acceleration to travel
G1 X42.461 Y28.138
; decel to extrusion
M204 S1000
G1 X44.258 Y29.402
; end travel
G1 Z0.25
G1 E2 F1800
;WIDTH:0.56
G1 X44.819 Y28.604 E0.05134
G1 X45.277 Y28.165 E0.03335
G1 X45.801 Y27.77 E0.03454
G1 X46.657 Y27.323 E0.05083
G1 X49.841 Y26.316 E0.17576
G1 X52.995 Y25.606 E0.17014
G1 X56.461 Y25.13 E0.18413
G1 X60.117 Y24.969 E0.19261
G1 X63.561 Y25.132 E0.18143
G1 X66.932 Y25.592 E0.17907
G1 X70.159 Y26.316 E0.17404
G1 X73.437 Y27.362 E0.1811
G1 X74.224 Y27.787 E0.04707
G1 X74.88 Y28.304 E0.04395
G1 X75.419 Y28.89 E0.04189
G1 X75.859 Y29.528 E0.04077
G1 X76.191 Y30.17 E0.03806
G1 X76.44 Y30.923 E0.04174
G1 X76.573 Y31.643 E0.03853
G1 X76.541 Y33.23 E0.08354
G1 X76.549 Y35.297 E0.1088
G1 X76.673 Y37.319 E0.10663
G1 X76.914 Y39.331 E0.10662
G1 X77.27 Y41.325 E0.10663
G1 X77.741 Y43.296 E0.10663
G1 X78.326 Y45.236 E0.10663
G1 X79.021 Y47.139 E0.10663
G1 X79.825 Y48.999 E0.10663
G1 X80.735 Y50.809 E0.10662
G1 X81.748 Y52.563 E0.10663
G1 X82.86 Y54.256 E0.10663
G1 X84.069 Y55.882 E0.10663
G1 X85.37 Y57.436 E0.10663
G1 X86.757 Y58.912 E0.10663
G1 X88.228 Y60.305 E0.10663
G1 X89.777 Y61.611 E0.10663
G1 X91.399 Y62.826 E0.10663
G1 X93.088 Y63.944 E0.10663
G1 X94.874 Y64.984 E0.10878
G1 X96.255 Y65.743 E0.08293
G1 X96.777 Y66.18 E0.03581
G1 X97.249 Y66.692 E0.03663
G1 X97.658 Y67.281 E0.03774
G1 X98.046 Y68.068 E0.04619
G1 X98.307 Y68.866 E0.04416
G1 X98.428 Y69.686 E0.04366
G1 X98.374 Y70.837 E0.06064
G1 X97.675 Y73.953 E0.16807
G1 X96.722 Y77.019 E0.16895
G1 X95.292 Y80.501 E0.19813
G1 X93.699 Y83.542 E0.18066
G1 X91.852 Y86.419 E0.17993
G1 X89.786 Y89.092 E0.17779
G1 X87.509 Y91.566 E0.17696
G1 X85.045 Y93.821 E0.17576
G1 X84.214 Y94.344 E0.05169
G1 X83.303 Y94.699 E0.05148
G1 X82.565 Y94.842 E0.03958
G1 X81.535 Y94.894 E0.05427
G1 X80.798 Y94.801 E0.03908
G1 X80.006 Y94.582 E0.04323
G1 X79.252 Y94.226 E0.0439
G1 X78.312 Y93.623 E0.05876
G1 X76.54 Y92.607 E0.10751
G1 X74.726 Y91.704 E0.10662
G1 X72.864 Y90.907 E0.10663
G1 X70.958 Y90.218 E0.10662
G1 X69.016 Y89.641 E0.10663
G1 X67.044 Y89.177 E0.10663
G1 X65.048 Y88.828 E0.10662
G1 X63.036 Y88.594 E0.10663
G1 X61.013 Y88.477 E0.10663
G1 X58.987 Y88.477 E0.10663
G1 X56.964 Y88.594 E0.10663
G1 X54.952 Y88.828 E0.10663
G1 X52.956 Y89.177 E0.10662
G1 X50.984 Y89.641 E0.10663
G1 X49.042 Y90.218 E0.10663
G1 X47.136 Y90.907 E0.10662
G1 X45.274 Y91.704 E0.10663
G1 X43.46 Y92.607 E0.10662
G1 X41.688 Y93.623 E0.10751
G1 X40.745 Y94.229 E0.05899
G1 X39.925 Y94.606 E0.04752
G1 X39.089 Y94.823 E0.04544
G1 X38.194 Y94.897 E0.04723
G1 X37.266 Y94.819 E0.04903
G1 X36.398 Y94.602 E0.04709
G1 X35.579 Y94.234 E0.04728
G1 X34.842 Y93.733 E0.0469
G1 X32.532 Y91.608 E0.1652
G1 X30.256 Y89.144 E0.17653
G1 X28.092 Y86.341 E0.18637
G1 X26.183 Y83.337 E0.18728
G1 X24.605 Y80.28 E0.18108
G1 X23.332 Y77.175 E0.17661
G1 X22.33 Y73.971 E0.17666
G1 X21.602 Y70.66 E0.17841
G1 X21.568 Y69.744 E0.04824
G1 X21.646 Y69.1 E0.03417
G1 X21.8 Y68.474 E0.03391
G1 X22.476 Y67.059 E0.08252
G1 X22.937 Y66.476 E0.03913
G1 X23.511 Y65.925 E0.04187
G1 X24.156 Y65.482 E0.04118
G1 X25.146 Y64.972 E0.05861
G1 X26.912 Y63.944 E0.10752
G1 X28.601 Y62.826 E0.10662
G1 X30.223 Y61.611 E0.10663
G1 X31.772 Y60.305 E0.10663
G1 X33.243 Y58.912 E0.10663
G1 X34.631 Y57.436 E0.10663
G1 X35.931 Y55.883 E0.10662
G1 X37.14 Y54.256 E0.10663
G1 X38.252 Y52.563 E0.10663
G1 X39.265 Y50.809 E0.10663
G1 X40.175 Y48.999 E0.10662
G1 X40.979 Y47.139 E0.10664
G1 X41.674 Y45.236 E0.10662
G1 X42.259 Y43.296 E0.10663
G1 X42.73 Y41.325 E0.10663
G1 X43.086 Y39.331 E0.10663
G1 X43.327 Y37.319 E0.10662
G1 X43.451 Y35.297 E0.10663
G1 X43.459 Y33.249 E0.10779
G1 X43.406 Y32.067 E0.06228
G1 X43.467 Y31.353 E0.03769
G1 X43.696 Y30.466 E0.04824
G1 X43.999 Y29.771 E0.03989
G1 X44.224 Y29.451 E0.02056
G1 X44.634 Y29.74 F18000
G1 F1800
G1 X45.188 Y28.952 E0.05066
G1 X45.616 Y28.541 E0.03125
G1 X46.088 Y28.188 E0.03099
G1 X46.87 Y27.782 E0.0464
G1 X49.963 Y26.808 E0.17065
G1 X53.075 Y26.106 E0.16788
G1 X56.518 Y25.634 E0.18295
G1 X60.105 Y25.476 E0.18895
G1 X63.504 Y25.636 E0.17906
G1 X66.853 Y26.092 E0.17791
G1 X70.037 Y26.808 E0.17175
G1 X73.219 Y27.819 E0.17571
G1 X73.929 Y28.2 E0.04242
G1 X74.522 Y28.663 E0.03959
G1 X75.013 Y29.193 E0.03802
G1 X75.417 Y29.777 E0.03736
G1 X75.717 Y30.348 E0.03398
G1 X75.954 Y31.065 E0.03971
G1 X76.07 Y31.708 E0.03438
G1 X76.035 Y33.225 E0.07986
G1 X76.042 Y35.313 E0.10993
G1 X76.168 Y37.365 E0.10817
G1 X76.413 Y39.405 E0.10816
G1 X76.774 Y41.429 E0.10817
G1 X77.252 Y43.428 E0.10817
G1 X77.845 Y45.396 E0.10817
G1 X78.55 Y47.326 E0.10817
G1 X79.366 Y49.213 E0.10817
G1 X80.289 Y51.049 E0.10816
G1 X81.317 Y52.829 E0.10817
G1 X82.445 Y54.547 E0.10817
G1 X83.671 Y56.196 E0.10817
G1 X84.991 Y57.772 E0.10817
G1 X86.399 Y59.27 E0.10817
G1 X87.891 Y60.683 E0.10817
G1 X89.462 Y62.008 E0.10817
G1 X91.107 Y63.24 E0.10817
G1 X92.821 Y64.375 E0.10817
G1 X94.626 Y65.425 E0.10991
G1 X95.95 Y66.148 E0.07941
G1 X96.417 Y66.537 E0.03198
G1 X96.845 Y66.997 E0.03303
G1 X97.213 Y67.522 E0.03375
G1 X97.584 Y68.276 E0.04423
G1 X97.809 Y68.961 E0.03796
G1 X97.924 Y69.736 E0.04122
G1 X97.875 Y70.748 E0.05331
G1 X97.183 Y73.832 E0.16638
G1 X96.242 Y76.858 E0.16675
G1 X94.838 Y80.277 E0.19452
G1 X93.266 Y83.278 E0.17829
G1 X91.445 Y86.118 E0.17759
G1 X89.406 Y88.757 E0.17549
G1 X87.159 Y91.2 E0.17469
G1 X84.755 Y93.405 E0.1717
G1 X84.006 Y93.882 E0.0467
G1 X83.182 Y94.206 E0.04661
G1 X82.521 Y94.337 E0.03549
G1 X81.532 Y94.387 E0.0521
G1 X80.882 Y94.301 E0.03452
G1 X80.163 Y94.1 E0.03926
G1 X79.512 Y93.791 E0.03795
G1 X78.575 Y93.19 E0.05858
G1 X76.779 Y92.161 E0.10897
G1 X74.939 Y91.244 E0.10816
G1 X73.049 Y90.435 E0.10817
G1 X71.116 Y89.737 E0.10817
G1 X69.146 Y89.152 E0.10817
G1 X67.146 Y88.681 E0.10817
G1 X65.121 Y88.326 E0.10817
G1 X63.08 Y88.089 E0.10817
G1 X61.028 Y87.971 E0.10817
G1 X58.972 Y87.971 E0.10817
G1 X56.92 Y88.089 E0.10817
G1 X54.879 Y88.326 E0.10817
G1 X52.854 Y88.681 E0.10817
G1 X50.854 Y89.152 E0.10817
G1 X48.884 Y89.737 E0.10817
G1 X46.951 Y90.435 E0.10816
G1 X45.061 Y91.244 E0.10817
G1 X43.222 Y92.161 E0.10816
G1 X41.425 Y93.19 E0.10897
G1 X40.486 Y93.793 E0.05876
G1 X39.776 Y94.122 E0.04117
G1 X38.983 Y94.327 E0.04308
G1 X38.176 Y94.391 E0.04264
G1 X37.331 Y94.317 E0.04463
G1 X36.544 Y94.117 E0.04271
G1 X35.844 Y93.803 E0.04037
G1 X35.171 Y93.347 E0.04279
G1 X32.897 Y91.256 E0.16258
G1 X30.635 Y88.808 E0.17539
G1 X28.5 Y86.04 E0.18399
G1 X26.628 Y83.095 E0.18368
G1 X25.07 Y80.077 E0.17874
G1 X23.805 Y76.993 E0.17545
G1 X22.817 Y73.831 E0.17436
G1 X22.107 Y70.617 E0.17318
G1 X22.073 Y69.784 E0.0439
G1 X22.142 Y69.205 E0.03067
G1 X22.285 Y68.62 E0.03173
G1 X22.892 Y67.35 E0.07406
G1 X23.3 Y66.829 E0.03486
G1 X23.846 Y66.305 E0.03983
G1 X24.402 Y65.925 E0.03541
G1 X25.39 Y65.416 E0.05848
G1 X27.179 Y64.375 E0.10897
G1 X28.893 Y63.24 E0.10817
G1 X30.538 Y62.008 E0.10817
G1 X32.109 Y60.683 E0.10817
G1 X33.601 Y59.27 E0.10817
G1 X35.009 Y57.772 E0.10817
G1 X36.329 Y56.196 E0.10816
G1 X37.555 Y54.547 E0.10817
G1 X38.683 Y52.829 E0.10817
G1 X39.711 Y51.049 E0.10817
G1 X40.634 Y49.213 E0.10816
G1 X41.45 Y47.326 E0.10818
G1 X42.155 Y45.396 E0.10817
G1 X42.748 Y43.428 E0.10817
G1 X43.226 Y41.429 E0.10817
G1 X43.587 Y39.405 E0.10817
G1 X43.832 Y37.365 E0.10816
G1 X43.958 Y35.313 E0.10817
G1 X43.965 Y33.238 E0.10921
G1 X43.912 Y32.061 E0.06203
G1 X43.97 Y31.419 E0.0339
G1 X44.181 Y30.613 E0.04385
G1 X44.452 Y29.998 E0.03541
G1 X44.599 Y29.789 E0.01345
G1 X45.01 Y30.077 F18000
G1 F1800
G1 X45.557 Y29.3 E0.05005
G1 X45.932 Y28.937 E0.02748
G1 X46.374 Y28.606 E0.02903
G1 X47.082 Y28.243 E0.0419
G1 X50.085 Y27.3 E0.16562
G1 X53.154 Y26.606 E0.16562
G1 X56.576 Y26.137 E0.18176
G1 X60.093 Y25.982 E0.18529
G1 X63.446 Y26.139 E0.17668
G1 X66.774 Y26.592 E0.17675
G1 X69.915 Y27.3 E0.16947
G1 X73.002 Y28.277 E0.17041
G1 X73.637 Y28.613 E0.03779
G1 X74.166 Y29.023 E0.03521
G1 X74.608 Y29.498 E0.03413
G1 X74.977 Y30.027 E0.034
G1 X75.243 Y30.528 E0.02981
G1 X75.467 Y31.207 E0.03763
G1 X75.567 Y31.771 E0.03015
G1 X75.528 Y33.219 E0.07624
G1 X75.536 Y35.33 E0.11111
G1 X75.664 Y37.411 E0.10971
G1 X75.912 Y39.48 E0.1097
G1 X76.279 Y41.532 E0.10971
G1 X76.763 Y43.56 E0.10971
G1 X77.364 Y45.556 E0.10971
G1 X78.08 Y47.514 E0.10971
G1 X78.907 Y49.427 E0.10971
G1 X79.843 Y51.29 E0.1097
G1 X80.885 Y53.095 E0.10971
G1 X82.03 Y54.837 E0.10971
G1 X83.274 Y56.51 E0.10971
G1 X84.612 Y58.109 E0.10971
G1 X86.04 Y59.627 E0.10971
G1 X87.553 Y61.061 E0.10971
G1 X89.147 Y62.404 E0.10971
G1 X90.815 Y63.654 E0.10971
G1 X92.553 Y64.805 E0.10971
G1 X94.378 Y65.867 E0.11109
G1 X95.646 Y66.554 E0.07593
G1 X96.059 Y66.895 E0.02816
G1 X96.441 Y67.303 E0.02945
G1 X96.767 Y67.763 E0.02968
G1 X97.122 Y68.483 E0.04222
G1 X97.321 Y69.097 E0.03394
G1 X97.419 Y69.784 E0.03653
G1 X97.376 Y70.658 E0.04607
G1 X96.691 Y73.712 E0.1647
G1 X95.762 Y76.697 E0.16454
G1 X94.384 Y80.052 E0.19092
G1 X92.834 Y83.014 E0.17591
G1 X91.037 Y85.818 E0.17526
G1 X89.026 Y88.423 E0.17319
G1 X86.809 Y90.835 E0.17244
G1 X84.464 Y92.99 E0.16762
G1 X83.755 Y93.441 E0.0442
G1 X83.02 Y93.726 E0.04149
G1 X82.477 Y93.832 E0.02912
G1 X81.53 Y93.88 E0.0499
G1 X80.969 Y93.802 E0.02984
G1 X80.322 Y93.619 E0.03537
G1 X79.772 Y93.357 E0.03207
G1 X78.838 Y92.757 E0.05841
G1 X77.017 Y91.714 E0.11042
G1 X75.152 Y90.785 E0.1097
G1 X73.235 Y89.964 E0.10971
G1 X71.275 Y89.256 E0.10971
G1 X69.276 Y88.662 E0.10971
G1 X67.247 Y88.185 E0.10971
G1 X65.194 Y87.825 E0.10971
G1 X63.123 Y87.585 E0.10971
G1 X61.042 Y87.464 E0.10971
G1 X58.958 Y87.464 E0.10971
G1 X56.877 Y87.585 E0.10971
G1 X54.806 Y87.825 E0.10971
G1 X52.753 Y88.185 E0.10971
G1 X50.724 Y88.662 E0.10971
G1 X48.725 Y89.256 E0.10971
G1 X46.765 Y89.964 E0.1097
G1 X44.848 Y90.785 E0.10971
G1 X42.983 Y91.714 E0.1097
G1 X41.162 Y92.757 E0.11042
G1 X40.226 Y93.358 E0.05853
G1 X39.625 Y93.638 E0.03492
G1 X38.919 Y93.824 E0.03841
G1 X38.197 Y93.884 E0.03815
G1 X37.435 Y93.821 E0.04022
G1 X36.691 Y93.632 E0.04042
G1 X36.074 Y93.351 E0.03568
G1 X35.5 Y92.962 E0.03649
G1 X33.262 Y90.905 E0.15996
G1 X31.015 Y88.473 E0.17426
G1 X28.921 Y85.759 E0.18041
G1 X27.073 Y82.852 E0.18129
G1 X25.534 Y79.875 E0.17639
G1 X24.285 Y76.831 E0.17314
G1 X23.303 Y73.69 E0.17322
G1 X22.612 Y70.573 E0.16803
G1 X22.579 Y69.823 E0.03949
G1 X22.643 Y69.281 E0.02875
G1 X22.771 Y68.767 E0.02788
G1 X23.308 Y67.639 E0.06573
G1 X23.664 Y67.181 E0.03052
G1 X24.181 Y66.685 E0.03774
G1 X24.648 Y66.368 E0.02964
G1 X25.633 Y65.86 E0.05836
G1 X27.447 Y64.805 E0.11043
G1 X29.185 Y63.654 E0.10971
G1 X30.853 Y62.404 E0.10971
G1 X32.447 Y61.061 E0.10971
G1 X33.96 Y59.627 E0.10971
G1 X35.388 Y58.109 E0.10971
G1 X36.726 Y56.51 E0.1097
G1 X37.97 Y54.837 E0.10971
G1 X39.115 Y53.095 E0.10971
G1 X40.157 Y51.29 E0.10971
G1 X41.093 Y49.427 E0.1097
G1 X41.92 Y47.514 E0.10972
G1 X42.636 Y45.556 E0.10971
G1 X43.237 Y43.56 E0.10971
G1 X43.721 Y41.532 E0.10971
G1 X44.088 Y39.48 E0.10971
G1 X44.336 Y37.411 E0.1097
G1 X44.464 Y35.33 E0.10971
G1 X44.472 Y33.228 E0.11062
G1 X44.419 Y32.056 E0.06176
G1 X44.472 Y31.487 E0.03003
G1 X44.665 Y30.763 E0.03944
G1 X44.905 Y30.226 E0.03095
G1 X44.975 Y30.126 E0.00644
G1 X45.386 Y30.415 F18000
G1 F1800
G1 X45.926 Y29.647 E0.04944
G1 X46.272 Y29.312 E0.02535
G1 X46.659 Y29.026 E0.02531
G1 X47.293 Y28.704 E0.03742
G1 X50.206 Y27.791 E0.16069
G1 X53.234 Y27.107 E0.16336
G1 X56.633 Y26.64 E0.18057
G1 X60.081 Y26.488 E0.18164
G1 X63.389 Y26.642 E0.1743
G1 X66.695 Y27.093 E0.17558
G1 X69.794 Y27.791 E0.16718
G1 X72.787 Y28.736 E0.16522
G1 X73.346 Y29.029 E0.03318
G1 X73.811 Y29.385 E0.03081
G1 X74.203 Y29.802 E0.03016
G1 X74.553 Y30.304 E0.03221
G1 X74.785 Y30.745 E0.02619
G1 X74.98 Y31.346 E0.03328
G1 X75.064 Y31.832 E0.02594
G1 X75.022 Y33.212 E0.07269
G1 X75.03 Y35.346 E0.11233
G1 X75.159 Y37.456 E0.11125
G1 X75.411 Y39.555 E0.11125
G1 X75.783 Y41.636 E0.11125
G1 X76.274 Y43.692 E0.11125
G1 X76.884 Y45.716 E0.11125
G1 X77.609 Y47.701 E0.11125
G1 X78.448 Y49.642 E0.11125
G1 X79.397 Y51.53 E0.11124
G1 X80.454 Y53.361 E0.11125
G1 X81.615 Y55.127 E0.11125
G1 X82.876 Y56.824 E0.11125
G1 X84.233 Y58.445 E0.11125
G1 X85.681 Y59.985 E0.11125
G1 X87.216 Y61.438 E0.11125
G1 X88.832 Y62.801 E0.11125
G1 X90.524 Y64.068 E0.11125
G1 X92.286 Y65.235 E0.11125
G1 X94.13 Y66.309 E0.11232
G1 X95.344 Y66.961 E0.0725
G1 X95.702 Y67.255 E0.02436
G1 X96.04 Y67.612 E0.02592
G1 X96.322 Y68.006 E0.02549
G1 X96.659 Y68.69 E0.04013
G1 X96.832 Y69.23 E0.02982
G1 X96.914 Y69.829 E0.03185
G1 X96.877 Y70.568 E0.03894
