; generated by SuperSlicer 2.5.59 on 2024-01-03 at 17:04:16 UTC


;
;

;
;
; TODO: check the size of the extruder and the y-bar clearance. Optimize & test supports.

; external perimeters extrusion width = 0.40mm
; perimeters extrusion width = 0.40mm
; infill extrusion width = 0.40mm
; solid infill extrusion width = 0.40mm
; top infill extrusion width = 0.40mm
; first layer extrusion width = 0.40mm

; object:{"name":"TorquePole5mmAdaptor","id":"TorquePole5mmAdaptor.STL id:0 copy 0","object_center":[60.000000,60.000000,0.000000],"boundingbox_center":[60.000000,60.000000,6.000000],"boundingbox_size":[27.982944,28.000000,12.000000]}
EXCLUDE_OBJECT_DEFINE NAME=TorquePole5mmAdaptor_STL_id_0_copy_0 CENTER=60.000000,60.000000 POLYGON=[[46.008528,59.511408],[46.076692,58.536604],[46.212692,57.568924],[46.415860,56.613092],[46.685208,55.673760],[47.019424,54.755508],[47.416880,53.862804],[47.875644,53.000000],[48.000000,52.788896],[48.393476,52.171300],[48.967848,51.380736],[49.595972,50.632172],[50.274780,49.929244],[51.000972,49.275376],[51.771004,48.673760],[52.581132,48.127328],[53.427400,47.638732],[54.305688,47.210364],[55.211716,46.844304],[56.141076,46.542336],[57.089232,46.305932],[58.051576,46.136244],[59.023408,46.034104],[60.000000,46.000000],[60.976588,46.034104],[61.948424,46.136244],[62.910764,46.305932],[63.858920,46.542336],[64.788284,46.844304],[65.694312,47.210364],[66.572600,47.638732],[67.418872,48.127328],[68.229000,48.673760],[68.999024,49.275376],[69.725216,49.929244],[70.404032,50.632172],[71.032152,51.380736],[71.606520,52.171300],[72.000000,52.788896],[72.124360,53.000000],[72.583112,53.862804],[72.980576,54.755508],[73.314792,55.673760],[73.584136,56.613092],[73.787304,57.568924],[73.923312,58.536604],[73.991472,59.511408],[73.991472,60.488596],[73.923312,61.463400],[73.787304,62.431076],[73.584136,63.386904],[73.314792,64.326240],[72.980576,65.244492],[72.583112,66.137192],[72.124360,67.000000],[72.000000,67.211104],[71.606520,67.828696],[71.032152,68.619264],[70.404032,69.367832],[69.725216,70.070752],[68.999024,70.724624],[68.229000,71.326232],[67.418872,71.872672],[66.572600,72.361264],[65.694312,72.789632],[64.788284,73.155704],[63.858920,73.457664],[62.910764,73.694072],[61.948424,73.863752],[60.976588,73.965896],[60.000000,74.000000],[59.023408,73.965896],[58.051576,73.863752],[57.089232,73.694072],[56.141076,73.457664],[55.211716,73.155704],[54.305688,72.789632],[53.427400,72.361264],[52.581132,71.872672],[51.771004,71.326232],[51.000972,70.724624],[50.274780,70.070752],[49.595972,69.367832],[48.967848,68.619264],[48.393476,67.828696],[48.000000,67.211104],[47.875644,67.000000],[47.416880,66.137192],[47.019424,65.244492],[46.685208,64.326240],[46.415860,63.386904],[46.212692,62.431076],[46.076692,61.463400],[46.008528,60.488596],[46.008528,59.511408]]
; plater:{"center":[60.000000,60.000000,0.000000],"boundingbox_center":[60.000000,60.000000,6.000000],"boundingbox_size":[27.982944,28.000000,12.000000]}

;TYPE:Custom
; M190 S0
; M109 S0 ; uncomment to remove set&wait temp gcode added automatically after this start gcode
print_start EXTRUDER=245 BED=90 CHAMBER=50
M107
G21 ; set units to millimeters
G90 ; use absolute coordinates
M83 ; use relative distances for extrusion
SET_PRESSURE_ADVANCE ADVANCE=0.02
;_TOOLCHANGE 0
M104 S245 ; set temperature
M109 S245 ; set temperature and wait for it to be reached
M190 S90 ; set bed temperature and wait for it to be reached
M107
;LAYER_CHANGE
;Z:0.2
;HEIGHT:0.2
;BEFORE_LAYER_CHANGE
;0.2


G1 Z0.2 F18000
;AFTER_LAYER_CHANGE
;0.2
G92 E0
G1 E-2 F3000
G1 Z0.6 F18000
M204 S1000
G1 X46.026 Y47.185
G1 Z0.2
G1 E2 F1800
;TYPE:Skirt
;WIDTH:0.4
G1 X44.953 Y48.464 E0.04957
G1 X43.671 Y50.364 E0.06807
G1 X42.883 Y51.844 E0.04978
G1 X42.022 Y53.976 E0.06827
G1 X41.646 Y55.245 E0.03929
G1 X41.298 Y56.878 E0.04957
G1 X41.058 Y59.165 E0.06827
G1 X41.058 Y60.835 E0.04957
G1 X41.298 Y63.122 E0.06827
G1 X41.646 Y64.755 E0.04957
G1 X42.022 Y66.024 E0.03929
G1 X42.486 Y67.263 E0.03929
G1 X43.494 Y69.33 E0.06827
G1 X44.379 Y70.746 E0.04957
G1 X45.794 Y72.558 E0.06827
G1 X46.954 Y73.759 E0.04957
G1 X48.716 Y75.237 E0.06827
G1 X50.1 Y76.17 E0.04957
G1 X52.13 Y77.25 E0.06827
G1 X53.678 Y77.875 E0.04957
G1 X55.889 Y78.509 E0.06827
G1 X57.533 Y78.799 E0.04957
G1 X58.85 Y78.925 E0.03929
G1 X60.173 Y78.96 E0.03929
G1 X62.467 Y78.799 E0.06827
G1 X64.111 Y78.509 E0.04957
G1 X66.322 Y77.875 E0.06827
G1 X67.87 Y77.25 E0.04957
G1 X69.9 Y76.17 E0.06827
G1 X71.284 Y75.237 E0.04957
G1 X73.046 Y73.759 E0.06827
G1 X74.206 Y72.558 E0.04957
G1 X75.047 Y71.536 E0.03929
G1 X76.329 Y69.636 E0.06807
G1 X77.117 Y68.156 E0.04978
G1 X77.978 Y66.024 E0.06827
G1 X78.354 Y64.755 E0.03929
G1 X78.702 Y63.122 E0.04957
G1 X78.942 Y60.835 E0.06827
G1 X78.942 Y59.165 E0.04957
G1 X78.702 Y56.878 E0.06827
G1 X78.354 Y55.245 E0.04957
G1 X77.978 Y53.976 E0.03929
G1 X77.514 Y52.737 E0.03929
G1 X76.506 Y50.67 E0.06827
G1 X75.621 Y49.254 E0.04957
G1 X74.206 Y47.442 E0.06827
G1 X73.046 Y46.241 E0.04957
G1 X72.054 Y45.365 E0.03929
G1 X70.194 Y44.013 E0.06827
G1 X68.748 Y43.178 E0.04957
G1 X66.647 Y42.243 E0.06827
G1 X65.059 Y41.727 E0.04957
G1 X62.81 Y41.249 E0.06827
G1 X61.15 Y41.075 E0.04957
G1 X58.85 Y41.075 E0.06827
G1 X57.19 Y41.249 E0.04957
G1 X55.889 Y41.491 E0.03929
G1 X53.678 Y42.125 E0.06827
G1 X52.13 Y42.75 E0.04957
G1 X50.1 Y43.83 E0.06827
G1 X48.716 Y44.763 E0.04957
G1 X47.68 Y45.588 E0.03929
G1 X46.069 Y47.143 E0.06649
G1 X46.317 Y47.4 F18000
G1 F1800
G1 X46.283 Y47.433 E0.00141
G1 X45.242 Y48.674 E0.04809
G1 X43.974 Y50.554 E0.06733
G1 X43.21 Y51.99 E0.0483
G1 X42.357 Y54.099 E0.06753
G1 X41.989 Y55.344 E0.03855
G1 X41.652 Y56.928 E0.04809
G1 X41.414 Y59.19 E0.06753
G1 X41.414 Y60.81 E0.04809
G1 X41.652 Y63.072 E0.06753
G1 X41.989 Y64.656 E0.04809
G1 X42.692 Y66.82 E0.06753
G1 X43.21 Y68.01 E0.03855
G1 X43.97 Y69.441 E0.04809
G1 X45.242 Y71.326 E0.06753
G1 X46.283 Y72.567 E0.04809
G1 X47.919 Y74.147 E0.06753
G1 X48.936 Y74.955 E0.03855
G1 X50.278 Y75.861 E0.04809
G1 X52.287 Y76.929 E0.06753
G1 X53.789 Y77.536 E0.04809
G1 X55.975 Y78.163 E0.06753
G1 X57.57 Y78.444 E0.04809
G1 X58.863 Y78.569 E0.03855
G1 X61.137 Y78.569 E0.06753
G1 X62.748 Y78.399 E0.04809
G1 X64.973 Y77.926 E0.06753
G1 X66.514 Y77.426 E0.04809
G1 X68.591 Y76.501 E0.06753
G1 X69.722 Y75.861 E0.03855
G1 X71.064 Y74.955 E0.04809
G1 X72.807 Y73.493 E0.06753
G1 X73.717 Y72.567 E0.03855
G1 X74.758 Y71.326 E0.04809
G1 X76.026 Y69.447 E0.06733
G1 X76.79 Y68.01 E0.0483
G1 X77.643 Y65.901 E0.06753
G1 X78.089 Y64.344 E0.04809
G1 X78.348 Y63.072 E0.03855
G1 X78.586 Y60.81 E0.06753
G1 X78.586 Y59.19 E0.04809
G1 X78.348 Y56.928 E0.06753
G1 X78.011 Y55.344 E0.04809
G1 X77.643 Y54.099 E0.03855
G1 X76.79 Y51.99 E0.06753
G1 X76.03 Y50.559 E0.04809
G1 X74.758 Y48.674 E0.06753
G1 X73.717 Y47.433 E0.04809
G1 X72.081 Y45.853 E0.06753
G1 X71.064 Y45.045 E0.03855
G1 X69.722 Y44.139 E0.04809
G1 X67.713 Y43.071 E0.06753
G1 X66.211 Y42.464 E0.04809
G1 X64.025 Y41.837 E0.06753
G1 X62.748 Y41.601 E0.03855
G1 X61.137 Y41.431 E0.04809
G1 X58.863 Y41.431 E0.06753
G1 X57.252 Y41.601 E0.04809
G1 X55.975 Y41.837 E0.03855
G1 X53.789 Y42.464 E0.06753
G1 X52.287 Y43.071 E0.04809
G1 X51.125 Y43.65 E0.03855
G1 X49.196 Y44.856 E0.06753
G1 X47.919 Y45.853 E0.04809
G1 X46.36 Y47.358 E0.06434
G1 X46.608 Y47.615 F18000
G1 F1800
G1 X46.54 Y47.681 E0.00282
G1 X45.531 Y48.884 E0.04662
G1 X44.276 Y50.743 E0.06659
G1 X43.536 Y52.135 E0.04682
G1 X42.693 Y54.221 E0.06679
G1 X42.26 Y55.73 E0.04661
G1 X42.006 Y56.978 E0.03781
G1 X41.77 Y59.215 E0.06679
G1 X41.77 Y60.785 E0.04661
G1 X42.006 Y63.022 E0.06679
G1 X42.26 Y64.27 E0.03781
G1 X42.693 Y65.779 E0.04661
G1 X43.536 Y67.865 E0.06679
G1 X44.273 Y69.251 E0.04661
G1 X44.956 Y70.326 E0.03781
G1 X46.341 Y72.099 E0.06679
G1 X47.432 Y73.228 E0.04662
G1 X49.155 Y74.674 E0.06679
G1 X50.457 Y75.552 E0.04661
G1 X52.443 Y76.608 E0.06679
G1 X53.899 Y77.196 E0.04662
G1 X56.061 Y77.816 E0.06679
G1 X57.608 Y78.089 E0.04662
G1 X58.875 Y78.212 E0.03781
G1 X61.125 Y78.212 E0.06679
G1 X62.686 Y78.048 E0.04662
G1 X64.887 Y77.58 E0.06679
G1 X66.38 Y77.095 E0.04662
G1 X68.435 Y76.18 E0.06679
G1 X69.795 Y75.395 E0.04662
G1 X71.615 Y74.072 E0.06679
G1 X72.568 Y73.228 E0.03781
G1 X73.659 Y72.099 E0.04662
G1 X74.469 Y71.116 E0.03781
G1 X75.724 Y69.257 E0.06659
G1 X76.464 Y67.865 E0.04682
G1 X77.307 Y65.779 E0.06679
G1 X77.668 Y64.558 E0.03781
G1 X77.994 Y63.022 E0.04662
G1 X78.23 Y60.785 E0.06679
G1 X78.23 Y59.215 E0.04661
G1 X77.994 Y56.978 E0.06679
G1 X77.668 Y55.442 E0.04662
G1 X77.307 Y54.221 E0.03781
G1 X76.464 Y52.135 E0.06679
G1 X75.727 Y50.749 E0.04662
G1 X74.469 Y48.884 E0.06679
G1 X73.46 Y47.681 E0.04662
G1 X71.842 Y46.118 E0.06679
G1 X70.845 Y45.326 E0.03781
G1 X69.543 Y44.448 E0.04662
G1 X67.557 Y43.392 E0.06679
G1 X66.101 Y42.804 E0.04661
G1 X63.939 Y42.184 E0.06679
G1 X62.686 Y41.952 E0.03781
G1 X61.125 Y41.788 E0.04662
G1 X58.875 Y41.788 E0.06679
G1 X57.314 Y41.952 E0.04662
G1 X56.061 Y42.184 E0.03781
G1 X53.899 Y42.804 E0.06679
G1 X52.443 Y43.392 E0.04661
G1 X50.457 Y44.448 E0.06679
G1 X49.395 Y45.152 E0.03781
G1 X48.158 Y46.118 E0.04662
G1 X46.652 Y47.573 E0.06219
G1 X46.899 Y47.83 F18000
G1 F1800
G1 X46.797 Y47.929 E0.00423
G1 X45.82 Y49.094 E0.04514
G1 X44.579 Y50.932 E0.06585
G1 X43.862 Y52.28 E0.04534
G1 X43.029 Y54.343 E0.06605
G1 X42.675 Y55.54 E0.03707
G1 X42.359 Y57.027 E0.04514
G1 X42.127 Y59.24 E0.06605
G1 X42.127 Y60.76 E0.04514
G1 X42.359 Y62.973 E0.06605
G1 X42.675 Y64.46 E0.04514
G1 X43.029 Y65.657 E0.03707
G1 X43.465 Y66.827 E0.03707
G1 X44.44 Y68.827 E0.06605
G1 X45.245 Y70.116 E0.04514
G1 X46.615 Y71.869 E0.06605
G1 X47.671 Y72.963 E0.04514
G1 X49.375 Y74.393 E0.06605
G1 X50.636 Y75.243 E0.04514
G1 X52.6 Y76.287 E0.06605
G1 X54.009 Y76.857 E0.04514
G1 X56.148 Y77.47 E0.06605
G1 X57.645 Y77.734 E0.04514
G1 X58.888 Y77.855 E0.03707
G1 X60.136 Y77.889 E0.03707
G1 X62.355 Y77.734 E0.06605
G1 X63.852 Y77.47 E0.04514
G1 X65.991 Y76.857 E0.06605
G1 X67.4 Y76.287 E0.04514
G1 X69.364 Y75.243 E0.06605
G1 X70.625 Y74.393 E0.04514
G1 X72.329 Y72.963 E0.06605
G1 X73.385 Y71.869 E0.04514
G1 X74.755 Y70.116 E0.06605
G1 X75.557 Y68.833 E0.04492
G1 X76.138 Y67.72 E0.03729
G1 X76.971 Y65.657 E0.06605
G1 X77.325 Y64.46 E0.03707
G1 X77.641 Y62.973 E0.04514
G1 X77.873 Y60.76 E0.06605
G1 X77.873 Y59.24 E0.04514
G1 X77.641 Y57.027 E0.06605
G1 X77.325 Y55.54 E0.04514
G1 X76.971 Y54.343 E0.03707
G1 X76.138 Y52.28 E0.06605
G1 X75.424 Y50.938 E0.04514
G1 X74.755 Y49.884 E0.03707
G1 X73.385 Y48.131 E0.06605
G1 X72.329 Y47.037 E0.04514
G1 X71.395 Y46.209 E0.03707
G1 X69.595 Y44.901 E0.06605
G1 X68.278 Y44.141 E0.04514
G1 X66.246 Y43.236 E0.06605
G1 X64.8 Y42.767 E0.04514
G1 X62.624 Y42.304 E0.06605
G1 X61.112 Y42.145 E0.04514
G1 X58.888 Y42.145 E0.06605
G1 X57.376 Y42.304 E0.04514
G1 X56.148 Y42.53 E0.03707
G1 X54.009 Y43.143 E0.06605
G1 X52.848 Y43.602 E0.03707
G1 X51.482 Y44.269 E0.04514
G1 X49.595 Y45.448 E0.06605
G1 X48.397 Y46.384 E0.04514
G1 X46.943 Y47.788 E0.06004
G1 X47.19 Y48.045 F18000
G1 F1800
G1 X47.054 Y48.177 E0.00565
G1 X46.109 Y49.303 E0.04366
G1 X44.882 Y51.121 E0.06512
G1 X44.188 Y52.425 E0.04386
G1 X43.364 Y54.465 E0.06531
G1 X42.959 Y55.878 E0.04366
G1 X42.713 Y57.077 E0.03634
G1 X42.483 Y59.265 E0.06531
G1 X42.483 Y60.735 E0.04366
G1 X42.713 Y62.923 E0.06531
G1 X43.019 Y64.361 E0.04366
G1 X43.698 Y66.453 E0.06531
G1 X44.188 Y67.575 E0.03634
G1 X44.878 Y68.873 E0.04366
G1 X46.109 Y70.697 E0.06531
G1 X47.054 Y71.823 E0.04366
G1 X48.636 Y73.351 E0.06531
G1 X49.795 Y74.256 E0.04366
G1 X51.66 Y75.422 E0.06531
G1 X52.756 Y75.966 E0.03634
G1 X54.12 Y76.517 E0.04366
G1 X56.234 Y77.123 E0.06531
G1 X57.438 Y77.344 E0.03633
G1 X58.9 Y77.498 E0.04366
G1 X61.1 Y77.498 E0.06531
G1 X62.562 Y77.344 E0.04366
G1 X63.766 Y77.123 E0.03633
G1 X65.88 Y76.517 E0.06531
G1 X67.244 Y75.966 E0.04366
G1 X69.186 Y74.933 E0.06531
G1 X70.405 Y74.111 E0.04366
G1 X72.09 Y72.697 E0.06531
G1 X73.111 Y71.64 E0.04366
G1 X74.466 Y69.906 E0.06531
G1 X75.241 Y68.665 E0.04345
G1 X75.812 Y67.575 E0.03655
G1 X76.636 Y65.535 E0.06531
G1 X76.981 Y64.361 E0.03634
G1 X77.287 Y62.923 E0.04366
G1 X77.517 Y60.735 E0.06531
G1 X77.517 Y59.265 E0.04366
G1 X77.287 Y57.077 E0.06531
G1 X76.981 Y55.639 E0.04366
G1 X76.636 Y54.465 E0.03634
G1 X75.812 Y52.425 E0.06531
G1 X75.122 Y51.127 E0.04366
G1 X73.891 Y49.303 E0.06531
G1 X72.946 Y48.177 E0.04366
G1 X71.364 Y46.649 E0.06531
G1 X70.205 Y45.744 E0.04366
G1 X68.34 Y44.578 E0.06531
G1 X67.244 Y44.034 E0.03634
G1 X65.88 Y43.483 E0.04366
G1 X63.766 Y42.877 E0.06531
G1 X62.562 Y42.656 E0.03634
G1 X61.1 Y42.502 E0.04366
G1 X58.9 Y42.502 E0.06531
G1 X57.438 Y42.656 E0.04366
G1 X56.234 Y42.877 E0.03634
G1 X54.12 Y43.483 E0.06531
G1 X52.756 Y44.034 E0.04366
G1 X50.814 Y45.067 E0.06531
G1 X49.795 Y45.744 E0.03633
G1 X48.636 Y46.649 E0.04366
G1 X47.234 Y48.003 E0.05789
G1 X47.482 Y48.26 F18000
G1 F1800
G1 X47.311 Y48.425 E0.00706
G1 X46.397 Y49.513 E0.04218
G1 X45.185 Y51.311 E0.06438
G1 X44.514 Y52.571 E0.04237
G1 X44.034 Y53.669 E0.0356
G1 X43.362 Y55.737 E0.06457
G1 X43.066 Y57.127 E0.04218
G1 X42.839 Y59.29 E0.06457
G1 X42.839 Y60.71 E0.04218
G1 X43.066 Y62.873 E0.06457
G1 X43.362 Y64.263 E0.04218
G1 X44.034 Y66.331 E0.06457
G1 X44.514 Y67.429 E0.0356
G1 X45.181 Y68.684 E0.04218
G1 X46.397 Y70.487 E0.06457
G1 X47.311 Y71.575 E0.04218
G1 X48.875 Y73.086 E0.06457
G1 X49.815 Y73.83 E0.0356
G1 X50.993 Y74.624 E0.04218
G1 X52.913 Y75.645 E0.06457
G1 X54.23 Y76.177 E0.04218
G1 X56.321 Y76.777 E0.06457
G1 X57.72 Y77.024 E0.04218
G1 X58.913 Y77.141 E0.0356
G1 X61.087 Y77.141 E0.06457
G1 X62.5 Y76.993 E0.04218
G1 X64.628 Y76.54 E0.06457
G1 X65.979 Y76.101 E0.04218
G1 X67.965 Y75.217 E0.06457
G1 X69.007 Y74.624 E0.0356
G1 X70.185 Y73.83 E0.04218
G1 X71.851 Y72.432 E0.06457
G1 X72.838 Y71.41 E0.04218
G1 X74.177 Y69.696 E0.06457
G1 X74.926 Y68.498 E0.04197
G1 X75.486 Y67.429 E0.0358
G1 X76.3 Y65.413 E0.06457
G1 X76.638 Y64.263 E0.0356
G1 X76.934 Y62.873 E0.04218
G1 X77.161 Y60.71 E0.06457
G1 X77.161 Y59.29 E0.04218
G1 X76.934 Y57.127 E0.06457
G1 X76.638 Y55.737 E0.04218
G1 X76.3 Y54.587 E0.0356
G1 X75.486 Y52.571 E0.06457
G1 X74.819 Y51.316 E0.04218
G1 X73.603 Y49.513 E0.06457
G1 X72.689 Y48.425 E0.04218
G1 X71.125 Y46.914 E0.06457
G1 X70.006 Y46.04 E0.04218
G1 X68.161 Y44.887 E0.06457
G1 X67.087 Y44.355 E0.0356
G1 X65.77 Y43.823 E0.04218
G1 X63.679 Y43.223 E0.06457
G1 X62.5 Y43.007 E0.0356
G1 X61.087 Y42.859 E0.04218
G1 X58.913 Y42.859 E0.06457
G1 X57.5 Y43.007 E0.04218
G1 X56.321 Y43.223 E0.0356
G1 X54.23 Y43.823 E0.06457
G1 X52.913 Y44.355 E0.04218
G1 X51.839 Y44.887 E0.0356
G1 X49.994 Y46.04 E0.06457
G1 X48.875 Y46.914 E0.04218
G1 X47.525 Y48.218 E0.05573
G1 E-2 F3000
M204 S1500
G1 Z0.6 F18000
; printing object TorquePole5mmAdaptor.STL id:0 copy 0
EXCLUDE_OBJECT_START NAME=TorquePole5mmAdaptor_STL_id_0_copy_0
; acceleration to travel
G1 X52.903 Y55.723
; decel to extrusion
M204 S1000
G1 X56.489 Y60.725
; end travel
G1 Z0.2
G1 E2 F1800
;TYPE:Internal perimeter
G1 X56.667 Y61.346 E0.02686
G1 X57.02 Y62.01 E0.03124
G1 X57.503 Y62.586 E0.03124
G1 X58.095 Y63.048 E0.03123
G1 X58.771 Y63.378 E0.03123
G1 X59.5 Y63.559 E0.03124
G1 X60.227 Y63.585 E0.03027
G1 X60.769 Y63.509 E0.02275
G1 X61.462 Y63.284 E0.03027
G1 X62.113 Y62.908 E0.03124
G1 X62.654 Y62.421 E0.03027
G1 X62.991 Y61.989 E0.02275
G1 X63.333 Y61.346 E0.03027
G1 X63.54 Y60.624 E0.03123
G1 X63.592 Y59.875 E0.03124
G1 X63.488 Y59.13 E0.03124
G1 X63.239 Y58.446 E0.03027
G1 X62.965 Y57.972 E0.02275
G1 X62.497 Y57.414 E0.03027
G1 X61.905 Y56.952 E0.03123
G1 X61.229 Y56.622 E0.03124
G1 X60.5 Y56.441 E0.03124
G1 X59.749 Y56.414 E0.03124
G1 X59.032 Y56.541 E0.03027
G1 X58.518 Y56.728 E0.02275
G1 X57.887 Y57.092 E0.03027
G1 X57.346 Y57.579 E0.03027
G1 X57.009 Y58.011 E0.02275
G1 X56.667 Y58.654 E0.03027
G1 X56.46 Y59.376 E0.03124
G1 X56.409 Y60.102 E0.03027
G1 X56.467 Y60.647 E0.02275
G1 X56.473 Y60.668 E0.00092
G1 X56.834 Y60.631 F18000
G1 F1800
G1 X57 Y61.212 E0.02513
G1 X57.318 Y61.809 E0.02812
G1 X57.753 Y62.327 E0.02812
G1 X58.286 Y62.744 E0.02811
G1 X58.893 Y63.04 E0.02811
