; generated by SuperSlicer 2.5.59 on 2024-01-15 at 03:07:55 UTC


;
;

;
;
; TODO: check the size of the extruder and the y-bar clearance. Optimize & test supports.

; external perimeters extrusion width = 0.40mm
; perimeters extrusion width = 0.40mm
; infill extrusion width = 0.40mm
; solid infill extrusion width = 0.40mm
; top infill extrusion width = 0.40mm
; first layer extrusion width = 0.40mm

; object:{"name":"TorquePole5mmAdaptor","id":"TorquePole5mmAdaptor.STL id:0 copy 0","object_center":[60.000000,60.000000,0.000000],"boundingbox_center":[60.000000,60.000000,6.000000],"boundingbox_size":[27.904365,28.000000,12.000000]}
EXCLUDE_OBJECT_DEFINE NAME=TorquePole5mmAdaptor_STL_id_0_copy_0 CENTER=60.000000,60.000000 POLYGON=[[46.047816,58.843888],[46.428400,56.563204],[47.179172,54.376264],[48.000000,52.788896],[48.279672,52.342728],[49.699868,50.518060],[51.401024,48.952036],[53.336740,47.687372],[55.454208,46.758560],[57.695676,46.190940],[60.000000,46.000000],[62.304324,46.190940],[64.545792,46.758560],[66.663260,47.687372],[68.598976,48.952036],[70.300136,50.518060],[71.720328,52.342728],[72.000000,52.788896],[72.820832,54.376264],[73.571600,56.563204],[73.952176,58.843888],[73.952176,61.156112],[73.571600,63.436800],[72.820832,65.623732],[72.000000,67.211104],[71.720328,67.657272],[70.300136,69.481944],[68.598976,71.047968],[66.663260,72.312632],[64.545792,73.241440],[62.304324,73.809056],[60.000000,74.000000],[57.695676,73.809056],[55.454208,73.241440],[53.336740,72.312632],[51.401024,71.047968],[49.699868,69.481944],[48.279672,67.657272],[48.000000,67.211104],[47.179172,65.623732],[46.428400,63.436800],[46.047816,61.156112],[46.047816,58.843888]]
; plater:{"center":[60.000000,60.000000,0.000000],"boundingbox_center":[60.000000,60.000000,6.000000],"boundingbox_size":[27.904365,28.000000,12.000000]}

;TYPE:Custom
; M190 S0
; M109 S0 ; uncomment to remove set&wait temp gcode added automatically after this start gcode
print_start EXTRUDER=245 BED=90 CHAMBER=50
M107
G21 ; set units to millimeters
G90 ; use absolute coordinates
M83 ; use relative distances for extrusion
SET_PRESSURE_ADVANCE ADVANCE=0.02
;_TOOLCHANGE 0
M104 S245 ; set temperature
M109 S245 ; set temperature and wait for it to be reached
M190 S90 ; set bed temperature and wait for it to be reached
M107
;LAYER_CHANGE
;Z:0.2
;HEIGHT:0.2
;BEFORE_LAYER_CHANGE
;0.2


G1 Z0.2 F18000
;AFTER_LAYER_CHANGE
;0.2
G92 E0
G1 E-2 F3000
G1 Z0.6 F18000
M204 S1000
G1 X45.816 Y46.571
G1 Z0.2
G1 E2 F1800
;TYPE:Skirt
;WIDTH:0.4
G1 X48.209 Y44.427 E0.09539
G1 X50.716 Y42.814 E0.08851
G1 X53.417 Y41.609 E0.08782
G1 X56.799 Y40.731 E0.10374
G1 X60.251 Y40.468 E0.10281
G1 X63.46 Y40.776 E0.09571
G1 X66.381 Y41.539 E0.08964
G1 X69.148 Y42.741 E0.08959
G1 X71.917 Y44.524 E0.09776
G1 X74.36 Y46.758 E0.0983
G1 X76.42 Y49.421 E0.09996
G1 X77.995 Y52.404 E0.10018
G1 X78.997 Y55.458 E0.09541
G1 X79.468 Y58.402 E0.08852
G1 X79.486 Y61.357 E0.08776
G1 X78.966 Y64.675 E0.0997
G1 X77.881 Y67.861 E0.09994
G1 X76.274 Y70.802 E0.09952
G1 X74.185 Y73.429 E0.09964
G1 X71.791 Y75.573 E0.0954
G1 X69.284 Y77.186 E0.08851
G1 X66.583 Y78.391 E0.08783
G1 X63.201 Y79.269 E0.10374
G1 X59.746 Y79.532 E0.10287
G1 X56.529 Y79.222 E0.09598
G1 X53.643 Y78.47 E0.08853
G1 X50.93 Y77.3 E0.08775
G1 X48.102 Y75.491 E0.09966
G1 X45.64 Y73.241 E0.09902
G1 X43.579 Y70.579 E0.09997
G1 X42.005 Y67.596 E0.10016
G1 X41.003 Y64.543 E0.0954
G1 X40.532 Y61.599 E0.08851
G1 X40.514 Y58.643 E0.08776
G1 X41.034 Y55.325 E0.09971
G1 X42.107 Y52.166 E0.09905
G1 X43.717 Y49.21 E0.09994
G1 X45.778 Y46.618 E0.09833
G1 X46.056 Y46.839 F18000
G1 F1800
G1 X48.414 Y44.72 E0.09413
G1 X50.874 Y43.135 E0.08688
G1 X53.549 Y41.942 E0.08698
G1 X56.842 Y41.086 E0.10101
G1 X60.233 Y40.825 E0.10098
G1 X63.384 Y41.125 E0.09398
G1 X66.251 Y41.872 E0.08798
G1 X68.993 Y43.063 E0.08875
G1 X71.711 Y44.816 E0.09602
G1 X74.087 Y46.989 E0.09561
G1 X76.112 Y49.601 E0.09813
G1 X77.661 Y52.53 E0.09838
G1 X78.647 Y55.528 E0.0937
G1 X79.111 Y58.417 E0.08688
G1 X79.129 Y61.345 E0.08692
G1 X78.615 Y64.604 E0.09796
G1 X77.561 Y67.704 E0.09722
G1 X75.985 Y70.592 E0.0977
G1 X73.935 Y73.173 E0.09785
G1 X71.586 Y75.28 E0.0937
G1 X69.126 Y76.865 E0.08688
G1 X66.451 Y78.058 E0.08698
G1 X63.158 Y78.914 E0.10102
G1 X59.765 Y79.175 E0.10103
G1 X56.605 Y78.873 E0.09426
G1 X53.772 Y78.137 E0.0869
G1 X51.085 Y76.977 E0.08691
G1 X48.307 Y75.199 E0.09792
G1 X45.892 Y72.988 E0.0972
G1 X43.871 Y70.373 E0.09815
G1 X42.339 Y67.47 E0.09746
G1 X41.353 Y64.472 E0.0937
G1 X40.889 Y61.583 E0.08688
G1 X40.871 Y58.655 E0.08693
G1 X41.385 Y55.396 E0.09797
G1 X42.44 Y52.296 E0.09724
G1 X44.023 Y49.395 E0.09812
G1 X46.018 Y46.886 E0.09519
G1 X46.296 Y47.106 F18000
G1 F1800
G1 X46.315 Y47.083 E0.0009
G1 X48.62 Y45.012 E0.09198
G1 X51.056 Y43.443 E0.08605
G1 X53.681 Y42.274 E0.08532
G1 X56.885 Y41.441 E0.09831
G1 X60.214 Y41.182 E0.09915
G1 X63.308 Y41.474 E0.09225
G1 X66.148 Y42.214 E0.08714
G1 X68.837 Y43.385 E0.08708
G1 X71.504 Y45.108 E0.09428
G1 X73.834 Y47.242 E0.09383
G1 X75.82 Y49.808 E0.09632
G1 X77.327 Y52.656 E0.09568
G1 X78.297 Y55.599 E0.092
G1 X78.754 Y58.433 E0.08524
G1 X78.772 Y61.333 E0.08608
G1 X78.265 Y64.533 E0.09621
G1 X77.228 Y67.574 E0.0954
G1 X75.679 Y70.408 E0.09588
G1 X73.685 Y72.917 E0.09516
G1 X71.38 Y74.988 E0.09199
G1 X68.944 Y76.557 E0.08605
G1 X66.319 Y77.726 E0.08532
G1 X63.084 Y78.565 E0.09924
G1 X59.784 Y78.818 E0.09827
G1 X56.681 Y78.524 E0.09253
G1 X53.875 Y77.794 E0.08607
G1 X51.239 Y76.655 E0.08526
G1 X48.537 Y74.925 E0.09528
G1 X46.165 Y72.758 E0.09539
G1 X44.18 Y70.192 E0.09633
G1 X42.673 Y67.344 E0.09567
G1 X41.703 Y64.402 E0.09198
G1 X41.244 Y61.54 E0.08605
G1 X41.228 Y58.668 E0.08528
G1 X41.735 Y55.467 E0.09622
G1 X42.773 Y52.425 E0.09542
G1 X44.312 Y49.605 E0.09541
G1 X46.259 Y47.153 E0.09295
G1 X46.537 Y47.374 F18000
G1 F1800
G1 X46.565 Y47.338 E0.00135
G1 X48.825 Y45.305 E0.09027
G1 X51.213 Y43.763 E0.0844
G1 X53.813 Y42.606 E0.08448
G1 X56.96 Y41.79 E0.09653
G1 X60.196 Y41.539 E0.09639
G1 X63.232 Y41.823 E0.09052
G1 X66.018 Y42.547 E0.08547
G1 X68.681 Y43.706 E0.08623
G1 X71.298 Y45.399 E0.09254
G1 X73.582 Y47.495 E0.09204
G1 X75.512 Y49.988 E0.09362
G1 X76.992 Y52.783 E0.09389
G1 X77.947 Y55.67 E0.09029
G1 X78.399 Y58.477 E0.08441
G1 X78.414 Y61.32 E0.08443
G1 X77.922 Y64.432 E0.09356
G1 X76.907 Y67.416 E0.09359
G1 X75.39 Y70.198 E0.09407
G1 X73.435 Y72.662 E0.09338
G1 X71.175 Y74.695 E0.09028
G1 X68.787 Y76.237 E0.0844
G1 X66.187 Y77.394 E0.08448
G1 X63.04 Y78.21 E0.09653
G1 X59.802 Y78.461 E0.09645
G1 X56.757 Y78.174 E0.09081
G1 X54.004 Y77.461 E0.08442
G1 X51.394 Y76.333 E0.08442
G1 X48.743 Y74.633 E0.09354
G1 X46.418 Y72.505 E0.09357
G1 X44.488 Y70.011 E0.09361
G1 X43.008 Y67.217 E0.09388
G1 X42.054 Y64.331 E0.09027
G1 X41.601 Y61.524 E0.0844
G1 X41.586 Y58.68 E0.08444
G1 X42.078 Y55.568 E0.09358
G1 X43.094 Y52.583 E0.09361
G1 X44.602 Y49.815 E0.09359
G1 X46.5 Y47.421 E0.09072
G1 X46.777 Y47.641 F18000
G1 F1800
G1 X46.815 Y47.593 E0.0018
G1 X49.031 Y45.597 E0.08855
G1 X51.395 Y44.071 E0.08356
G1 X53.944 Y42.938 E0.08281
G1 X57.003 Y42.145 E0.09383
G1 X60.179 Y41.896 E0.09457
G1 X63.156 Y42.172 E0.08878
G1 X65.914 Y42.889 E0.08463
G1 X68.525 Y44.028 E0.08455
G1 X71.067 Y45.673 E0.08992
G1 X73.309 Y47.726 E0.09025
G1 X75.203 Y50.169 E0.0918
G1 X76.658 Y52.909 E0.0921
G1 X77.596 Y55.741 E0.08857
G1 X78.044 Y58.52 E0.08358
G1 X78.057 Y61.307 E0.08276
G1 X77.572 Y64.361 E0.09182
G1 X76.574 Y67.287 E0.09178
G1 X75.1 Y69.988 E0.09136
G1 X73.185 Y72.406 E0.09159
G1 X70.969 Y74.403 E0.08856
G1 X68.605 Y75.929 E0.08356
G1 X66.056 Y77.062 E0.08281
G1 X62.997 Y77.855 E0.09383
G1 X59.82 Y78.104 E0.09462
G1 X56.832 Y77.825 E0.08908
G1 X54.107 Y77.119 E0.08358
G1 X51.55 Y76.011 E0.08276
G1 X48.948 Y74.34 E0.0918
G1 X46.691 Y72.274 E0.09087
G1 X44.796 Y69.83 E0.0918
G1 X43.342 Y67.091 E0.09209
G1 X42.404 Y64.26 E0.08856
G1 X41.956 Y61.481 E0.08356
G1 X41.943 Y58.693 E0.08277
G1 X42.428 Y55.639 E0.09183
G1 X43.427 Y52.713 E0.0918
G1 X44.908 Y49.999 E0.09178
G1 X46.74 Y47.688 E0.08758
G1 X47.018 Y47.908 F18000
G1 F1800
G1 X47.065 Y47.848 E0.00226
G1 X49.237 Y45.889 E0.08684
G1 X51.553 Y44.391 E0.0819
G1 X54.076 Y43.271 E0.08196
G1 X57.077 Y42.495 E0.09206
G1 X60.161 Y42.253 E0.09184
G1 X63.08 Y42.522 E0.08705
G1 X65.785 Y43.222 E0.08295
G1 X68.369 Y44.349 E0.0837
G1 X70.861 Y45.964 E0.08818
G1 X73.036 Y47.957 E0.08759
G1 X74.895 Y50.351 E0.09
G1 X76.324 Y53.036 E0.09031
G1 X77.246 Y55.812 E0.08685
G1 X77.687 Y58.535 E0.08191
G1 X77.7 Y61.294 E0.08192
G1 X77.229 Y64.261 E0.08918
G1 X76.253 Y67.129 E0.08997
G1 X74.811 Y69.778 E0.08956
G1 X72.935 Y72.151 E0.08981
G1 X70.763 Y74.111 E0.08684
G1 X68.447 Y75.609 E0.0819
G1 X65.924 Y76.729 E0.08196
G1 X62.923 Y77.505 E0.09206
G1 X59.838 Y77.747 E0.09188
G1 X56.908 Y77.476 E0.08736
G1 X54.237 Y76.786 E0.08192
G1 X51.705 Y75.69 E0.08191
G1 X49.154 Y74.048 E0.09005
G1 X46.943 Y72.021 E0.08907
G1 X45.088 Y69.624 E0.09
G1 X43.676 Y66.964 E0.08941
G1 X42.754 Y64.188 E0.08684
G1 X42.313 Y61.466 E0.0819
G1 X42.3 Y58.706 E0.08193
G1 X42.771 Y55.739 E0.08919
G1 X43.747 Y52.87 E0.08999
G1 X45.197 Y50.209 E0.08998
G1 X46.981 Y47.955 E0.08535
G1 X47.259 Y48.175 F18000
G1 F1800
G1 X47.316 Y48.103 E0.00271
G1 X49.443 Y46.181 E0.08511
G1 X51.735 Y44.699 E0.08106
G1 X54.207 Y43.603 E0.08028
G1 X57.121 Y42.849 E0.08937
G1 X60.144 Y42.61 E0.09002
G1 X63.005 Y42.871 E0.0853
G1 X65.681 Y43.564 E0.0821
G1 X68.212 Y44.67 E0.08201
G1 X70.654 Y46.256 E0.08643
G1 X72.784 Y48.21 E0.08582
G1 X74.604 Y50.557 E0.0882
G1 X75.99 Y53.163 E0.08763
G1 X76.896 Y55.883 E0.08514
G1 X77.33 Y58.551 E0.08024
G1 X77.343 Y61.281 E0.08107
G1 X76.879 Y64.189 E0.08743
G1 X75.932 Y66.972 E0.08728
G1 X74.521 Y69.569 E0.08776
G1 X72.684 Y71.897 E0.08803
G1 X70.557 Y73.819 E0.08512
G1 X68.265 Y75.301 E0.08106
G1 X65.793 Y76.397 E0.08028
G1 X62.879 Y77.151 E0.08937
G1 X59.855 Y77.39 E0.09006
G1 X56.983 Y77.127 E0.08563
G1 X54.339 Y76.444 E0.08108
G1 X51.86 Y75.368 E0.08024
G1 X49.384 Y73.775 E0.08742
G1 X47.216 Y71.79 E0.08727
G1 X45.396 Y69.443 E0.08819
G1 X44.01 Y66.837 E0.08763
G1 X43.104 Y64.117 E0.08512
G1 X42.668 Y61.422 E0.08106
G1 X42.657 Y58.719 E0.08026
G1 X43.121 Y55.811 E0.08745
G1 X44.08 Y53 E0.08818
G1 X45.487 Y50.419 E0.08728
G1 X47.222 Y48.222 E0.08312
G1 X47.501 Y48.442 F18000
G1 F1800
G1 X47.567 Y48.358 E0.00316
G1 X49.649 Y46.473 E0.08339
G1 X51.893 Y45.019 E0.07938
G1 X54.338 Y43.935 E0.07942
G1 X57.195 Y43.199 E0.0876
G1 X60.126 Y42.967 E0.08731
G1 X62.93 Y43.22 E0.08357
G1 X65.551 Y43.897 E0.0804
G1 X68.056 Y44.992 E0.08115
G1 X70.424 Y46.529 E0.08382
G1 X72.511 Y48.441 E0.08404
G1 X74.296 Y50.739 E0.0864
G1 X75.656 Y53.29 E0.08585
G1 X76.546 Y55.955 E0.08341
G1 X76.975 Y58.594 E0.0794
G1 X76.986 Y61.268 E0.07939
G1 X76.528 Y64.118 E0.08569
G1 X75.599 Y66.843 E0.08548
G1 X74.214 Y69.385 E0.08596
G1 X72.434 Y71.642 E0.08536
G1 X70.351 Y73.527 E0.0834
G1 X68.107 Y74.981 E0.07938
G1 X65.662 Y76.065 E0.07942
G1 X62.805 Y76.801 E0.0876
G1 X59.872 Y77.033 E0.08734
G1 X57.058 Y76.777 E0.08389
G1 X54.469 Y76.11 E0.0794
G1 X52.016 Y75.046 E0.07939
G1 X49.591 Y73.483 E0.08567
G1 X47.469 Y71.537 E0.08548
G1 X45.704 Y69.261 E0.0855
G1 X44.344 Y66.71 E0.08585
G1 X43.454 Y64.046 E0.0834
G1 X43.025 Y61.407 E0.07938
G1 X43.014 Y58.732 E0.07941
G1 X43.472 Y55.882 E0.08571
G1 X44.401 Y53.157 E0.08549
G1 X45.777 Y50.628 E0.08548
G1 X47.464 Y48.489 E0.08088
G1 X47.742 Y48.708 F18000
G1 F1800
G1 X47.818 Y48.612 E0.00362
G1 X49.855 Y46.765 E0.08167
G1 X52.075 Y45.327 E0.07853
G1 X54.469 Y44.268 E0.07773
G1 X57.239 Y43.554 E0.08493
G1 X60.11 Y43.324 E0.08551
G1 X62.854 Y43.57 E0.08182
G1 X65.448 Y44.239 E0.07954
G1 X67.899 Y45.313 E0.07944
G1 X70.216 Y46.82 E0.08208
G1 X72.258 Y48.693 E0.08228
G1 X73.988 Y50.92 E0.08372
G1 X75.322 Y53.418 E0.08407
G1 X76.196 Y56.027 E0.08169
G1 X76.621 Y58.638 E0.07855
G1 X76.629 Y61.255 E0.0777
G1 X76.178 Y64.046 E0.08394
G1 X75.266 Y66.713 E0.08369
G1 X73.925 Y69.176 E0.08328
G1 X72.183 Y71.387 E0.08358
G1 X70.145 Y73.235 E0.08167
G1 X67.925 Y74.673 E0.07853
G1 X65.531 Y75.732 E0.07773
G1 X62.761 Y76.446 E0.08493
G1 X59.889 Y76.676 E0.08554
G1 X57.133 Y76.428 E0.08216
G1 X54.571 Y75.768 E0.07855
G1 X52.172 Y74.724 E0.0777
G1 X49.82 Y73.209 E0.08305
G1 X47.741 Y71.306 E0.08369
G1 X46.012 Y69.08 E0.0837
G1 X44.678 Y66.582 E0.08407
G1 X43.804 Y63.974 E0.08167
G1 X43.379 Y61.363 E0.07853
G1 X43.371 Y58.746 E0.07772
G1 X43.822 Y55.954 E0.08396
G1 X44.734 Y53.287 E0.0837
G1 X46.083 Y50.812 E0.08369
G1 X47.705 Y48.755 E0.07776
G1 X47.984 Y48.975 F18000
G1 F1800
G1 X48.069 Y48.867 E0.00408
G1 X50.062 Y47.056 E0.07994
G1 X52.233 Y45.648 E0.07684
G1 X54.6 Y44.6 E0.07687
G1 X57.313 Y43.903 E0.08316
G1 X60.093 Y43.681 E0.08281
G1 X62.779 Y43.919 E0.08007
G1 X65.345 Y44.581 E0.07868
G1 X67.742 Y45.634 E0.07773
G1 X69.986 Y47.093 E0.07947
G1 X72.006 Y48.946 E0.08139
G1 X73.697 Y51.127 E0.08193
G1 X74.988 Y53.546 E0.08141
G1 X75.846 Y56.099 E0.07996
G1 X76.264 Y58.653 E0.07686
G1 X76.272 Y61.241 E0.07684
G1 X75.835 Y63.945 E0.08131
G1 X74.945 Y66.555 E0.0819
G1 X73.635 Y68.967 E0.08149
G1 X71.931 Y71.133 E0.08181
G1 X69.938 Y72.944 E0.07995
G1 X67.767 Y74.352 E0.07684
G1 X65.4 Y75.4 E0.07687
G1 X62.687 Y76.097 E0.08316
G1 X59.906 Y76.319 E0.08283
G1 X57.208 Y76.078 E0.08042
G1 X54.701 Y75.435 E0.07686
G1 X52.327 Y74.403 E0.07685
G1 X50.027 Y72.917 E0.0813
G1 X47.994 Y71.053 E0.0819
G1 X46.303 Y68.873 E0.08191
G1 X45.012 Y66.454 E0.08141
G1 X44.154 Y63.902 E0.07994
G1 X43.736 Y61.348 E0.07684
G1 X43.728 Y58.759 E0.07686
G1 X44.165 Y56.055 E0.08133
G1 X45.055 Y53.444 E0.08191
G1 X46.373 Y51.021 E0.0819
G1 X47.946 Y49.022 E0.07553
G1 X48.225 Y49.241 F18000
G1 F1800
G1 X48.32 Y49.121 E0.00454
G1 X50.268 Y47.348 E0.07821
G1 X52.415 Y45.955 E0.07598
G1 X54.731 Y44.933 E0.07517
G1 X57.357 Y44.258 E0.08051
G1 X60.077 Y44.038 E0.08102
G1 X62.704 Y44.268 E0.07831
G1 X65.242 Y44.924 E0.07781
G1 X67.585 Y45.955 E0.07602
G1 X69.756 Y47.366 E0.07687
G1 X71.753 Y49.199 E0.0805
G1 X73.389 Y51.309 E0.07925
G1 X74.655 Y53.674 E0.07964
G1 X75.496 Y56.171 E0.07823
G1 X75.909 Y58.697 E0.076
G1 X75.915 Y61.228 E0.07514
G1 X75.485 Y63.873 E0.07957
G1 X74.624 Y66.399 E0.07923
G1 X73.344 Y68.759 E0.07971
G1 X71.68 Y70.879 E0.08004
G1 X69.732 Y72.652 E0.07821
G1 X67.585 Y74.045 E0.07599
G1 X65.269 Y75.067 E0.07517
G1 X62.643 Y75.742 E0.08051
G1 X59.922 Y75.962 E0.08104
G1 X57.282 Y75.729 E0.07869
G1 X54.83 Y75.102 E0.07515
G1 X52.483 Y74.081 E0.07599
G1 X50.233 Y72.626 E0.07956
G1 X48.267 Y70.822 E0.07923
G1 X46.611 Y68.691 E0.08012
G1 X45.345 Y66.326 E0.07964
G1 X44.505 Y63.83 E0.07821
G1 X44.091 Y61.304 E0.07599
G1 X44.085 Y58.773 E0.07516
G1 X44.515 Y56.127 E0.07958
G1 X45.388 Y53.574 E0.08012
G1 X46.663 Y51.23 E0.07923
G1 X48.188 Y49.288 E0.07331
G1 X48.468 Y49.507 F18000
G1 F1800
G1 X48.572 Y49.375 E0.005
G1 X50.475 Y47.64 E0.07647
G1 X52.572 Y46.276 E0.07428
G1 X54.862 Y45.266 E0.0743
G1 X57.431 Y44.608 E0.07875
G1 X60.061 Y44.395 E0.07834
G1 X62.629 Y44.618 E0.07655
G1 X65.139 Y45.266 E0.07694
G1 X67.428 Y46.276 E0.0743
G1 X69.525 Y47.64 E0.07428
G1 X71.481 Y49.43 E0.07872
G1 X73.081 Y51.491 E0.07747
G1 X74.321 Y53.802 E0.07787
G1 X75.146 Y56.243 E0.07649
G1 X75.552 Y58.712 E0.07429
G1 X75.557 Y61.214 E0.07428
G1 X75.135 Y63.801 E0.07782
G1 X74.291 Y66.269 E0.07745
G1 X73.038 Y68.575 E0.07793
G1 X71.429 Y70.625 E0.07739
G1 X69.525 Y72.36 E0.07648
G1 X67.428 Y73.724 E0.07428
G1 X65.138 Y74.734 E0.0743
G1 X62.569 Y75.392 E0.07875
G1 X59.939 Y75.605 E0.07836
G1 X57.357 Y75.379 E0.07695
G1 X54.932 Y74.76 E0.0743
G1 X52.639 Y73.76 E0.07428
G1 X50.44 Y72.334 E0.07781
G1 X48.519 Y70.569 E0.07745
G1 X46.919 Y68.509 E0.07746
G1 X45.679 Y66.198 E0.07787
G1 X44.854 Y63.758 E0.07648
G1 X44.448 Y61.289 E0.07428
G1 X44.443 Y58.787 E0.0743
G1 X44.865 Y56.2 E0.07784
G1 X45.709 Y53.731 E0.07746
G1 X46.953 Y51.438 E0.07745
G1 X48.431 Y49.555 E0.07108
G1 X48.71 Y49.773 F18000
G1 F1800
G1 X48.823 Y49.628 E0.00547
G1 X50.682 Y47.931 E0.07474
G1 X52.73 Y46.597 E0.07256
G1 X54.992 Y45.598 E0.07343
G1 X57.475 Y44.962 E0.0761
G1 X60.045 Y44.752 E0.07656
