; generated by SuperSlicer 2.4 on 2024-06-08 at 19:38:40 UTC

; 

; external perimeters extrusion width = 0.42mm
; perimeters extrusion width = 0.46mm
; infill extrusion width = 0.44mm
; solid infill extrusion width = 0.46mm
; top infill extrusion width = 0.44mm
; first layer extrusion width = 0.56mm

; external perimeters extrusion width = 0.42mm
; perimeters extrusion width = 0.46mm
; infill extrusion width = 0.44mm
; solid infill extrusion width = 0.46mm
; top infill extrusion width = 0.44mm
; first layer extrusion width = 0.56mm

; external perimeters extrusion width = 0.42mm
; perimeters extrusion width = 0.46mm
; infill extrusion width = 0.44mm
; solid infill extrusion width = 0.46mm
; top infill extrusion width = 0.44mm
; first layer extrusion width = 0.56mm

; object:{"name":"CarrageFace","id":"CarrageFace.STL id:0 copy 0","object_center":[91.500000,129.750001,0.000000],"boundingbox_center":[91.500000,129.750001,2.500000],"boundingbox_size":[41.000000,28.000000,5.000000]}
; object:{"name":"CarrageTop","id":"CarrageTop.STL id:1 copy 0","object_center":[138.500000,101.250002,0.000000],"boundingbox_center":[138.500000,101.250002,2.500000],"boundingbox_size":[41.000000,39.000000,5.000000]}
; object:{"name":"LinearRail","id":"LinearRail.STL id:2 copy 0","object_center":[97.000000,95.500000,0.000000],"boundingbox_center":[97.000000,95.500000,5.000000],"boundingbox_size":[30.000000,28.500000,10.000000]}
; Total objects to print: 3
M486 T3
; plater:{"center":[115.000000,112.500000,0.000000],"boundingbox_center":[115.000000,112.500000,5.000000],"boundingbox_size":[88.000000,62.500001,10.000000]}

;TYPE:Custom
G90 ; use absolute coordinates
M83 ; extruder relative mode
M140 S60 ; set final bed temp
M104 S150 ; set temporary nozzle temp to prevent oozing during homing and auto bed leveling
G4 S10 ; allow partial nozzle warmup
G28 ; home all axis
G1 Z50 F240
G1 X2 Y10 F3000
M104 S205 ; set final nozzle temp
M190 S60 ; wait for bed temp to stabilize
M109 S205 ; wait for nozzle temp to stabilize
G1 Z0.28 F240
G92 E0
G1 Y140 E10 F1500 ; prime the nozzle
G1 X2.3 F5000
G92 E0
G1 Y10 E10 F1200 ; prime the nozzle
G92 E0
M107
G21 ; set units to millimeters
G90 ; use absolute coordinates
M82 ; use absolute distances for extrusion
G92 E0
; Filament gcode
;_TOOLCHANGE 0
M107
;LAYER_CHANGE
;Z:0.2
;HEIGHT:0.2
;BEFORE_LAYER_CHANGE
;0.2


G1 E-2 F3600
G1 Z0.2 F9000
;AFTER_LAYER_CHANGE
;0.2
G92 E0
M204 S500
G1 X79.777 Y78.922
G1 E2 F2400
;TYPE:Skirt
;WIDTH:0.48
G1 F1200
G1 X78.934 Y80.272 E2.05786
G1 X67.934 Y114.772 E3.3739
G1 X67.781 Y115.75 E3.40986
G1 X67.781 Y143.75 E4.42747
G1 X68.292 Y145.49 E4.49337
G1 X69.457 Y146.575 E4.55123
G1 X71 Y146.969 E4.60909
G1 X112 Y146.969 E6.09917
G1 X113.415 Y146.641 E6.15195
G1 X160.415 Y123.641 E8.05364
G1 X161.825 Y122.293 E8.12455
G1 X162.219 Y120.75 E8.18241
G1 X162.219 Y81.75 E9.5998
G1 X161.726 Y80.039 E9.6645
G1 X160.573 Y78.942 E9.72236
G1 X159.034 Y78.532 E9.78023
G1 X112.034 Y78.032 E11.48846
G1 X82 Y78.031 E12.58
G1 X81.165 Y78.142 E12.61061
G1 X79.83 Y78.893 E12.66629
G92 E0
G1 E-1.4 F3600
;WIPE_START
G1 F7200
G1 X79.176 Y79.899 E-1.97
;WIPE_END
G1 E-2 F3600
; printing object CarrageFace.STL id:0 copy 0
M486 S0
; acceleration to travel
M204 S1500
G1 X72.695 Y112.652 F9000
; decel to extrusion
M204 S500
G1 X71.903 Y116.653
; end travel
G1 E0 F2400
;TYPE:Internal perimeter
;WIDTH:0.564
G1 F1200
G1 X82.448 Y116.653 E0.45691
G1 X83.093 Y117.421 E0.50035
G1 X86.513 Y121.497 E0.73086
G1 X86.333 Y121.667 E0.74159
G1 X85.632 Y122.608 E0.79243
G1 X85.1 Y123.654 E0.84327
G1 X84.753 Y124.775 E0.89411
G1 X84.601 Y125.938 E0.94495
G1 X84.647 Y127.111 E0.99579
G1 X84.892 Y128.258 E1.04663
G1 X85.327 Y129.348 E1.09747
G1 X85.941 Y130.348 E1.14831
G1 X86.715 Y131.23 E1.19915
G1 X87.627 Y131.968 E1.24999
G1 X88.651 Y132.541 E1.30082
G1 X89.757 Y132.933 E1.35166
G1 X90.913 Y133.131 E1.4025
G1 X92.087 Y133.131 E1.45334
G1 X93.243 Y132.933 E1.50418
G1 X94.349 Y132.541 E1.55502
G1 X95.373 Y131.968 E1.60586
G1 X96.285 Y131.23 E1.6567
G1 X97.059 Y130.348 E1.70754
G1 X97.673 Y129.348 E1.75838
G1 X98.108 Y128.258 E1.80922
G1 X98.353 Y127.111 E1.86006
G1 X98.399 Y125.938 E1.9109
G1 X98.247 Y124.775 E1.96174
G1 X97.9 Y123.654 E2.01258
G1 X97.368 Y122.608 E2.06341
G1 X96.667 Y121.667 E2.11425
G1 X96.487 Y121.497 E2.12498
G1 X100.552 Y116.653 E2.39894
G1 X111.097 Y116.653 E2.85585
G1 X111.097 Y142.847 E3.99077
G1 X71.903 Y142.847 E5.68896
G1 X71.903 Y116.713 E6.82129
G1 X71.382 Y116.132 F9000
;TYPE:External perimeter
G1 F1200
G1 X82.691 Y116.132 E7.3113
G1 X83.492 Y117.086 E7.36527
G1 X87.227 Y121.537 E7.617
G1 X86.724 Y122.014 E7.64702
G1 X86.076 Y122.884 E7.69401
G1 X85.585 Y123.851 E7.741
G1 X85.264 Y124.886 E7.78799
G1 X85.123 Y125.962 E7.83498
G1 X85.166 Y127.045 E7.88197
G1 X85.392 Y128.106 E7.92896
G1 X85.795 Y129.113 E7.97595
G1 X86.362 Y130.038 E8.02294
G1 X87.077 Y130.853 E8.06993
G1 X87.92 Y131.535 E8.11692
G1 X88.867 Y132.065 E8.16391
G1 X89.889 Y132.427 E8.2109
G1 X90.958 Y132.61 E8.25789
G1 X92.042 Y132.61 E8.30488
G1 X93.111 Y132.427 E8.35187
G1 X94.133 Y132.065 E8.39886
G1 X95.08 Y131.535 E8.44585
G1 X95.923 Y130.853 E8.49284
G1 X96.638 Y130.038 E8.53983
G1 X97.205 Y129.113 E8.58682
G1 X97.608 Y128.106 E8.63381
G1 X97.834 Y127.045 E8.6808
G1 X97.877 Y125.962 E8.72778
G1 X97.736 Y124.886 E8.77477
G1 X97.415 Y123.851 E8.82176
G1 X96.924 Y122.884 E8.86875
G1 X96.276 Y122.014 E8.91574
G1 X95.773 Y121.537 E8.94577
G1 X100.309 Y116.132 E9.25146
G1 X111.618 Y116.132 E9.74148
G1 X111.618 Y143.368 E10.92156
G1 X71.382 Y143.368 E12.6649
G1 X71.382 Y116.192 E13.84238
;WIPE_START
G1 X71.728 Y116.332 F9000
;WIPE_END
G92 E0
G1 E-1.4 F3600
;WIPE_START
G1 F7200
G1 X72.928 Y116.332 E-1.97
;WIPE_END
G1 E-2 F3600
; acceleration to travel
M204 S1500
G1 X106.802 Y117.696 F9000
; decel to extrusion
M204 S500
G1 X110.941 Y117.863
; end travel
G1 E0 F2400
;TYPE:Solid infill
;WIDTH:0.560137
G1 F1200
G1 X110.111 Y117.033 E0.05047
G1 X109.374 Y117.033 E0.08218
G1 X110.717 Y118.376 E0.16385
G1 X110.717 Y119.112 E0.19556
G1 X108.638 Y117.033 E0.32208
G1 X107.901 Y117.033 E0.35379
G1 X110.717 Y119.849 E0.52516
G1 X110.717 Y120.586 E0.55687
G1 X107.164 Y117.033 E0.77308
G1 X106.427 Y117.033 E0.80479
G1 X110.717 Y121.323 E1.06585
G1 X110.717 Y122.06 E1.09756
G1 X105.69 Y117.033 E1.40346
G1 X104.953 Y117.033 E1.43517
G1 X110.717 Y122.797 E1.78592
G1 X110.717 Y123.534 E1.81763
G1 X104.216 Y117.033 E2.21322
G1 X103.479 Y117.033 E2.24493
G1 X110.717 Y124.271 E2.68537
G1 X110.717 Y125.008 E2.71708
G1 X102.742 Y117.033 E3.20236
G1 X102.005 Y117.033 E3.23407
G1 X110.717 Y125.745 E3.7642
G1 X110.717 Y126.482 E3.79591
G1 X101.268 Y117.033 E4.37088
G1 X100.729 Y117.033 E4.3941
G1 X100.639 Y117.141 E4.40013
G1 X110.717 Y127.219 E5.01341
G1 X110.717 Y127.955 E5.04512
G1 X100.303 Y117.542 E5.67887
G1 X99.966 Y117.942 E5.70138
G1 X110.717 Y128.692 E6.35558
G1 X110.717 Y129.429 E6.38729
G1 X99.63 Y118.343 E7.06196
G1 X99.294 Y118.744 E7.08447
G1 X110.717 Y130.166 E7.7796
G1 X110.717 Y130.903 E7.81131
G1 X98.958 Y119.144 E8.5269
G1 X98.621 Y119.545 E8.5494
G1 X110.717 Y131.64 E9.28545
G1 X110.717 Y132.377 E9.31716
G1 X98.285 Y119.946 E10.07368
G1 X97.949 Y120.346 E10.09618
G1 X110.717 Y133.114 E10.87316
G1 X110.717 Y133.851 E10.90487
G1 X97.613 Y120.747 E11.7023
G1 X97.277 Y121.148 E11.72481
G1 X110.717 Y134.588 E12.5427
G1 X110.717 Y135.325 E12.57441
G1 X97.381 Y121.99 E13.38592
G1 X97.692 Y122.407 E13.40831
G1 X98.254 Y123.51 E13.46159
G1 X98.293 Y123.638 E13.46734
G1 X110.717 Y136.062 E14.22337
G1 X110.717 Y136.798 E14.25508
G1 X98.621 Y124.703 E14.99115
G1 X98.732 Y125.551 E15.02795
G1 X110.717 Y137.535 E15.75726
G1 X110.717 Y138.272 E15.78897
G1 X98.765 Y126.321 E16.5163
G1 X98.736 Y127.029 E16.54682
G1 X110.717 Y139.009 E17.27587
G1 X110.717 Y139.746 E17.30758
G1 X98.625 Y127.655 E18.04339
G1 X98.496 Y128.262 E18.07012
G1 X110.717 Y140.483 E18.81381
G1 X110.717 Y141.22 E18.84552
G1 X98.3 Y128.803 E19.60114
G1 X98.089 Y129.33 E19.62554
G1 X110.717 Y141.957 E20.39397
G1 X110.717 Y142.467 E20.4159
G1 X110.489 Y142.467 E20.42568
G1 X97.834 Y129.812 E21.1958
G1 X97.554 Y130.268 E21.21885
G1 X109.752 Y142.467 E21.96118
G1 X109.015 Y142.467 E21.99289
G1 X97.253 Y130.704 E22.7087
G1 X96.908 Y131.096 E22.73117
G1 X108.279 Y142.467 E23.4231
G1 X107.542 Y142.467 E23.45481
G1 X96.564 Y131.489 E24.12286
G1 X96.55 Y131.505 E24.12379
G1 X96.159 Y131.821 E24.14541
G1 X106.805 Y142.467 E24.79323
G1 X106.068 Y142.467 E24.82494
G1 X95.752 Y132.151 E25.45271
G1 X95.587 Y132.284 E25.46184
G1 X95.306 Y132.442 E25.47571
G1 X105.331 Y142.467 E26.08578
G1 X104.594 Y142.467 E26.11749
G1 X94.833 Y132.706 E26.71146
G1 X94.507 Y132.889 E26.72758
G1 X94.339 Y132.948 E26.73524
G1 X103.857 Y142.467 E27.31447
G1 X103.12 Y142.467 E27.34618
G1 X93.795 Y133.141 E27.91368
G1 X93.339 Y133.302 E27.93446
G1 X93.236 Y133.32 E27.93896
G1 X102.383 Y142.467 E28.49558
G1 X101.646 Y142.467 E28.52729
G1 X92.608 Y133.428 E29.07734
G1 X92.119 Y133.512 E29.09867
G1 X91.955 Y133.512 E29.10575
G1 X100.909 Y142.467 E29.6507
G1 X100.172 Y142.467 E29.68241
G1 X91.218 Y133.512 E30.22736
G1 X90.881 Y133.512 E30.24185
G1 X90.398 Y133.429 E30.26294
G1 X99.436 Y142.467 E30.81294
G1 X98.699 Y142.467 E30.84465
G1 X89.097 Y132.865 E31.42895
G92 E0
G1 E-1.4 F3600
;WIPE_START
G1 F7200
G1 X89.946 Y133.714 E-1.97
;WIPE_END
G1 E-2 F3600
; acceleration to travel
M204 S1500
G1 X85.482 Y121.37 F9000
; decel to extrusion
M204 S500
G1 X84.937 Y119.862
; end travel
G1 E0 F2400
G1 F1200
G1 X82.109 Y117.033 E0.17213
G1 X81.372 Y117.033 E0.20384
G1 X85.921 Y121.583 E0.48072
G1 X85.607 Y122.005 E0.50338
G1 X80.635 Y117.033 E0.80595
G1 X79.898 Y117.033 E0.83766
G1 X85.295 Y122.431 E1.16613
G1 X85.047 Y122.919 E1.18971
G1 X79.161 Y117.033 E1.54791
G1 X78.424 Y117.033 E1.57962
G1 X84.798 Y123.408 E1.96754
G1 X84.746 Y123.51 E1.97249
G1 X84.609 Y123.955 E1.99252
G1 X77.687 Y117.033 E2.41374
G1 X76.95 Y117.033 E2.44545
G1 X84.434 Y124.518 E2.90091
G1 X84.38 Y124.693 E2.90882
G1 X84.321 Y125.142 E2.92828
G1 X76.213 Y117.033 E3.42171
G1 X75.476 Y117.033 E3.45342
G1 X84.236 Y125.793 E3.9865
G1 X84.219 Y125.921 E3.99204
G1 X84.244 Y126.538 E4.01862
G1 X74.739 Y117.033 E4.59702
G1 X74.002 Y117.033 E4.62873
G1 X84.307 Y127.338 E5.25582
G1 X84.507 Y128.275 E5.29703
G1 X73.265 Y117.033 E5.98111
G1 X72.529 Y117.033 E6.01282
G1 X84.968 Y129.472 E6.7698
G1 X84.986 Y129.519 E6.77196
G1 X85.634 Y130.575 E6.82524
G1 X86.45 Y131.505 E6.87852
G1 X87.413 Y132.284 E6.93181
G1 X88.245 Y132.75 E6.97286
G1 X97.962 Y142.467 E7.56415
G1 X97.225 Y142.467 E7.59586
G1 X72.283 Y117.525 E9.11367
G1 X72.283 Y118.262 E9.14538
G1 X96.488 Y142.467 E10.61835
G1 X95.751 Y142.467 E10.65006
G1 X72.283 Y118.999 E12.07818
G1 X72.283 Y119.736 E12.10989
G1 X95.014 Y142.467 E13.49316
G1 X94.277 Y142.467 E13.52487
G1 X72.283 Y120.473 E14.8633
G1 X72.283 Y121.21 E14.89501
G1 X93.54 Y142.467 E16.1886
G1 X92.803 Y142.467 E16.22031
G1 X72.283 Y121.947 E17.46905
G1 X72.283 Y122.684 E17.50076
G1 X92.066 Y142.467 E18.70465
G1 X91.329 Y142.467 E18.73636
G1 X72.283 Y123.421 E19.89541
G1 X72.283 Y124.157 E19.92712
G1 X90.593 Y142.467 E21.04132
G1 X89.856 Y142.467 E21.07303
G1 X72.283 Y124.894 E22.14239
G1 X72.283 Y125.631 E22.1741
G1 X89.119 Y142.467 E23.19861
G1 X88.382 Y142.467 E23.23032
G1 X72.283 Y126.368 E24.20999
G1 X72.283 Y127.105 E24.2417
G1 X87.645 Y142.467 E25.17652
G1 X86.908 Y142.467 E25.20823
G1 X72.283 Y127.842 E26.09821
G1 X72.283 Y128.579 E26.12992
G1 X86.171 Y142.467 E26.97505
G1 X85.434 Y142.467 E27.00676
G1 X72.283 Y129.316 E27.80705
G1 X72.283 Y130.053 E27.83876
G1 X84.697 Y142.467 E28.5942
G1 X83.96 Y142.467 E28.62591
G1 X72.283 Y130.79 E29.33651
G1 X72.283 Y131.527 E29.36822
G1 X83.223 Y142.467 E30.03397
G1 X82.486 Y142.467 E30.06568
G1 X72.283 Y132.264 E30.68658
G1 X72.283 Y133 E30.71829
G1 X81.75 Y142.467 E31.29435
G1 X81.013 Y142.467 E31.32607
G1 X72.283 Y133.737 E31.85728
G1 X72.283 Y134.474 E31.88899
G1 X80.276 Y142.467 E32.37536
G1 X79.539 Y142.467 E32.40707
G1 X72.283 Y135.211 E32.84859
G1 X72.283 Y135.948 E32.8803
G1 X78.802 Y142.467 E33.27698
G1 X78.065 Y142.467 E33.30869
G1 X72.283 Y136.685 E33.66053
G1 X72.283 Y137.422 E33.69224
G1 X77.328 Y142.467 E33.99923
G1 X76.591 Y142.467 E34.03094
G1 X72.283 Y138.159 E34.29308
G1 X72.283 Y138.896 E34.32479
G1 X75.854 Y142.467 E34.54209
G1 X75.117 Y142.467 E34.5738
G1 X72.283 Y139.633 E34.74625
G1 X72.283 Y140.37 E34.77796
G1 X74.38 Y142.467 E34.90557
G1 X73.643 Y142.467 E34.93728
G1 X72.283 Y141.107 E35.02004
G1 X72.283 Y141.843 E35.05175
G1 X73.131 Y142.691 E35.1033
G92 E0
G1 E-1.4 F3600
;WIPE_START
G1 F7200
G1 X72.283 Y141.843 E-1.96906
G1 X72.283 Y141.842 E-1.97
;WIPE_END
G1 E-2 F3600
; stop printing object CarrageFace.STL id:0 copy 0
M486 S-1
; printing object LinearRail.STL id:2 copy 0
M486 S2
; acceleration to travel
M204 S1500
G1 X92.398 Y103.662 F9000
; decel to extrusion
M204 S500
G1 X94.856 Y98.998
; end travel
G1 E0 F2400
;TYPE:Internal perimeter
;WIDTH:0.564
G1 F1200
G1 X91.903 Y92.066 E0.32647
G1 X91.903 Y84.347 E0.66091
G1 X82.903 Y84.347 E1.05086
G1 X82.903 Y82.153 E1.14591
G1 X111.097 Y82.153 E2.36749
G1 X111.097 Y84.347 E2.46255
G1 X102.097 Y84.347 E2.8525
G1 X102.097 Y92.066 E3.18694
G1 X99.144 Y98.998 E3.51341
G1 X100.408 Y99.964 E3.58235
G1 X100.97 Y100.558 E3.61775
G1 X101.429 Y101.234 E3.65315
G1 X101.774 Y101.974 E3.68856
G1 X101.997 Y102.76 E3.72396
G1 X102.091 Y103.572 E3.75936
G1 X102.054 Y104.388 E3.79476
G1 X101.887 Y105.188 E3.83017
G1 X101.594 Y105.951 E3.86557
G1 X101.183 Y106.657 E3.90097
G1 X100.664 Y107.289 E3.93637
G1 X100.051 Y107.829 E3.97178
G1 X99.36 Y108.264 E4.00718
G1 X98.608 Y108.584 E4.04258
G1 X97.814 Y108.778 E4.07798
G1 X97 Y108.844 E4.11339
G1 X96.186 Y108.778 E4.14879
G1 X95.392 Y108.584 E4.18419
G1 X94.64 Y108.264 E4.21959
G1 X93.949 Y107.829 E4.255
G1 X93.336 Y107.289 E4.2904
G1 X92.817 Y106.657 E4.3258
G1 X92.406 Y105.951 E4.3612
G1 X92.113 Y105.188 E4.39661
G1 X91.946 Y104.388 E4.43201
G1 X91.909 Y103.572 E4.46741
G1 X92.003 Y102.76 E4.50281
G1 X92.226 Y101.974 E4.53822
G1 X92.571 Y101.234 E4.57362
G1 X93.03 Y100.558 E4.60902
G1 X93.592 Y99.964 E4.64442
G1 X94.808 Y99.034 E4.71077
G1 X94.218 Y98.83 F9000
;TYPE:External perimeter
G1 F1200
G1 X91.382 Y92.172 E5.02431
G1 X91.382 Y84.868 E5.34078
G1 X82.382 Y84.868 E5.73073
G1 X82.382 Y81.632 E5.87094
G1 X111.618 Y81.632 E7.13767
G1 X111.618 Y84.868 E7.27788
G1 X102.618 Y84.868 E7.66783
G1 X102.618 Y92.172 E7.9843
G1 X99.782 Y98.83 E8.29784
G1 X100.758 Y99.576 E8.35106
G1 X101.377 Y100.23 E8.3901
G1 X101.884 Y100.975 E8.42914
G1 X102.264 Y101.792 E8.46817
G1 X102.51 Y102.659 E8.50721
G1 X102.613 Y103.554 E8.54624
G1 X102.572 Y104.454 E8.58528
G1 X102.388 Y105.336 E8.62431
G1 X102.065 Y106.177 E8.66335
G1 X101.612 Y106.955 E8.70239
G1 X101.04 Y107.652 E8.74142
G1 X100.365 Y108.247 E8.78046
G1 X99.602 Y108.728 E8.81949
G1 X98.773 Y109.08 E8.85853
G1 X97.898 Y109.295 E8.89756
G1 X97 Y109.367 E8.9366
G1 X96.102 Y109.295 E8.97563
G1 X95.227 Y109.08 E9.01467
G1 X94.398 Y108.728 E9.05371
G1 X93.635 Y108.247 E9.09274
G1 X92.96 Y107.652 E9.13178
G1 X92.388 Y106.955 E9.17081
G1 X91.935 Y106.177 E9.20985
G1 X91.612 Y105.336 E9.24888
G1 X91.428 Y104.454 E9.28792
G1 X91.387 Y103.554 E9.32696
G1 X91.49 Y102.659 E9.36599
G1 X91.736 Y101.792 E9.40503
G1 X92.116 Y100.975 E9.44406
G1 X92.623 Y100.23 E9.4831
G1 X93.242 Y99.576 E9.52213
G1 X94.17 Y98.866 E9.57276
;WIPE_START
G1 X94.571 Y98.643 F9000
;WIPE_END
G92 E0
G1 E-1.4 F3600
;WIPE_START
G1 F7200
G1 X94.071 Y97.552 E-1.97
;WIPE_END
G1 E-2 F3600
; acceleration to travel
M204 S1500
G1 X108.165 Y83.969 F9000
; decel to extrusion
M204 S500
G1 X109.887 Y82.309
; end travel
G1 E0 F2400
;TYPE:Solid infill
;WIDTH:0.558351
G1 F1200
G1 X110.717 Y83.139 E0.0503
G1 X110.717 Y83.876 E0.08191
G1 X109.374 Y82.533 E0.16333
G1 X108.638 Y82.533 E0.19494
G1 X110.071 Y83.967 E0.28187
G1 X109.334 Y83.967 E0.31348
G1 X107.901 Y82.533 E0.40042
G1 X107.164 Y82.533 E0.43203
G1 X108.597 Y83.967 E0.51896
G1 X107.86 Y83.967 E0.55057
G1 X106.427 Y82.533 E0.6375
