; generated by SuperSlicer 2.4 on 2024-06-08 at 19:37:56 UTC

; 

; external perimeters extrusion width = 0.42mm
; perimeters extrusion width = 0.46mm
; infill extrusion width = 0.44mm
; solid infill extrusion width = 0.46mm
; top infill extrusion width = 0.44mm
; first layer extrusion width = 0.56mm

; external perimeters extrusion width = 0.42mm
; perimeters extrusion width = 0.46mm
; infill extrusion width = 0.44mm
; solid infill extrusion width = 0.46mm
; top infill extrusion width = 0.44mm
; first layer extrusion width = 0.56mm

; object:{"name":"CarrageFace","id":"CarrageFace.STL id:0 copy 0","object_center":[115.000001,135.000000,0.000000],"boundingbox_center":[115.000001,135.000000,2.500000],"boundingbox_size":[41.000000,28.000000,5.000000]}
; object:{"name":"CarrageTop","id":"CarrageTop.STL id:1 copy 0","object_center":[115.000000,95.500000,0.000000],"boundingbox_center":[115.000000,95.500000,2.500000],"boundingbox_size":[41.000000,39.000000,5.000000]}
; Total objects to print: 2
M486 T2
; plater:{"center":[115.000000,112.500000,0.000000],"boundingbox_center":[115.000000,112.500000,2.500000],"boundingbox_size":[41.000001,73.000000,5.000000]}

;TYPE:Custom
G90 ; use absolute coordinates
M83 ; extruder relative mode
M140 S60 ; set final bed temp
M104 S150 ; set temporary nozzle temp to prevent oozing during homing and auto bed leveling
G4 S10 ; allow partial nozzle warmup
G28 ; home all axis
G1 Z50 F240
G1 X2 Y10 F3000
M104 S205 ; set final nozzle temp
M190 S60 ; wait for bed temp to stabilize
M109 S205 ; wait for nozzle temp to stabilize
G1 Z0.28 F240
G92 E0
G1 Y140 E10 F1500 ; prime the nozzle
G1 X2.3 F5000
G92 E0
G1 Y10 E10 F1200 ; prime the nozzle
G92 E0
M107
G21 ; set units to millimeters
G90 ; use absolute coordinates
M82 ; use absolute distances for extrusion
G92 E0
; Filament gcode
;_TOOLCHANGE 0
M107
;LAYER_CHANGE
;Z:0.2
;HEIGHT:0.2
;BEFORE_LAYER_CHANGE
;0.2


G1 E-2 F3600
G1 Z0.2 F9000
;AFTER_LAYER_CHANGE
;0.2
G92 E0
M204 S500
G1 X91.675 Y74.457
G1 E2 F2400
;TYPE:Skirt
;WIDTH:0.48
G1 F1200
G1 X91.281 Y76 E2.05786
G1 X91.281 Y149 E4.71093
G1 X91.792 Y150.74 E4.77682
G1 X92.957 Y151.825 E4.83468
G1 X94.5 Y152.219 E4.89255
G1 X135.5 Y152.219 E6.38262
G1 X137.24 Y151.708 E6.44852
G1 X138.325 Y150.543 E6.50638
G1 X138.719 Y149 E6.56425
G1 X138.719 Y76 E9.21731
G1 X138.208 Y74.26 E9.2832
G1 X137.043 Y73.175 E9.34107
G1 X135.5 Y72.781 E9.39893
G1 X94.5 Y72.781 E10.88901
G1 X92.76 Y73.292 E10.9549
G1 X91.716 Y74.413 E11.01059
G92 E0
G1 E-1.4 F3600
;WIPE_START
G1 F7200
G1 X91.399 Y75.571 E-1.97
;WIPE_END
G1 E-2 F3600
; printing object CarrageFace.STL id:0 copy 0
M486 S0
; acceleration to travel
M204 S1500
G1 X94.967 Y116.859 F9000
; decel to extrusion
M204 S500
G1 X95.403 Y121.903
; end travel
G1 E0 F2400
;TYPE:Internal perimeter
;WIDTH:0.564
G1 F1200
G1 X105.948 Y121.903 E0.45691
G1 X106.593 Y122.671 E0.50035
G1 X110.013 Y126.747 E0.73086
G1 X109.833 Y126.917 E0.74159
G1 X109.132 Y127.858 E0.79243
G1 X108.6 Y128.904 E0.84327
G1 X108.253 Y130.025 E0.89411
G1 X108.101 Y131.188 E0.94495
G1 X108.147 Y132.361 E0.99579
G1 X108.392 Y133.508 E1.04663
G1 X108.827 Y134.598 E1.09747
G1 X109.441 Y135.598 E1.14831
G1 X110.215 Y136.48 E1.19915
G1 X111.127 Y137.218 E1.24999
G1 X112.151 Y137.791 E1.30082
G1 X113.257 Y138.183 E1.35166
G1 X114.413 Y138.381 E1.4025
G1 X115.587 Y138.381 E1.45334
G1 X116.743 Y138.183 E1.50418
G1 X117.849 Y137.791 E1.55502
G1 X118.873 Y137.218 E1.60586
G1 X119.785 Y136.48 E1.6567
G1 X120.559 Y135.598 E1.70754
G1 X121.173 Y134.598 E1.75838
G1 X121.608 Y133.508 E1.80922
G1 X121.853 Y132.361 E1.86006
G1 X121.899 Y131.188 E1.9109
G1 X121.747 Y130.025 E1.96174
G1 X121.4 Y128.904 E2.01258
G1 X120.868 Y127.858 E2.06341
G1 X120.167 Y126.917 E2.11425
G1 X119.987 Y126.747 E2.12498
G1 X124.052 Y121.903 E2.39894
G1 X134.597 Y121.903 E2.85585
G1 X134.597 Y148.097 E3.99077
G1 X95.403 Y148.097 E5.68896
G1 X95.403 Y121.963 E6.82129
G1 X94.882 Y121.382 F9000
;TYPE:External perimeter
G1 F1200
G1 X106.191 Y121.382 E7.3113
G1 X106.992 Y122.336 E7.36527
G1 X110.727 Y126.787 E7.617
G1 X110.224 Y127.264 E7.64702
G1 X109.576 Y128.134 E7.69401
G1 X109.085 Y129.101 E7.741
G1 X108.764 Y130.136 E7.78799
G1 X108.623 Y131.212 E7.83498
G1 X108.666 Y132.295 E7.88197
G1 X108.892 Y133.356 E7.92896
G1 X109.295 Y134.363 E7.97595
G1 X109.862 Y135.288 E8.02294
G1 X110.577 Y136.103 E8.06993
G1 X111.42 Y136.785 E8.11692
G1 X112.367 Y137.315 E8.16391
G1 X113.389 Y137.677 E8.2109
G1 X114.458 Y137.86 E8.25789
G1 X115.542 Y137.86 E8.30488
G1 X116.611 Y137.677 E8.35187
G1 X117.633 Y137.315 E8.39886
G1 X118.58 Y136.785 E8.44585
G1 X119.423 Y136.103 E8.49284
G1 X120.138 Y135.288 E8.53983
G1 X120.705 Y134.363 E8.58682
G1 X121.108 Y133.356 E8.63381
G1 X121.334 Y132.295 E8.6808
G1 X121.377 Y131.212 E8.72778
G1 X121.236 Y130.136 E8.77477
G1 X120.915 Y129.101 E8.82176
G1 X120.424 Y128.134 E8.86875
G1 X119.776 Y127.264 E8.91574
G1 X119.273 Y126.787 E8.94577
G1 X123.809 Y121.382 E9.25146
G1 X135.118 Y121.382 E9.74148
G1 X135.118 Y148.618 E10.92156
G1 X94.882 Y148.618 E12.6649
G1 X94.882 Y121.442 E13.84238
;WIPE_START
G1 X95.228 Y121.582 F9000
;WIPE_END
G92 E0
G1 E-1.4 F3600
;WIPE_START
G1 F7200
G1 X96.428 Y121.582 E-1.97
;WIPE_END
G1 E-2 F3600
; acceleration to travel
M204 S1500
G1 X130.302 Y122.946 F9000
; decel to extrusion
M204 S500
G1 X134.441 Y123.113
; end travel
G1 E0 F2400
;TYPE:Solid infill
;WIDTH:0.560137
G1 F1200
G1 X133.611 Y122.283 E0.05047
G1 X132.874 Y122.283 E0.08218
G1 X134.217 Y123.626 E0.16385
G1 X134.217 Y124.362 E0.19556
G1 X132.138 Y122.283 E0.32208
G1 X131.401 Y122.283 E0.35379
G1 X134.217 Y125.099 E0.52516
G1 X134.217 Y125.836 E0.55687
G1 X130.664 Y122.283 E0.77308
G1 X129.927 Y122.283 E0.80479
G1 X134.217 Y126.573 E1.06585
G1 X134.217 Y127.31 E1.09756
G1 X129.19 Y122.283 E1.40346
G1 X128.453 Y122.283 E1.43517
G1 X134.217 Y128.047 E1.78592
G1 X134.217 Y128.784 E1.81763
G1 X127.716 Y122.283 E2.21322
G1 X126.979 Y122.283 E2.24493
G1 X134.217 Y129.521 E2.68537
G1 X134.217 Y130.258 E2.71708
G1 X126.242 Y122.283 E3.20236
G1 X125.505 Y122.283 E3.23407
G1 X134.217 Y130.995 E3.7642
G1 X134.217 Y131.732 E3.79591
G1 X124.768 Y122.283 E4.37088
G1 X124.229 Y122.283 E4.3941
G1 X124.139 Y122.391 E4.40013
G1 X134.217 Y132.469 E5.01341
G1 X134.217 Y133.205 E5.04512
G1 X123.803 Y122.792 E5.67887
G1 X123.466 Y123.192 E5.70138
G1 X134.217 Y133.942 E6.35558
G1 X134.217 Y134.679 E6.38729
G1 X123.13 Y123.593 E7.06196
G1 X122.794 Y123.994 E7.08447
G1 X134.217 Y135.416 E7.7796
G1 X134.217 Y136.153 E7.81131
G1 X122.458 Y124.394 E8.5269
G1 X122.121 Y124.795 E8.5494
G1 X134.217 Y136.89 E9.28545
G1 X134.217 Y137.627 E9.31716
G1 X121.785 Y125.196 E10.07368
G1 X121.449 Y125.596 E10.09618
G1 X134.217 Y138.364 E10.87316
G1 X134.217 Y139.101 E10.90487
G1 X121.113 Y125.997 E11.7023
G1 X120.777 Y126.398 E11.72481
G1 X134.217 Y139.838 E12.5427
G1 X134.217 Y140.575 E12.57441
G1 X120.881 Y127.24 E13.38592
G1 X121.192 Y127.657 E13.40831
G1 X121.754 Y128.76 E13.46159
G1 X121.793 Y128.888 E13.46734
G1 X134.217 Y141.312 E14.22337
G1 X134.217 Y142.048 E14.25508
G1 X122.121 Y129.953 E14.99115
G1 X122.232 Y130.801 E15.02795
G1 X134.217 Y142.785 E15.75726
G1 X134.217 Y143.522 E15.78897
G1 X122.265 Y131.571 E16.5163
G1 X122.236 Y132.279 E16.54682
G1 X134.217 Y144.259 E17.27587
G1 X134.217 Y144.996 E17.30758
G1 X122.125 Y132.905 E18.04339
G1 X121.996 Y133.512 E18.07012
G1 X134.217 Y145.733 E18.81381
G1 X134.217 Y146.47 E18.84552
G1 X121.8 Y134.053 E19.60114
G1 X121.589 Y134.58 E19.62554
G1 X134.217 Y147.207 E20.39397
G1 X134.217 Y147.717 E20.4159
G1 X133.989 Y147.717 E20.42568
G1 X121.334 Y135.062 E21.1958
G1 X121.054 Y135.518 E21.21885
G1 X133.252 Y147.717 E21.96118
G1 X132.515 Y147.717 E21.99289
G1 X120.753 Y135.954 E22.7087
G1 X120.408 Y136.346 E22.73117
G1 X131.779 Y147.717 E23.4231
G1 X131.042 Y147.717 E23.45481
G1 X120.064 Y136.739 E24.12286
G1 X120.05 Y136.755 E24.12379
G1 X119.659 Y137.071 E24.14541
G1 X130.305 Y147.717 E24.79323
G1 X129.568 Y147.717 E24.82494
G1 X119.252 Y137.401 E25.45271
G1 X119.087 Y137.534 E25.46184
G1 X118.806 Y137.692 E25.47571
G1 X128.831 Y147.717 E26.08578
G1 X128.094 Y147.717 E26.11749
G1 X118.333 Y137.956 E26.71146
G1 X118.007 Y138.139 E26.72758
G1 X117.839 Y138.198 E26.73524
G1 X127.357 Y147.717 E27.31447
G1 X126.62 Y147.717 E27.34618
G1 X117.295 Y138.391 E27.91368
G1 X116.839 Y138.552 E27.93446
G1 X116.736 Y138.57 E27.93896
G1 X125.883 Y147.717 E28.49558
G1 X125.146 Y147.717 E28.52729
G1 X116.108 Y138.678 E29.07734
G1 X115.619 Y138.762 E29.09867
G1 X115.455 Y138.762 E29.10575
G1 X124.409 Y147.717 E29.6507
G1 X123.672 Y147.717 E29.68241
G1 X114.718 Y138.762 E30.22736
G1 X114.381 Y138.762 E30.24185
G1 X113.898 Y138.679 E30.26294
G1 X122.936 Y147.717 E30.81294
G1 X122.199 Y147.717 E30.84465
G1 X112.597 Y138.115 E31.42895
G92 E0
G1 E-1.4 F3600
;WIPE_START
G1 F7200
G1 X113.446 Y138.964 E-1.97
;WIPE_END
G1 E-2 F3600
; acceleration to travel
M204 S1500
G1 X108.982 Y126.62 F9000
; decel to extrusion
M204 S500
G1 X108.437 Y125.112
; end travel
G1 E0 F2400
G1 F1200
G1 X105.609 Y122.283 E0.17213
G1 X104.872 Y122.283 E0.20384
G1 X109.421 Y126.833 E0.48072
G1 X109.107 Y127.255 E0.50338
G1 X104.135 Y122.283 E0.80595
G1 X103.398 Y122.283 E0.83766
G1 X108.795 Y127.681 E1.16613
G1 X108.547 Y128.169 E1.18971
G1 X102.661 Y122.283 E1.54791
G1 X101.924 Y122.283 E1.57962
G1 X108.298 Y128.658 E1.96754
G1 X108.246 Y128.76 E1.97249
G1 X108.109 Y129.205 E1.99252
G1 X101.187 Y122.283 E2.41374
G1 X100.45 Y122.283 E2.44545
G1 X107.934 Y129.768 E2.90091
G1 X107.88 Y129.943 E2.90882
G1 X107.821 Y130.392 E2.92828
G1 X99.713 Y122.283 E3.42171
G1 X98.976 Y122.283 E3.45342
G1 X107.736 Y131.043 E3.9865
G1 X107.719 Y131.171 E3.99204
G1 X107.744 Y131.788 E4.01862
G1 X98.239 Y122.283 E4.59702
G1 X97.502 Y122.283 E4.62873
G1 X107.807 Y132.588 E5.25582
G1 X108.007 Y133.525 E5.29703
G1 X96.765 Y122.283 E5.98111
G1 X96.029 Y122.283 E6.01282
G1 X108.468 Y134.722 E6.7698
G1 X108.486 Y134.769 E6.77196
G1 X109.134 Y135.825 E6.82524
G1 X109.95 Y136.755 E6.87852
G1 X110.913 Y137.534 E6.93181
G1 X111.745 Y138 E6.97286
G1 X121.462 Y147.717 E7.56415
G1 X120.725 Y147.717 E7.59586
G1 X95.783 Y122.775 E9.11367
G1 X95.783 Y123.512 E9.14538
G1 X119.988 Y147.717 E10.61835
G1 X119.251 Y147.717 E10.65006
G1 X95.783 Y124.249 E12.07818
G1 X95.783 Y124.986 E12.10989
G1 X118.514 Y147.717 E13.49316
G1 X117.777 Y147.717 E13.52487
G1 X95.783 Y125.723 E14.8633
G1 X95.783 Y126.46 E14.89501
G1 X117.04 Y147.717 E16.1886
G1 X116.303 Y147.717 E16.22031
G1 X95.783 Y127.197 E17.46905
G1 X95.783 Y127.934 E17.50076
G1 X115.566 Y147.717 E18.70465
G1 X114.829 Y147.717 E18.73636
G1 X95.783 Y128.671 E19.89541
G1 X95.783 Y129.407 E19.92712
G1 X114.093 Y147.717 E21.04132
G1 X113.356 Y147.717 E21.07303
G1 X95.783 Y130.144 E22.14239
G1 X95.783 Y130.881 E22.1741
G1 X112.619 Y147.717 E23.19861
G1 X111.882 Y147.717 E23.23032
G1 X95.783 Y131.618 E24.20999
G1 X95.783 Y132.355 E24.2417
G1 X111.145 Y147.717 E25.17652
G1 X110.408 Y147.717 E25.20823
G1 X95.783 Y133.092 E26.09821
G1 X95.783 Y133.829 E26.12992
G1 X109.671 Y147.717 E26.97505
G1 X108.934 Y147.717 E27.00676
G1 X95.783 Y134.566 E27.80705
G1 X95.783 Y135.303 E27.83876
G1 X108.197 Y147.717 E28.5942
G1 X107.46 Y147.717 E28.62591
G1 X95.783 Y136.04 E29.33651
G1 X95.783 Y136.777 E29.36822
G1 X106.723 Y147.717 E30.03397
G1 X105.986 Y147.717 E30.06568
G1 X95.783 Y137.514 E30.68658
G1 X95.783 Y138.25 E30.71829
G1 X105.25 Y147.717 E31.29435
G1 X104.513 Y147.717 E31.32607
G1 X95.783 Y138.987 E31.85728
G1 X95.783 Y139.724 E31.88899
G1 X103.776 Y147.717 E32.37536
G1 X103.039 Y147.717 E32.40707
G1 X95.783 Y140.461 E32.84859
G1 X95.783 Y141.198 E32.8803
G1 X102.302 Y147.717 E33.27698
G1 X101.565 Y147.717 E33.30869
G1 X95.783 Y141.935 E33.66053
G1 X95.783 Y142.672 E33.69224
G1 X100.828 Y147.717 E33.99923
G1 X100.091 Y147.717 E34.03094
G1 X95.783 Y143.409 E34.29308
G1 X95.783 Y144.146 E34.32479
G1 X99.354 Y147.717 E34.54209
G1 X98.617 Y147.717 E34.5738
G1 X95.783 Y144.883 E34.74625
G1 X95.783 Y145.62 E34.77796
G1 X97.88 Y147.717 E34.90557
G1 X97.143 Y147.717 E34.93728
G1 X95.783 Y146.357 E35.02004
G1 X95.783 Y147.093 E35.05175
G1 X96.631 Y147.941 E35.1033
G92 E0
G1 E-1.4 F3600
;WIPE_START
G1 F7200
G1 X95.783 Y147.093 E-1.96906
G1 X95.783 Y147.092 E-1.97
;WIPE_END
G1 E-2 F3600
; stop printing object CarrageFace.STL id:0 copy 0
M486 S-1
; printing object CarrageTop.STL id:1 copy 0
M486 S1
; acceleration to travel
M204 S1500
G1 X123.404 Y114.998 F9000
; decel to extrusion
M204 S500
G1 X126.778 Y111.077
; end travel
G1 E0 F2400
;TYPE:Internal perimeter
;WIDTH:0.564
G1 F1200
G1 X126.81 Y111.11 E0.00198
G1 X127.297 Y111.45 E0.0277
G1 X127.835 Y111.701 E0.05343
G1 X128.408 Y111.855 E0.07916
G1 X129 Y111.907 E0.10489
G1 X129.592 Y111.855 E0.13062
G1 X130.165 Y111.701 E0.15634
G1 X130.703 Y111.45 E0.18207
G1 X131.19 Y111.11 E0.2078
G1 X131.61 Y110.69 E0.23353
G1 X131.95 Y110.203 E0.25926
G1 X132.201 Y109.665 E0.28498
G1 X132.355 Y109.092 E0.31071
G1 X132.407 Y108.5 E0.33644
G1 X132.355 Y107.908 E0.36217
G1 X132.201 Y107.335 E0.3879
G1 X131.95 Y106.797 E0.41362
G1 X131.61 Y106.31 E0.43935
G1 X131.19 Y105.89 E0.46508
G1 X130.703 Y105.55 E0.49081
G1 X130.165 Y105.299 E0.51654
G1 X129.592 Y105.145 E0.54226
G1 X129 Y105.093 E0.56799
G1 X128.408 Y105.145 E0.59372
G1 X127.835 Y105.299 E0.61945
G1 X127.297 Y105.55 E0.64518
G1 X126.81 Y105.89 E0.6709
G1 X126.39 Y106.31 E0.69663
G1 X126.05 Y106.797 E0.72236
G1 X125.799 Y107.335 E0.74809
G1 X125.645 Y107.908 E0.77381
G1 X125.593 Y108.5 E0.79954
G1 X125.645 Y109.092 E0.82527
G1 X125.799 Y109.665 E0.851
G1 X126.05 Y110.203 E0.87673
G1 X126.39 Y110.69 E0.90246
G1 X126.736 Y111.035 E0.92361
G1 X127.147 Y110.709 F9000
;TYPE:External perimeter
G1 F1200
G1 X127.558 Y110.997 E0.94539
G1 X128.014 Y111.21 E0.96716
G1 X128.499 Y111.34 E0.98894
G1 X129 Y111.383 E1.01072
G1 X129.501 Y111.34 E1.0325
G1 X129.986 Y111.21 E1.05427
G1 X130.442 Y110.997 E1.07605
G1 X130.853 Y110.709 E1.09783
G1 X131.209 Y110.353 E1.11961
G1 X131.497 Y109.942 E1.14138
G1 X131.71 Y109.486 E1.16316
G1 X131.84 Y109.001 E1.18494
G1 X131.883 Y108.5 E1.20672
G1 X131.84 Y107.999 E1.22849
G1 X131.71 Y107.514 E1.25027
G1 X131.497 Y107.058 E1.27205
G1 X131.209 Y106.647 E1.29383
G1 X130.853 Y106.291 E1.3156
G1 X130.442 Y106.003 E1.33738
G1 X129.986 Y105.79 E1.35916
G1 X129.501 Y105.66 E1.38094
G1 X129 Y105.617 E1.40271
G1 X128.499 Y105.66 E1.42449
G1 X128.014 Y105.79 E1.44627
G1 X127.558 Y106.003 E1.46805
G1 X127.147 Y106.291 E1.48982
G1 X126.791 Y106.647 E1.5116
G1 X126.503 Y107.058 E1.53338
G1 X126.29 Y107.514 E1.55516
G1 X126.16 Y107.999 E1.57693
G1 X126.117 Y108.5 E1.59871
G1 X126.16 Y109.001 E1.62049
G1 X126.29 Y109.486 E1.64227
G1 X126.503 Y109.942 E1.66404
G1 X126.791 Y110.353 E1.68582
G1 X127.104 Y110.666 E1.705
;WIPE_START
G1 X127.089 Y111.105 F9000
;WIPE_END
G92 E0
G1 E-1.4 F3600
;WIPE_START
G1 F7200
G1 X127.458 Y111.171 E-1.57823
G1 X127.945 Y111.398 E-1.8336
G1 X128.223 Y111.473 E-1.97
;WIPE_END
G1 E-2 F3600
; acceleration to travel
M204 S1500
G1 X128.956 Y88.686 F9000
; decel to extrusion
M204 S500
G1 X129.045 Y85.903
; end travel
G1 E0 F2400
;TYPE:Internal perimeter
G1 F1200
G1 X129.592 Y85.855 E0.02375
G1 X130.165 Y85.701 E0.04948
G1 X130.703 Y85.45 E0.07521
G1 X131.19 Y85.11 E0.10094
G1 X131.61 Y84.69 E0.12666
G1 X131.95 Y84.203 E0.15239
G1 X132.201 Y83.665 E0.17812
G1 X132.355 Y83.092 E0.20385
G1 X132.407 Y82.5 E0.22958
G1 X132.355 Y81.908 E0.2553
G1 X132.201 Y81.335 E0.28103
G1 X131.95 Y80.797 E0.30676
G1 X131.61 Y80.31 E0.33249
G1 X131.19 Y79.89 E0.35822
G1 X130.703 Y79.55 E0.38394
G1 X130.165 Y79.299 E0.40967
G1 X129.592 Y79.145 E0.4354
G1 X129 Y79.093 E0.46113
G1 X128.408 Y79.145 E0.48686
G1 X127.835 Y79.299 E0.51258
G1 X127.297 Y79.55 E0.53831
G1 X126.81 Y79.89 E0.56404
G1 X126.39 Y80.31 E0.58977
G1 X126.05 Y80.797 E0.6155
G1 X125.799 Y81.335 E0.64122
G1 X125.645 Y81.908 E0.66695
G1 X125.593 Y82.5 E0.69268
G1 X125.645 Y83.092 E0.71841
G1 X125.799 Y83.665 E0.74414
G1 X126.05 Y84.203 E0.76986
G1 X126.39 Y84.69 E0.79559
G1 X126.81 Y85.11 E0.82132
