; generated by SuperSlicer 2.4 on 2024-06-08 at 19:26:37 UTC

; 

; external perimeters extrusion width = 0.42mm
; perimeters extrusion width = 0.46mm
; infill extrusion width = 0.44mm
; solid infill extrusion width = 0.46mm
; top infill extrusion width = 0.44mm
; first layer extrusion width = 0.56mm

; object:{"name":"LinearRail","id":"LinearRail.STL id:0 copy 0","object_center":[115.000000,112.500000,0.000000],"boundingbox_center":[115.000000,112.500000,5.000000],"boundingbox_size":[30.000000,28.500000,10.000000]}
; Total objects to print: 1
M486 T1
; plater:{"center":[115.000000,112.500000,0.000000],"boundingbox_center":[115.000000,112.500000,5.000000],"boundingbox_size":[30.000000,28.500000,10.000000]}

;TYPE:Custom
G90 ; use absolute coordinates
M83 ; extruder relative mode
M140 S60 ; set final bed temp
M104 S150 ; set temporary nozzle temp to prevent oozing during homing and auto bed leveling
G4 S10 ; allow partial nozzle warmup
G28 ; home all axis
G1 Z50 F240
G1 X2 Y10 F3000
M104 S205 ; set final nozzle temp
M190 S60 ; wait for bed temp to stabilize
M109 S205 ; wait for nozzle temp to stabilize
G1 Z0.28 F240
G92 E0
G1 Y140 E10 F1500 ; prime the nozzle
G1 X2.3 F5000
G92 E0
G1 Y10 E10 F1200 ; prime the nozzle
G92 E0
M107
G21 ; set units to millimeters
G90 ; use absolute coordinates
M82 ; use absolute distances for extrusion
G92 E0
; Filament gcode
;_TOOLCHANGE 0
M107
;LAYER_CHANGE
;Z:0.2
;HEIGHT:0.2
;BEFORE_LAYER_CHANGE
;0.2


G1 E-2 F3600
G1 Z0.2 F9000
;AFTER_LAYER_CHANGE
;0.2
G92 E0
M204 S500
G1 X98.26 Y95.542
G1 E2 F2400
;TYPE:Skirt
;WIDTH:0.48
G1 F1200
G1 X97.175 Y96.707 E2.05786
G1 X96.781 Y98.25 E2.11573
G1 X96.781 Y102.25 E2.2611
G1 X97.07 Y103.582 E2.31063
G1 X106.659 Y124.674 E3.1527
G1 X107.291 Y125.793 E3.1994
G1 X108.197 Y126.961 E3.2531
G1 X109.691 Y128.278 E3.32548
G1 X110.963 Y129.03 E3.37918
G1 X111.848 Y129.406 E3.41416
G1 X113.273 Y129.798 E3.46786
G1 X115.258 Y129.958 E3.54024
G1 X116.727 Y129.798 E3.59394
G1 X118.152 Y129.406 E3.64764
G1 X119.037 Y129.03 E3.68262
G1 X120.309 Y128.278 E3.73632
G1 X121.803 Y126.961 E3.8087
G1 X122.709 Y125.793 E3.8624
G1 X123.341 Y124.674 E3.9091
G1 X132.93 Y103.582 E4.75117
G1 X133.219 Y102.25 E4.8007
G1 X133.219 Y98.25 E4.94607
G1 X132.708 Y96.51 E5.01197
G1 X131.543 Y95.425 E5.06983
G1 X130 Y95.031 E5.1277
G1 X100 Y95.031 E6.218
G1 X98.318 Y95.525 E6.28171
G92 E0
G1 E-1.4 F3600
;WIPE_START
G1 F7200
G1 X97.484 Y96.388 E-1.97
;WIPE_END
G1 E-2 F3600
; printing object LinearRail.STL id:0 copy 0
M486 S0
; acceleration to travel
M204 S1500
G1 X100.531 Y98.852 F9000
; decel to extrusion
M204 S500
G1 X100.903 Y99.153
; end travel
G1 E0 F2400
;TYPE:Internal perimeter
;WIDTH:0.564
G1 F1200
G1 X129.097 Y99.153 E1.22158
G1 X129.097 Y101.347 E1.31664
G1 X120.097 Y101.347 E1.70659
G1 X120.097 Y109.066 E2.04103
G1 X117.144 Y115.998 E2.36749
G1 X118.408 Y116.964 E2.43644
G1 X118.97 Y117.558 E2.47184
G1 X119.429 Y118.234 E2.50724
G1 X119.774 Y118.974 E2.54264
G1 X119.997 Y119.76 E2.57805
G1 X120.091 Y120.572 E2.61345
G1 X120.054 Y121.388 E2.64885
G1 X119.887 Y122.188 E2.68425
G1 X119.594 Y122.951 E2.71966
G1 X119.183 Y123.657 E2.75506
G1 X118.664 Y124.289 E2.79046
G1 X118.051 Y124.829 E2.82586
G1 X117.36 Y125.264 E2.86127
G1 X116.608 Y125.584 E2.89667
G1 X115.814 Y125.778 E2.93207
G1 X115 Y125.844 E2.96747
G1 X114.186 Y125.778 E3.00288
G1 X113.392 Y125.584 E3.03828
G1 X112.64 Y125.264 E3.07368
G1 X111.949 Y124.829 E3.10908
G1 X111.336 Y124.289 E3.14449
G1 X110.817 Y123.657 E3.17989
G1 X110.406 Y122.951 E3.21529
G1 X110.113 Y122.188 E3.25069
G1 X109.946 Y121.388 E3.2861
G1 X109.909 Y120.572 E3.3215
G1 X110.003 Y119.76 E3.3569
G1 X110.226 Y118.974 E3.3923
G1 X110.571 Y118.234 E3.42771
G1 X111.03 Y117.558 E3.46311
G1 X111.592 Y116.964 E3.49851
G1 X112.856 Y115.998 E3.56745
G1 X109.903 Y109.066 E3.89392
G1 X109.903 Y101.347 E4.22836
G1 X100.903 Y101.347 E4.61831
G1 X100.903 Y99.213 E4.71077
G1 X100.382 Y98.632 F9000
;TYPE:External perimeter
G1 F1200
G1 X129.618 Y98.632 E5.9775
G1 X129.618 Y101.868 E6.11771
G1 X120.618 Y101.868 E6.50766
G1 X120.618 Y109.172 E6.82413
G1 X117.782 Y115.83 E7.13767
G1 X118.758 Y116.576 E7.1909
G1 X119.377 Y117.23 E7.22993
G1 X119.884 Y117.975 E7.26897
G1 X120.264 Y118.792 E7.308
G1 X120.51 Y119.659 E7.34704
G1 X120.613 Y120.554 E7.38607
G1 X120.572 Y121.454 E7.42511
G1 X120.388 Y122.336 E7.46414
G1 X120.065 Y123.177 E7.50318
G1 X119.612 Y123.955 E7.54222
G1 X119.04 Y124.652 E7.58125
G1 X118.365 Y125.247 E7.62029
G1 X117.602 Y125.728 E7.65932
G1 X116.773 Y126.08 E7.69836
G1 X115.898 Y126.295 E7.73739
G1 X115 Y126.367 E7.77643
G1 X114.102 Y126.295 E7.81547
G1 X113.227 Y126.08 E7.8545
G1 X112.398 Y125.728 E7.89354
G1 X111.635 Y125.247 E7.93257
G1 X110.96 Y124.652 E7.97161
G1 X110.388 Y123.955 E8.01064
G1 X109.935 Y123.177 E8.04968
G1 X109.612 Y122.336 E8.08871
G1 X109.428 Y121.454 E8.12775
G1 X109.387 Y120.554 E8.16679
G1 X109.49 Y119.659 E8.20582
G1 X109.736 Y118.792 E8.24486
G1 X110.116 Y117.975 E8.28389
G1 X110.623 Y117.23 E8.32293
G1 X111.242 Y116.576 E8.36196
G1 X112.218 Y115.83 E8.41519
G1 X109.382 Y109.172 E8.72873
G1 X109.382 Y101.868 E9.0452
G1 X100.382 Y101.868 E9.43515
G1 X100.382 Y98.692 E9.57276
;WIPE_START
G1 X100.728 Y98.832 F9000
;WIPE_END
G92 E0
G1 E-1.4 F3600
;WIPE_START
G1 F7200
G1 X101.928 Y98.832 E-1.97
;WIPE_END
G1 E-2 F3600
; acceleration to travel
M204 S1500
G1 X125.061 Y99.257 F9000
; decel to extrusion
M204 S500
G1 X127.887 Y99.309
; end travel
G1 E0 F2400
;TYPE:Solid infill
;WIDTH:0.558351
G1 F1200
G1 X128.717 Y100.139 E0.0503
G1 X128.717 Y100.876 E0.08191
G1 X127.374 Y99.533 E0.16333
G1 X126.638 Y99.533 E0.19494
G1 X128.071 Y100.967 E0.28187
G1 X127.334 Y100.967 E0.31348
G1 X125.901 Y99.533 E0.40042
G1 X125.164 Y99.533 E0.43203
G1 X126.597 Y100.967 E0.51896
G1 X125.86 Y100.967 E0.55057
G1 X124.427 Y99.533 E0.6375
G1 X123.69 Y99.533 E0.66911
G1 X125.123 Y100.967 E0.75605
G1 X124.386 Y100.967 E0.78766
G1 X122.953 Y99.533 E0.87459
G1 X122.216 Y99.533 E0.9062
G1 X123.649 Y100.967 E0.99313
G1 X122.912 Y100.967 E1.02474
G1 X121.479 Y99.533 E1.11168
G1 X120.742 Y99.533 E1.14329
G1 X122.175 Y100.967 E1.23022
G1 X121.438 Y100.967 E1.26183
G1 X120.005 Y99.533 E1.34876
G1 X119.268 Y99.533 E1.38037
G1 X120.701 Y100.967 E1.46731
G1 X119.965 Y100.967 E1.49892
G1 X118.531 Y99.533 E1.58585
G1 X117.795 Y99.533 E1.61746
G1 X119.717 Y101.455 E1.73405
G1 X119.717 Y102.192 E1.76566
G1 X117.058 Y99.533 E1.92696
G1 X116.321 Y99.533 E1.95857
G1 X119.717 Y102.929 E2.16457
G1 X119.717 Y103.666 E2.19618
G1 X115.584 Y99.533 E2.44688
G1 X114.847 Y99.533 E2.47849
G1 X119.717 Y104.403 E2.77389
G1 X119.717 Y105.14 E2.8055
G1 X114.11 Y99.533 E3.1456
G1 X113.373 Y99.533 E3.17721
G1 X119.717 Y105.877 E3.56202
G1 X119.717 Y106.614 E3.59363
G1 X112.636 Y99.533 E4.02314
G1 X111.899 Y99.533 E4.05475
G1 X119.717 Y107.351 E4.52896
G1 X119.717 Y108.088 E4.56057
G1 X111.162 Y99.533 E5.07948
G1 X110.425 Y99.533 E5.11109
G1 X119.717 Y108.825 E5.67471
G1 X119.717 Y108.988 E5.68172
G1 X119.545 Y109.39 E5.70047
G1 X109.688 Y99.533 E6.2984
G1 X108.952 Y99.533 E6.33001
G1 X119.325 Y109.907 E6.95928
G1 X119.105 Y110.424 E6.98338
G1 X110.283 Y101.602 E7.5185
G1 X110.283 Y100.967 E7.54577
G1 X109.648 Y100.967 E7.57304
G1 X108.215 Y99.533 E7.65998
G1 X107.478 Y99.533 E7.69159
G1 X108.911 Y100.967 E7.77852
G1 X108.174 Y100.967 E7.81013
G1 X106.741 Y99.533 E7.89707
G1 X106.004 Y99.533 E7.92867
G1 X107.437 Y100.967 E8.01561
G1 X106.7 Y100.967 E8.04722
G1 X105.267 Y99.533 E8.13415
G1 X104.53 Y99.533 E8.16576
G1 X105.963 Y100.967 E8.2527
G1 X105.226 Y100.967 E8.2843
G1 X103.793 Y99.533 E8.37124
G1 X103.056 Y99.533 E8.40285
G1 X104.489 Y100.967 E8.48978
G1 X103.752 Y100.967 E8.52139
G1 X102.319 Y99.533 E8.60833
G1 X101.582 Y99.533 E8.63994
G1 X103.015 Y100.967 E8.72687
G1 X102.279 Y100.967 E8.75848
G1 X101.283 Y99.971 E8.81884
G1 X101.283 Y100.708 E8.85045
G1 X101.766 Y101.191 E8.8797
G92 E0
G1 E-1.4 F3600
;WIPE_START
G1 F7200
G1 X101.283 Y100.708 E-1.72394
G1 X101.283 Y100.19 E-1.97
;WIPE_END
G1 E-2 F3600
; acceleration to travel
M204 S1500
G1 X109.104 Y101.906 F9000
; decel to extrusion
M204 S500
G1 X110.059 Y102.115
; end travel
G1 E0 F2400
G1 F1200
G1 X118.885 Y110.941 E0.53537
G1 X118.665 Y111.457 E0.55946
G1 X110.283 Y103.076 E1.06788
G1 X110.283 Y103.813 E1.09949
G1 X118.445 Y111.974 E1.59456
G1 X118.225 Y112.491 E1.61865
G1 X110.283 Y104.55 E2.10037
G1 X110.283 Y105.287 E2.13198
G1 X118.004 Y113.008 E2.60034
G1 X117.784 Y113.525 E2.62443
G1 X110.283 Y106.024 E3.07944
G1 X110.283 Y106.761 E3.11105
G1 X117.564 Y114.041 E3.55271
G1 X117.344 Y114.558 E3.57681
G1 X110.283 Y107.498 E4.00511
G1 X110.283 Y108.235 E4.03672
G1 X117.124 Y115.075 E4.45167
G1 X116.904 Y115.592 E4.47577
G1 X110.283 Y108.971 E4.87736
G1 X110.283 Y108.988 E4.87808
G1 X110.818 Y110.243 E4.93658
G1 X119.185 Y118.61 E5.44412
G1 X119.417 Y119.107 E5.46767
G1 X119.603 Y119.765 E5.49698
G1 X111.365 Y111.527 E5.99672
G1 X111.911 Y112.81 E6.05657
G1 X119.709 Y120.607 E6.52955
G1 X119.677 Y121.312 E6.55982
G1 X112.458 Y114.094 E6.9977
G1 X113.005 Y115.378 E7.05754
G1 X119.553 Y121.926 E7.45476
G1 X119.521 Y122.08 E7.46154
G1 X119.368 Y122.478 E7.4798
G1 X113.146 Y116.255 E7.85727
G1 X112.728 Y116.574 E7.87982
G1 X119.136 Y122.982 E8.26852
G1 X118.863 Y123.447 E8.29163
G1 X112.31 Y116.894 E8.68915
G1 X111.893 Y117.213 E8.7117
G1 X118.531 Y123.851 E9.1144
G1 X118.39 Y124.023 E9.12395
G1 X118.165 Y124.222 E9.13682
G1 X111.528 Y117.585 E9.53942
G1 X111.328 Y117.797 E9.55193
G1 X111.196 Y117.99 E9.56195
G1 X117.765 Y124.56 E9.96045
G1 X117.313 Y124.844 E9.98337
G1 X110.899 Y118.43 E10.37247
G1 X110.665 Y118.933 E10.39625
G1 X116.815 Y125.083 E10.76932
G1 X116.488 Y125.221 E10.78456
G1 X116.27 Y125.275 E10.79417
G1 X110.477 Y119.482 E11.14557
G1 X110.377 Y119.835 E11.16129
G1 X110.348 Y120.09 E11.1723
G1 X115.667 Y125.409 E11.49497
G1 X115 Y125.462 E11.52367
G1 X114.982 Y125.461 E11.52443
G1 X110.299 Y120.778 E11.80851
G1 X110.325 Y121.34 E11.83267
G1 X110.378 Y121.593 E11.84374
G1 X114.166 Y125.382 E12.07358
G1 X113.512 Y125.221 E12.10247
G1 X113.089 Y125.042 E12.12219
G1 X110.309 Y122.261 E12.29086
M106 S84.15
;LAYER_CHANGE
;Z:0.4
;HEIGHT:0.2
;BEFORE_LAYER_CHANGE
;0.4


G92 E0
G1 E-1.4 F3600
;WIPE_START
G1 F7200
G1 X111.157 Y123.11 E-1.97
;WIPE_END
G1 E-2 F3600
; stop printing object LinearRail.STL id:0 copy 0
M486 S-1
G1 Z0.4 F9000
;AFTER_LAYER_CHANGE
;0.4
M104 S200 ; set temperature
G92 E0
; acceleration to travel
M204 S1500
G1 X107.522 Y125.164
; decel to extrusion
M204 S500
G1 X107.078 Y125.416
; end travel
G1 E2 F2400
;TYPE:Skirt
;WIDTH:0.48
G1 F1200
G1 X107.291 Y125.793 E2.01576
G1 X108.197 Y126.961 E2.06946
G1 X109.691 Y128.278 E2.14184
G1 X110.963 Y129.03 E2.19554
G1 X111.848 Y129.406 E2.23052
G1 X113.273 Y129.798 E2.28422
G1 X115.258 Y129.958 E2.3566
G1 X116.727 Y129.798 E2.4103
G1 X118.152 Y129.406 E2.464
G1 X119.037 Y129.03 E2.49898
G1 X120.309 Y128.278 E2.55268
G1 X121.803 Y126.961 E2.62506
G1 X122.709 Y125.793 E2.67876
G1 X123.341 Y124.674 E2.72546
G1 X132.93 Y103.582 E3.56753
G1 X133.219 Y102.25 E3.61706
G1 X133.219 Y98.25 E3.76244
G1 X132.708 Y96.51 E3.82833
G1 X131.543 Y95.425 E3.8862
G1 X130 Y95.031 E3.94406
G1 X100 Y95.031 E5.03436
G1 X98.26 Y95.542 E5.10026
G1 X97.175 Y96.707 E5.15812
G1 X96.781 Y98.25 E5.21598
G1 X96.781 Y102.25 E5.36135
G1 X97.07 Y103.582 E5.41089
G1 X106.659 Y124.674 E6.25295
G1 X107.048 Y125.363 E6.28171
G92 E0
G1 E-1.4 F3600
;WIPE_START
G1 F7200
G1 X107.291 Y125.793 E-1.63453
G1 X107.724 Y126.351 E-1.97
;WIPE_END
G1 E-2 F3600
; printing object LinearRail.STL id:0 copy 0
M486 S0
; acceleration to travel
M204 S1500
G1 X111.95 Y117.098 F9000
; decel to extrusion
M204 S500
G1 X112.496 Y115.903
; end travel
G1 E0 F2400
;TYPE:Internal perimeter
;WIDTH:0.464
G1 X109.609 Y109.126 E0.25792
G1 X109.609 Y101.641 E0.51998
G1 X100.609 Y101.641 E0.8351
G1 X100.609 Y98.859 E0.9325
G1 X129.391 Y98.859 E1.94024
G1 X129.391 Y101.641 E2.03764
G1 X120.391 Y101.641 E2.35275
G1 X120.391 Y109.126 E2.61482
G1 X117.504 Y115.903 E2.87274
G1 X118.606 Y116.745 E2.92128
G1 X119.2 Y117.373 E2.95155
G1 X119.686 Y118.088 E2.98181
G1 X120.051 Y118.871 E3.01208
G1 X120.286 Y119.703 E3.04234
G1 X120.386 Y120.562 E3.07261
G1 X120.346 Y121.425 E3.10287
G1 X120.17 Y122.271 E3.13314
G1 X119.86 Y123.078 E3.1634
G1 X119.425 Y123.825 E3.19367
G1 X118.877 Y124.493 E3.22393
G1 X118.228 Y125.065 E3.2542
G1 X117.497 Y125.526 E3.28446
G1 X116.701 Y125.863 E3.31473
G1 X115.862 Y126.07 E3.34499
G1 X115 Y126.139 E3.37526
G1 X114.138 Y126.07 E3.40552
G1 X113.299 Y125.863 E3.43579
G1 X112.503 Y125.526 E3.46605
G1 X111.772 Y125.065 E3.49632
G1 X111.123 Y124.493 E3.52658
G1 X110.575 Y123.825 E3.55685
G1 X110.14 Y123.078 E3.58711
G1 X109.83 Y122.271 E3.61738
G1 X109.654 Y121.425 E3.64764
G1 X109.614 Y120.562 E3.67791
G1 X109.714 Y119.703 E3.70817
G1 X109.949 Y118.871 E3.73844
G1 X110.314 Y118.088 E3.7687
G1 X110.8 Y117.373 E3.79897
G1 X111.394 Y116.745 E3.82923
G1 X112.448 Y115.939 E3.87568
G1 X112.007 Y115.774 F9000
;TYPE:External perimeter
;WIDTH:0.42
G1 F1500
G1 X109.21 Y109.207 E4.09948
G1 X109.21 Y102.04 E4.3242
G1 X100.21 Y102.04 E4.60639
G1 X100.21 Y98.46 E4.71864
G1 X129.79 Y98.46 E5.6461
G1 X129.79 Y102.04 E5.75835
G1 X120.79 Y102.04 E6.04054
G1 X120.79 Y109.207 E6.26526
G1 X117.993 Y115.774 E6.48906
G1 X118.874 Y116.448 E6.52382
G1 X119.512 Y117.122 E6.55294
G1 X120.034 Y117.89 E6.58205
G1 X120.426 Y118.732 E6.61117
G1 X120.679 Y119.625 E6.64029
G1 X120.786 Y120.548 E6.6694
G1 X120.744 Y121.475 E6.69852
G1 X120.554 Y122.384 E6.72763
G1 X120.221 Y123.251 E6.75675
G1 X119.754 Y124.054 E6.78587
G1 X119.165 Y124.772 E6.81498
G1 X118.468 Y125.386 E6.8441
G1 X117.682 Y125.88 E6.87321
G1 X116.827 Y126.243 E6.90233
G1 X115.926 Y126.465 E6.93145
G1 X115 Y126.539 E6.96056
G1 X114.074 Y126.465 E6.98968
G1 X113.173 Y126.243 E7.01879
G1 X112.318 Y125.88 E7.04791
G1 X111.532 Y125.386 E7.07703
G1 X110.835 Y124.772 E7.10614
G1 X110.246 Y124.054 E7.13526
G1 X109.779 Y123.251 E7.16437
G1 X109.446 Y122.384 E7.19349
G1 X109.256 Y121.475 E7.22261
G1 X109.214 Y120.548 E7.25172
G1 X109.321 Y119.625 E7.28084
G1 X109.574 Y118.732 E7.30995
G1 X109.966 Y117.89 E7.33907
G1 X110.488 Y117.122 E7.36819
G1 X111.126 Y116.448 E7.3973
G1 X111.959 Y115.811 E7.43018
;WIPE_START
G1 X112.361 Y115.587 F9000
;WIPE_END
G92 E0
G1 E-1.4 F3600
;WIPE_START
G1 F7200
G1 X111.86 Y114.497 E-1.97
;WIPE_END
G1 E-2 F3600
; acceleration to travel
M204 S1500
G1 X110.522 Y110.993 F9000
; decel to extrusion
M204 S500
G1 X110.349 Y110.541
; end travel
G1 E0 F2400
;TYPE:Solid infill
;WIDTH:0.463069
G1 X121.723 Y99.166 E0.56206
G1 X121.128 Y99.166 E0.58287
G1 X110.309 Y109.985 E1.11748
G1 X110.131 Y109.567 E1.13334
G1 X120.532 Y99.166 E1.64731
G1 X119.937 Y99.166 E1.66812
G1 X109.953 Y109.15 E2.16145
G1 X109.916 Y109.063 E2.16474
G1 X109.916 Y108.591 E2.18123
G1 X119.341 Y99.166 E2.64696
G1 X118.746 Y99.166 E2.66777
G1 X109.916 Y107.996 E3.10407
G1 X109.916 Y107.4 E3.12488
G1 X118.15 Y99.166 E3.53176
G1 X117.555 Y99.166 E3.55257
G1 X109.916 Y106.805 E3.93001
G1 X109.916 Y106.209 E3.95082
G1 X116.959 Y99.166 E4.29884
G1 X116.364 Y99.166 E4.31965
G1 X109.916 Y105.614 E4.63825
G1 X109.916 Y105.018 E4.65905
G1 X115.768 Y99.166 E4.94822
G1 X115.173 Y99.166 E4.96903
G1 X109.916 Y104.423 E5.22877
G1 X109.916 Y103.827 E5.24958
G1 X114.577 Y99.166 E5.47989
G1 X113.982 Y99.166 E5.5007
G1 X109.916 Y103.232 E5.70158
G1 X109.916 Y102.636 E5.72239
G1 X113.386 Y99.166 E5.89385
G1 X112.791 Y99.166 E5.91465
G1 X109.916 Y102.041 E6.05668
G1 X109.916 Y101.445 E6.07749
G1 X112.195 Y99.166 E6.1901
G1 X111.6 Y99.166 E6.2109
G1 X109.433 Y101.334 E6.31799
G1 X108.837 Y101.334 E6.3388
G1 X111.004 Y99.166 E6.44589
G1 X110.409 Y99.166 E6.4667
G1 X108.242 Y101.334 E6.57379
G1 X107.646 Y101.334 E6.5946
G1 X109.813 Y99.166 E6.70169
G1 X109.218 Y99.166 E6.7225
G1 X107.051 Y101.334 E6.82958
G1 X106.455 Y101.334 E6.85039
G1 X108.622 Y99.166 E6.95748
G1 X108.027 Y99.166 E6.97829
G1 X105.86 Y101.334 E7.08538
G1 X105.264 Y101.334 E7.10619
G1 X107.431 Y99.166 E7.21328
