; generated by SuperSlicer 2.4 on 2024-06-09 at 00:03:54 UTC

; 

; external perimeters extrusion width = 0.42mm
; perimeters extrusion width = 0.46mm
; infill extrusion width = 0.44mm
; solid infill extrusion width = 0.46mm
; top infill extrusion width = 0.44mm
; first layer extrusion width = 0.56mm

; object:{"name":"RailMount","id":"RailMount.STL id:0 copy 0","object_center":[115.000000,112.500000,0.000000],"boundingbox_center":[115.000000,112.500000,5.000000],"boundingbox_size":[50.000000,34.000000,10.000000]}
; Total objects to print: 1
M486 T1
; plater:{"center":[115.000000,112.500000,0.000000],"boundingbox_center":[115.000000,112.500000,5.000000],"boundingbox_size":[50.000000,34.000000,10.000000]}

;TYPE:Custom
G90 ; use absolute coordinates
M83 ; extruder relative mode
M140 S60 ; set final bed temp
M104 S150 ; set temporary nozzle temp to prevent oozing during homing and auto bed leveling
G4 S10 ; allow partial nozzle warmup
G28 ; home all axis
G1 Z50 F240
G1 X2 Y10 F3000
M104 S205 ; set final nozzle temp
M190 S60 ; wait for bed temp to stabilize
M109 S205 ; wait for nozzle temp to stabilize
G1 Z0.28 F240
G92 E0
G1 Y140 E10 F1500 ; prime the nozzle
G1 X2.3 F5000
G92 E0
G1 Y10 E10 F1200 ; prime the nozzle
G92 E0
M107
G21 ; set units to millimeters
G90 ; use absolute coordinates
M82 ; use absolute distances for extrusion
G92 E0
; Filament gcode
;_TOOLCHANGE 0
M107
;LAYER_CHANGE
;Z:0.2
;HEIGHT:0.2
;BEFORE_LAYER_CHANGE
;0.2


G1 E-2 F3600
G1 Z0.2 F9000
;AFTER_LAYER_CHANGE
;0.2
G92 E0
M204 S500
G1 X88.26 Y92.792
G1 E2 F2400
;TYPE:Skirt
;WIDTH:0.48
G1 F1200
G1 X87.175 Y93.957 E2.05786
G1 X86.781 Y95.5 E2.11573
G1 X86.781 Y129.5 E3.3514
G1 X87.292 Y131.24 E3.4173
G1 X88.457 Y132.325 E3.47516
G1 X90 Y132.719 E3.53302
G1 X140 Y132.719 E5.35019
G1 X141.74 Y132.208 E5.41608
G1 X142.825 Y131.043 E5.47395
G1 X143.219 Y129.5 E5.53181
G1 X143.219 Y95.5 E6.76748
G1 X142.708 Y93.76 E6.83338
G1 X141.543 Y92.675 E6.89124
G1 X140 Y92.281 E6.9491
G1 X90 Y92.281 E8.76627
G1 X88.318 Y92.775 E8.82999
G92 E0
G1 E-1.4 F3600
;WIPE_START
G1 F7200
G1 X87.484 Y93.638 E-1.97
;WIPE_END
G1 E-2 F3600
; printing object RailMount.STL id:0 copy 0
M486 S0
; acceleration to travel
M204 S1500
G1 X97.387 Y97.166 F9000
; decel to extrusion
M204 S500
G1 X98.597 Y97.597
; end travel
G1 E0 F2400
;TYPE:Internal perimeter
;WIDTH:0.564
G1 F1200
G1 X98.597 Y103.403 E0.25157
G1 X107.597 Y103.403 E0.64152
G1 X107.597 Y109.677 E0.91335
G1 X110.18 Y116.019 E1.21003
G1 X109.824 Y116.352 E1.23116
G1 X109.11 Y117.298 E1.2825
G1 X108.568 Y118.351 E1.33384
G1 X108.211 Y119.482 E1.38519
G1 X108.052 Y120.656 E1.43653
G1 X108.095 Y121.84 E1.48788
G1 X108.337 Y123 E1.53922
G1 X108.773 Y124.102 E1.59057
G1 X109.39 Y125.114 E1.64191
G1 X110.17 Y126.006 E1.69325
G1 X111.09 Y126.753 E1.7446
G1 X112.123 Y127.334 E1.79594
G1 X113.24 Y127.73 E1.84729
G1 X114.407 Y127.931 E1.89863
G1 X115.593 Y127.931 E1.94998
G1 X116.76 Y127.73 E2.00132
G1 X117.877 Y127.334 E2.05266
G1 X118.91 Y126.753 E2.10401
G1 X119.83 Y126.006 E2.15535
G1 X120.61 Y125.114 E2.2067
G1 X121.227 Y124.102 E2.25804
G1 X121.663 Y123 E2.30938
G1 X121.905 Y121.84 E2.36073
G1 X121.948 Y120.656 E2.41207
G1 X121.789 Y119.482 E2.46342
G1 X121.432 Y118.351 E2.51476
G1 X120.89 Y117.298 E2.56611
G1 X120.176 Y116.352 E2.61745
G1 X119.82 Y116.019 E2.63857
G1 X122.403 Y109.677 E2.93526
G1 X122.403 Y103.403 E3.20709
G1 X131.403 Y103.403 E3.59704
G1 X131.403 Y97.597 E3.84861
G1 X98.657 Y97.597 E5.26743
G1 X99.118 Y98.118 F9000
;TYPE:External perimeter
G1 F1200
G1 X99.118 Y102.882 E5.47384
G1 X108.118 Y102.882 E5.8638
G1 X108.118 Y109.575 E6.15378
G1 X110.797 Y116.153 E6.46155
G1 X110.213 Y116.702 E6.49625
G1 X109.553 Y117.576 E6.54374
G1 X109.051 Y118.551 E6.59122
G1 X108.722 Y119.596 E6.63871
G1 X108.574 Y120.682 E6.68619
G1 X108.614 Y121.777 E6.73367
G1 X108.838 Y122.85 E6.78116
G1 X109.242 Y123.869 E6.82864
G1 X109.812 Y124.804 E6.87613
G1 X110.533 Y125.63 E6.92361
G1 X111.384 Y126.321 E6.97109
G1 X112.339 Y126.857 E7.01858
G1 X113.372 Y127.224 E7.06606
G1 X114.452 Y127.41 E7.11355
G1 X115.548 Y127.41 E7.16103
G1 X116.628 Y127.224 E7.20851
G1 X117.661 Y126.857 E7.256
G1 X118.616 Y126.321 E7.30348
G1 X119.467 Y125.63 E7.35097
G1 X120.188 Y124.804 E7.39845
G1 X120.758 Y123.869 E7.44594
G1 X121.162 Y122.85 E7.49342
G1 X121.386 Y121.777 E7.5409
G1 X121.426 Y120.682 E7.58839
G1 X121.278 Y119.596 E7.63587
G1 X120.949 Y118.551 E7.68336
G1 X120.447 Y117.576 E7.73084
G1 X119.787 Y116.702 E7.77832
G1 X119.203 Y116.153 E7.81302
G1 X121.882 Y109.575 E8.1208
G1 X121.882 Y102.882 E8.41078
G1 X130.882 Y102.882 E8.80073
G1 X130.882 Y98.118 E9.00715
G1 X99.178 Y98.118 E10.38082
;WIPE_START
G1 X98.718 Y98.118 F9000
;WIPE_END
G92 E0
G1 E-1.4 F3600
;WIPE_START
G1 F7200
G1 X98.766 Y99.317 E-1.97
;WIPE_END
G1 E-2 F3600
; acceleration to travel
M204 S1500
G1 X91.759 Y96.72 F9000
; decel to extrusion
M204 S500
G1 X90.903 Y96.403
; end travel
G1 E0 F2400
;TYPE:Internal perimeter
G1 F1200
G1 X139.097 Y96.403 E2.08814
G1 X139.097 Y128.597 E3.48303
G1 X90.903 Y128.597 E5.57117
G1 X90.903 Y96.463 E6.96347
G1 X90.382 Y95.882 F9000
;TYPE:External perimeter
G1 F1200
G1 X139.618 Y95.882 E9.09676
G1 X139.618 Y129.118 E10.53681
G1 X90.382 Y129.118 E12.6701
G1 X90.382 Y95.942 E14.10755
;WIPE_START
G1 X90.728 Y96.082 F9000
;WIPE_END
G92 E0
G1 E-1.4 F3600
;WIPE_START
G1 F7200
G1 X91.928 Y96.082 E-1.97
;WIPE_END
G1 E-2 F3600
; acceleration to travel
M204 S1500
G1 X132.884 Y96.507 F9000
; decel to extrusion
M204 S500
G1 X137.887 Y96.559
; end travel
G1 E0 F2400
;TYPE:Solid infill
;WIDTH:0.579262
G1 F1200
G1 X138.717 Y97.389 E0.05219
G1 X138.717 Y98.126 E0.08498
G1 X137.374 Y96.783 E0.16945
G1 X136.638 Y96.783 E0.20224
G1 X138.717 Y98.862 E0.33308
G1 X138.717 Y99.599 E0.36587
G1 X135.901 Y96.783 E0.54309
G1 X135.164 Y96.783 E0.57588
G1 X138.717 Y100.336 E0.79948
G1 X138.717 Y101.073 E0.83227
G1 X134.427 Y96.783 E1.10224
G1 X133.69 Y96.783 E1.13503
G1 X138.717 Y101.81 E1.45138
G1 X138.717 Y102.547 E1.48417
G1 X132.953 Y96.783 E1.8469
G1 X132.216 Y96.783 E1.87969
G1 X138.717 Y103.284 E2.28879
G1 X138.717 Y104.021 E2.32158
G1 X131.783 Y97.088 E2.75791
G1 X131.783 Y97.825 E2.7907
G1 X138.717 Y104.758 E3.22702
G1 X138.717 Y105.495 E3.25981
G1 X131.783 Y98.562 E3.69614
G1 X131.783 Y99.299 E3.72893
G1 X138.717 Y106.232 E4.16525
G1 X138.717 Y106.969 E4.19805
G1 X131.783 Y100.035 E4.63437
G1 X131.783 Y100.772 E4.66716
G1 X138.717 Y107.705 E5.10348
G1 X138.717 Y108.442 E5.13628
G1 X131.783 Y101.509 E5.5726
G1 X131.783 Y102.246 E5.60539
G1 X138.717 Y109.179 E6.04171
G1 X138.717 Y109.916 E6.07451
G1 X131.783 Y102.983 E6.51083
G1 X131.783 Y103.72 E6.54362
G1 X138.717 Y110.653 E6.97994
G1 X138.717 Y111.39 E7.01274
G1 X131.11 Y103.783 E7.49145
G1 X130.373 Y103.783 E7.52424
G1 X138.717 Y112.127 E8.04933
G1 X138.717 Y112.864 E8.08212
G1 X129.636 Y103.783 E8.65358
G1 X128.899 Y103.783 E8.68637
G1 X138.717 Y113.601 E9.30421
G1 X138.717 Y114.338 E9.33701
G1 X128.162 Y103.783 E10.00122
G1 X127.425 Y103.783 E10.03401
G1 X138.717 Y115.075 E10.74461
G1 X138.717 Y115.812 E10.7774
G1 X126.688 Y103.783 E11.53437
G1 X125.952 Y103.783 E11.56716
G1 X138.717 Y116.548 E12.37051
G1 X138.717 Y117.285 E12.4033
G1 X125.215 Y103.783 E13.25302
G1 X124.478 Y103.783 E13.28581
G1 X138.717 Y118.022 E14.18191
G1 X138.717 Y118.759 E14.2147
G1 X123.741 Y103.783 E15.15718
G1 X123.004 Y103.783 E15.18997
G1 X138.717 Y119.496 E16.17882
G1 X138.717 Y120.233 E16.21162
G1 X122.783 Y104.3 E17.21434
G1 X122.783 Y105.037 E17.24713
G1 X138.717 Y120.97 E18.24985
G1 X138.717 Y121.707 E18.28264
G1 X122.783 Y105.774 E19.28536
G1 X122.783 Y106.511 E19.31816
G1 X138.717 Y122.444 E20.32088
G1 X138.717 Y123.181 E20.35367
G1 X122.783 Y107.248 E21.35639
G1 X122.783 Y107.985 E21.38918
G1 X138.717 Y123.918 E22.3919
G1 X138.717 Y124.655 E22.4247
G1 X122.783 Y108.721 E23.42742
G1 X122.783 Y109.458 E23.46021
G1 X138.717 Y125.392 E24.46293
G1 X138.717 Y126.128 E24.49572
G1 X122.655 Y110.067 E25.50653
G1 X122.442 Y110.59 E25.53169
G1 X138.717 Y126.865 E26.55592
G1 X138.717 Y127.602 E26.58871
G1 X122.228 Y111.114 E27.62636
G1 X122.015 Y111.638 E27.65152
G1 X138.594 Y128.217 E28.69488
G1 X137.857 Y128.217 E28.72767
G1 X121.802 Y112.161 E29.73807
G1 X121.589 Y112.685 E29.76323
G1 X137.12 Y128.217 E30.74068
G1 X136.383 Y128.217 E30.77347
G1 X121.375 Y113.209 E31.71796
G1 X121.162 Y113.732 E31.74312
G1 X135.646 Y128.217 E32.65465
G1 X134.909 Y128.217 E32.68745
G1 X120.949 Y114.256 E33.56603
G1 X120.736 Y114.78 E33.59119
G1 X134.172 Y128.217 E34.43681
G1 X133.436 Y128.217 E34.46961
G1 X120.522 Y115.303 E35.28227
G1 X120.309 Y115.827 E35.30744
G1 X132.699 Y128.217 E36.08715
G1 X131.962 Y128.217 E36.11994
G1 X121.609 Y117.864 E36.77146
G1 X121.785 Y118.206 E36.78859
G1 X122.048 Y119.04 E36.8275
G1 X131.225 Y128.217 E37.405
G1 X130.488 Y128.217 E37.4378
G1 X122.238 Y119.967 E37.95697
G1 X122.329 Y120.637 E37.98706
G1 X122.324 Y120.789 E37.99384
G1 X129.751 Y128.217 E38.46126
G1 X129.014 Y128.217 E38.49405
G1 X122.298 Y121.501 E38.9167
G1 X122.284 Y121.886 E38.93386
G1 X122.226 Y122.165 E38.94656
G1 X128.277 Y128.217 E39.32737
G1 X127.54 Y128.217 E39.36016
G1 X122.098 Y122.775 E39.70263
G1 X122.028 Y123.11 E39.71786
G1 X121.934 Y123.347 E39.72924
G1 X126.803 Y128.217 E40.03566
G1 X126.066 Y128.217 E40.06846
G1 X121.725 Y123.875 E40.34166
G1 X121.568 Y124.272 E40.36064
G1 X121.499 Y124.386 E40.36658
G1 X125.329 Y128.217 E40.60765
G1 X124.593 Y128.217 E40.64044
G1 X121.22 Y124.844 E40.8527
G1 X120.941 Y125.302 E40.87656
G1 X123.856 Y128.217 E41.06001
G1 X123.119 Y128.217 E41.0928
G1 X120.602 Y125.7 E41.25116
G1 X120.259 Y126.094 E41.2744
G1 X122.382 Y128.217 E41.40801
G1 X121.645 Y128.217 E41.4408
G1 X119.882 Y126.454 E41.55174
G1 X119.476 Y126.784 E41.57505
G1 X120.908 Y128.217 E41.66519
G1 X120.171 Y128.217 E41.69798
G1 X119.06 Y127.106 E41.76791
G1 X118.588 Y127.371 E41.79199
G1 X119.434 Y128.217 E41.84523
G1 X118.697 Y128.217 E41.87803
G1 X118.116 Y127.636 E41.91459
G1 X118.035 Y127.681 E41.91874
G1 X117.77 Y127.775 E41.93126
G1 X117.822 Y128.078 E41.94494
G1 X118.184 Y128.441 E41.96775
G92 E0
G1 E-1.4 F3600
;WIPE_START
G1 F7200
G1 X117.822 Y128.078 E-1.64348
G1 X117.77 Y127.775 E-1.78947
G1 X118.035 Y127.681 E-1.92316
G1 X118.116 Y127.636 E-1.9674
G1 X118.12 Y127.639 E-1.97
;WIPE_END
G1 E-2 F3600
; acceleration to travel
M204 S1500
G1 X108.603 Y107.12 F9000
; decel to extrusion
M204 S500
G1 X107.441 Y104.613
; end travel
G1 E0 F2400
G1 F1200
G1 X106.611 Y103.783 E0.05219
G1 X105.874 Y103.783 E0.08498
G1 X107.217 Y105.126 E0.16945
G1 X107.217 Y105.862 E0.20224
G1 X105.138 Y103.783 E0.33308
G1 X104.401 Y103.783 E0.36587
G1 X107.217 Y106.599 E0.54309
G1 X107.217 Y107.336 E0.57588
G1 X103.664 Y103.783 E0.79948
G1 X102.927 Y103.783 E0.83227
G1 X107.217 Y108.073 E1.10224
G1 X107.217 Y108.81 E1.13503
G1 X102.19 Y103.783 E1.45138
G1 X101.453 Y103.783 E1.48417
G1 X107.217 Y109.547 E1.8469
G1 X107.217 Y109.751 E1.85599
G1 X107.583 Y110.65 E1.89917
G1 X100.716 Y103.783 E2.3313
G1 X99.979 Y103.783 E2.36409
G1 X108.089 Y111.893 E2.87447
G1 X108.595 Y113.136 E2.9342
G1 X99.018 Y103.559 E3.53692
G92 E0
G1 E-1.4 F3600
;WIPE_START
G1 F7200
G1 X99.867 Y104.408 E-1.97
;WIPE_END
G1 E-2 F3600
; acceleration to travel
M204 S1500
G1 X98.596 Y97.884 F9000
; decel to extrusion
M204 S500
G1 X98.441 Y97.087
; end travel
G1 E0 F2400
G1 F1200
G1 X98.138 Y96.783 E0.01908
G1 X97.401 Y96.783 E0.05187
G1 X98.217 Y97.599 E0.10322
G1 X98.217 Y98.336 E0.13601
G1 X96.664 Y96.783 E0.23374
G1 X95.927 Y96.783 E0.26653
G1 X98.217 Y99.073 E0.41064
G1 X98.217 Y99.81 E0.44343
G1 X95.19 Y96.783 E0.63391
G1 X94.453 Y96.783 E0.6667
G1 X98.217 Y100.547 E0.90356
G1 X98.217 Y101.284 E0.93635
G1 X93.716 Y96.783 E1.21959
G1 X92.979 Y96.783 E1.25238
G1 X98.217 Y102.021 E1.58199
G1 X98.217 Y102.758 E1.61478
G1 X92.242 Y96.783 E1.99077
G1 X91.505 Y96.783 E2.02356
G1 X109.102 Y114.38 E3.13095
G1 X109.608 Y115.623 E3.19069
G1 X91.283 Y97.299 E4.3439
G1 X91.283 Y98.035 E4.3767
G1 X109.456 Y116.208 E5.52037
G1 X109.139 Y116.628 E5.54378
G1 X91.283 Y98.772 E6.66751
G1 X91.283 Y99.509 E6.7003
G1 X108.822 Y117.048 E7.80409
G1 X108.787 Y117.095 E7.80669
G1 X108.564 Y117.527 E7.82833
G1 X91.283 Y100.246 E8.91588
G1 X91.283 Y100.983 E8.94867
G1 X108.314 Y118.014 E10.02044
G1 X108.215 Y118.206 E10.03009
G1 X108.108 Y118.545 E10.04588
G1 X91.283 Y101.72 E11.10469
G1 X91.283 Y102.457 E11.13748
G1 X107.931 Y119.105 E12.18519
G1 X107.839 Y119.398 E12.19888
G1 X107.797 Y119.707 E12.21276
G1 X91.283 Y103.194 E13.252
G1 X91.283 Y103.931 E13.2848
G1 X107.709 Y120.356 E14.3185
G1 X107.671 Y120.637 E14.33111
G1 X107.686 Y121.071 E14.35042
G1 X91.283 Y104.668 E15.38271
G1 X91.283 Y105.405 E15.4155
G1 X107.714 Y121.835 E16.44951
G1 X107.716 Y121.886 E16.4518
G1 X107.898 Y122.756 E16.49133
G1 X91.283 Y106.142 E17.53691
G1 X91.283 Y106.878 E17.5697
G1 X108.721 Y124.316 E18.6671
G92 E0
G1 E-1.4 F3600
;WIPE_START
G1 F7200
G1 X107.872 Y123.467 E-1.97
;WIPE_END
G1 E-2 F3600
; acceleration to travel
M204 S1500
G1 X111.243 Y126.838 F9000
; decel to extrusion
M204 S500
G1 X111.655 Y127.25
; end travel
G1 E0 F2400
G1 F1200
G1 X112.223 Y127.818 E0.03574
G1 X112.154 Y128.217 E0.05374
G1 X111.885 Y128.217 E0.06574
G1 X91.283 Y107.615 E1.36224
G1 X91.283 Y108.352 E1.39503
G1 X111.148 Y128.217 E2.64515
G1 X110.411 Y128.217 E2.67794
G1 X91.283 Y109.089 E3.88169
G1 X91.283 Y109.826 E3.91448
G1 X109.674 Y128.217 E5.07185
G1 X108.937 Y128.217 E5.10464
G1 X91.283 Y110.563 E6.21563
G1 X91.283 Y111.3 E6.24842
G1 X108.2 Y128.217 E7.31304
G1 X107.463 Y128.217 E7.34583
G1 X91.283 Y112.037 E8.36407
G1 X91.283 Y112.774 E8.39686
G1 X106.726 Y128.217 E9.36872
G1 X105.989 Y128.217 E9.40151
G1 X91.283 Y113.511 E10.327
G1 X91.283 Y114.248 E10.35979
G1 X105.252 Y128.217 E11.2389
G1 X104.515 Y128.217 E11.27169
G1 X91.283 Y114.985 E12.10442
G1 X91.283 Y115.721 E12.13721
G1 X103.779 Y128.217 E12.92357
G1 X103.042 Y128.217 E12.95636
G1 X91.283 Y116.458 E13.69634
G1 X91.283 Y117.195 E13.72913
G1 X102.305 Y128.217 E14.42273
G1 X101.568 Y128.217 E14.45553
G1 X91.283 Y117.932 E15.10275
G1 X91.283 Y118.669 E15.13555
G1 X100.831 Y128.217 E15.73639
G1 X100.094 Y128.217 E15.76919
G1 X91.283 Y119.406 E16.32366
G1 X91.283 Y120.143 E16.35645
G1 X99.357 Y128.217 E16.86455
G1 X98.62 Y128.217 E16.89734
G1 X91.283 Y120.88 E17.35906
G1 X91.283 Y121.617 E17.39185
G1 X97.883 Y128.217 E17.8072
G1 X97.146 Y128.217 E17.83999
G1 X91.283 Y122.354 E18.20896
G1 X91.283 Y123.091 E18.24175
G1 X96.409 Y128.217 E18.56434
G1 X95.672 Y128.217 E18.59713
G1 X91.283 Y123.828 E18.87334
G1 X91.283 Y124.564 E18.90614
G1 X94.936 Y128.217 E19.13597
G1 X94.199 Y128.217 E19.16877
G1 X91.283 Y125.301 E19.35223
G1 X91.283 Y126.038 E19.38502
G1 X93.462 Y128.217 E19.5221
G1 X92.725 Y128.217 E19.5549
G1 X91.283 Y126.775 E19.6456
G1 X91.283 Y127.512 E19.6784
G1 X92.212 Y128.441 E19.73683
G92 E0
G1 E-1.4 F3600
;WIPE_START
G1 F7200
G1 X91.363 Y127.592 E-1.97
;WIPE_END
G1 E-2 F3600
; acceleration to travel
M204 S1500
G1 X110.144 Y127.99 F9000
; decel to extrusion
M204 S500
G1 X112.439 Y128.038
; end travel
G1 E0 F2400
;TYPE:Gap fill
;WIDTH:0.647745
G1 F1200
G1 X112.564 Y128.06 E0.00641
;WIDTH:0.552479
G1 X112.69 Y128.082 E0.0118
G1 X112.796 Y128.1 E0.01635
;WIDTH:0.503936
G1 X112.901 Y128.118 E0.02046
;WIDTH:0.455393
G1 X113.007 Y128.136 E0.02414
;WIDTH:0.40685
G1 X113.113 Y128.154 E0.02738
G1 X113.143 Y128.158 E0.02832
G1 X113.389 Y128.179 E0.03579
;WIDTH:0.346393
G1 X113.635 Y128.2 E0.04202
;WIDTH:0.293838
G1 X113.881 Y128.221 E0.04716
;WIDTH:0.241283
G1 X114.127 Y128.242 E0.05124
;WIDTH:0.188728
G1 X114.385 Y128.264 E0.05438
G1 X115.615 Y128.264 E0.06929
G1 X115.873 Y128.242 E0.07243
;WIDTH:0.241283
G1 X116.119 Y128.221 E0.0765
;WIDTH:0.293838
G1 X116.365 Y128.2 E0.08165
;WIDTH:0.346393
G1 X116.611 Y128.179 E0.08788
;WIDTH:0.398948
G1 X116.857 Y128.158 E0.09518
G1 X116.887 Y128.154 E0.0961
G1 X116.993 Y128.136 E0.09927
;WIDTH:0.455394
G1 X117.099 Y128.118 E0.10295
;WIDTH:0.503937
G1 X117.204 Y128.1 E0.10706
;WIDTH:0.55248
G1 X117.31 Y128.082 E0.11161
