; generated by SuperSlicer 2.4 on 2024-06-08 at 22:41:17 UTC

; 

; external perimeters extrusion width = 0.42mm
; perimeters extrusion width = 0.46mm
; infill extrusion width = 0.44mm
; solid infill extrusion width = 0.46mm
; top infill extrusion width = 0.44mm
; first layer extrusion width = 0.56mm

; object:{"name":"RailMount","id":"RailMount.STL id:0 copy 0","object_center":[115.000000,112.500000,0.000000],"boundingbox_center":[115.000000,112.500000,5.000000],"boundingbox_size":[50.000000,34.000000,10.000000]}
; Total objects to print: 1
M486 T1
; plater:{"center":[115.000000,112.500000,0.000000],"boundingbox_center":[115.000000,112.500000,5.000000],"boundingbox_size":[50.000000,34.000000,10.000000]}

;TYPE:Custom
G90 ; use absolute coordinates
M83 ; extruder relative mode
M140 S60 ; set final bed temp
M104 S150 ; set temporary nozzle temp to prevent oozing during homing and auto bed leveling
G4 S10 ; allow partial nozzle warmup
G28 ; home all axis
G1 Z50 F240
G1 X2 Y10 F3000
M104 S205 ; set final nozzle temp
M190 S60 ; wait for bed temp to stabilize
M109 S205 ; wait for nozzle temp to stabilize
G1 Z0.28 F240
G92 E0
G1 Y140 E10 F1500 ; prime the nozzle
G1 X2.3 F5000
G92 E0
G1 Y10 E10 F1200 ; prime the nozzle
G92 E0
M107
G21 ; set units to millimeters
G90 ; use absolute coordinates
M82 ; use absolute distances for extrusion
G92 E0
; Filament gcode
;_TOOLCHANGE 0
M107
;LAYER_CHANGE
;Z:0.2
;HEIGHT:0.2
;BEFORE_LAYER_CHANGE
;0.2


G1 E-2 F3600
G1 Z0.2 F9000
;AFTER_LAYER_CHANGE
;0.2
G92 E0
M204 S500
G1 X88.26 Y92.792
G1 E2 F2400
;TYPE:Skirt
;WIDTH:0.48
G1 F1200
G1 X87.175 Y93.957 E2.05786
G1 X86.781 Y95.5 E2.11573
G1 X86.781 Y129.5 E3.3514
G1 X87.292 Y131.24 E3.4173
G1 X88.457 Y132.325 E3.47516
G1 X90 Y132.719 E3.53302
G1 X140 Y132.719 E5.35019
G1 X141.74 Y132.208 E5.41608
G1 X142.825 Y131.043 E5.47395
G1 X143.219 Y129.5 E5.53181
G1 X143.219 Y95.5 E6.76748
G1 X142.708 Y93.76 E6.83338
G1 X141.543 Y92.675 E6.89124
G1 X140 Y92.281 E6.9491
G1 X90 Y92.281 E8.76627
G1 X88.318 Y92.775 E8.82999
G92 E0
G1 E-1.4 F3600
;WIPE_START
G1 F7200
G1 X87.484 Y93.638 E-1.97
;WIPE_END
G1 E-2 F3600
; printing object RailMount.STL id:0 copy 0
M486 S0
; acceleration to travel
M204 S1500
G1 X97.833 Y96.102 F9000
; decel to extrusion
M204 S500
G1 X99.097 Y96.403
; end travel
G1 E0 F2400
;TYPE:Internal perimeter
;WIDTH:0.564
G1 F1200
G1 X99.097 Y102.403 E0.25997
G1 X108.097 Y102.403 E0.64992
G1 X108.097 Y108.684 E0.92207
G1 X110.646 Y114.669 E1.2039
G1 X110.324 Y114.917 E1.2215
G1 X109.526 Y115.788 E1.2727
G1 X108.889 Y116.783 E1.32389
G1 X108.43 Y117.872 E1.37508
G1 X108.163 Y119.023 E1.42627
G1 X108.097 Y120.202 E1.47746
G1 X108.232 Y121.376 E1.52865
G1 X108.566 Y122.509 E1.57984
G1 X109.087 Y123.569 E1.63103
G1 X109.782 Y124.525 E1.68222
G1 X110.63 Y125.348 E1.73341
G1 X111.605 Y126.015 E1.7846
G1 X112.68 Y126.505 E1.83579
G1 X113.823 Y126.805 E1.88698
G1 X115 Y126.906 E1.93817
G1 X116.177 Y126.805 E1.98937
G1 X117.32 Y126.505 E2.04056
G1 X118.395 Y126.015 E2.09175
G1 X119.37 Y125.348 E2.14294
G1 X120.218 Y124.525 E2.19413
G1 X120.913 Y123.569 E2.24532
G1 X121.434 Y122.509 E2.29651
G1 X121.768 Y121.376 E2.3477
G1 X121.903 Y120.202 E2.39889
G1 X121.837 Y119.023 E2.45008
G1 X121.57 Y117.872 E2.50127
G1 X121.111 Y116.783 E2.55246
G1 X120.474 Y115.788 E2.60365
G1 X119.676 Y114.917 E2.65484
G1 X119.354 Y114.669 E2.67245
G1 X121.903 Y108.684 E2.95428
G1 X121.903 Y102.403 E3.22643
G1 X130.903 Y102.403 E3.61638
G1 X130.903 Y96.403 E3.87635
G1 X139.097 Y96.403 E4.23137
G1 X139.097 Y128.597 E5.62626
G1 X90.903 Y128.597 E7.71441
G1 X90.903 Y96.403 E9.1093
G1 X99.037 Y96.403 E9.46172
G1 X99.618 Y97.118 F9000
;TYPE:External perimeter
G1 F1200
G1 X99.618 Y101.882 E9.66814
G1 X108.618 Y101.882 E10.05809
G1 X108.618 Y108.578 E10.34821
G1 X111.283 Y114.835 E10.64287
G1 X110.678 Y115.302 E10.67597
G1 X109.941 Y116.107 E10.72329
G1 X109.351 Y117.027 E10.7706
G1 X108.927 Y118.033 E10.81792
G1 X108.681 Y119.097 E10.86523
G1 X108.619 Y120.187 E10.91255
G1 X108.745 Y121.272 E10.95986
G1 X109.053 Y122.319 E11.00717
G1 X109.535 Y123.299 E11.05449
G1 X110.177 Y124.182 E11.1018
G1 X110.961 Y124.943 E11.14912
G1 X111.862 Y125.559 E11.19643
G1 X112.856 Y126.013 E11.24374
G1 X113.912 Y126.29 E11.29106
G1 X115 Y126.383 E11.33837
G1 X116.088 Y126.29 E11.38569
G1 X117.144 Y126.013 E11.433
G1 X118.138 Y125.559 E11.48032
G1 X119.039 Y124.943 E11.52763
G1 X119.823 Y124.182 E11.57494
G1 X120.465 Y123.299 E11.62226
G1 X120.947 Y122.319 E11.66957
G1 X121.255 Y121.272 E11.71689
G1 X121.381 Y120.187 E11.7642
G1 X121.319 Y119.097 E11.81152
G1 X121.073 Y118.033 E11.85883
G1 X120.649 Y117.027 E11.90614
G1 X120.059 Y116.107 E11.95346
G1 X119.322 Y115.302 E12.00077
G1 X118.717 Y114.835 E12.03388
G1 X121.382 Y108.578 E12.32854
G1 X121.382 Y101.882 E12.61866
G1 X130.382 Y101.882 E13.00861
G1 X130.382 Y97.118 E13.21503
G1 X99.678 Y97.118 E14.54537
;WIPE_START
G1 X99.218 Y97.118 F9000
;WIPE_END
G92 E0
G1 E-1.4 F3600
;WIPE_START
G1 F7200
G1 X99.266 Y98.317 E-1.97
;WIPE_END
G1 E-2 F3600
; acceleration to travel
M204 S1500
G1 X91.349 Y96.147 F9000
; decel to extrusion
M204 S500
G1 X90.382 Y95.882
; end travel
G1 E0 F2400
G1 F1200
G1 X139.618 Y95.882 E2.13329
G1 X139.618 Y129.118 E3.57334
G1 X90.382 Y129.118 E5.70664
G1 X90.382 Y95.942 E7.14409
;WIPE_START
G1 X90.728 Y96.082 F9000
;WIPE_END
G92 E0
G1 E-1.4 F3600
;WIPE_START
G1 F7200
G1 X91.928 Y96.082 E-1.97
;WIPE_END
G1 E-2 F3600
; acceleration to travel
M204 S1500
G1 X98.531 Y96.454 F9000
; decel to extrusion
M204 S500
G1 X99.337 Y96.5
; end travel
G1 E0 F2400
;TYPE:Gap fill
;WIDTH:0.798447
G1 F1200
G1 X99.526 Y96.5 E0.01187
G1 X99.715 Y96.5 E0.02373
G1 X130.285 Y96.5 E1.94422
G1 X130.474 Y96.5 E1.95609
G1 X130.663 Y96.5 E1.96795
G92 E0
G1 E-1.4 F3600
;WIPE_START
G1 F7200
G1 X130.474 Y96.5 E-1.48972
G1 X130.285 Y96.5 E-1.57944
G1 X129.463 Y96.5 E-1.97
;WIPE_END
G1 E-2 F3600
; acceleration to travel
M204 S1500
G1 X136.97 Y96.553 F9000
; decel to extrusion
M204 S500
G1 X137.887 Y96.559
; end travel
G1 E0 F2400
;TYPE:Solid infill
;WIDTH:0.559815
G1 F1200
G1 X138.717 Y97.389 E0.05044
G1 X138.717 Y98.126 E0.08213
G1 X137.374 Y96.783 E0.16376
G1 X136.638 Y96.783 E0.19545
G1 X138.717 Y98.862 E0.3219
G1 X138.717 Y99.599 E0.35359
G1 X135.901 Y96.783 E0.52486
G1 X135.164 Y96.783 E0.55655
G1 X138.717 Y100.336 E0.77264
G1 X138.717 Y101.073 E0.80433
G1 X134.427 Y96.783 E1.06524
G1 X133.69 Y96.783 E1.09693
G1 X138.717 Y101.81 E1.40265
G1 X138.717 Y102.547 E1.43435
G1 X132.953 Y96.783 E1.78489
G1 X132.216 Y96.783 E1.81658
G1 X138.717 Y103.284 E2.21195
G1 X138.717 Y104.021 E2.24364
G1 X131.479 Y96.783 E2.68383
G1 X131.283 Y96.783 E2.69224
G1 X131.283 Y97.325 E2.71552
G1 X138.717 Y104.758 E3.1676
G1 X138.717 Y105.495 E3.1993
G1 X131.283 Y98.062 E3.65138
G1 X131.283 Y98.799 E3.68307
G1 X138.717 Y106.232 E4.13516
G1 X138.717 Y106.969 E4.16685
G1 X131.283 Y99.535 E4.61893
G1 X131.283 Y100.272 E4.65062
G1 X138.717 Y107.705 E5.10271
G1 X138.717 Y108.442 E5.1344
G1 X131.283 Y101.009 E5.58648
G1 X131.283 Y101.746 E5.61818
G1 X138.717 Y109.179 E6.07026
G1 X138.717 Y109.916 E6.10195
G1 X131.283 Y102.483 E6.55404
G1 X131.283 Y102.783 E6.56695
G1 X130.847 Y102.783 E6.58573
G1 X138.717 Y110.653 E7.06437
G1 X138.717 Y111.39 E7.09606
G1 X130.11 Y102.783 E7.61952
G1 X129.373 Y102.783 E7.65121
G1 X138.717 Y112.127 E8.21949
G1 X138.717 Y112.864 E8.25118
G1 X128.636 Y102.783 E8.86428
G1 X127.899 Y102.783 E8.89597
G1 X138.717 Y113.601 E9.55389
G1 X138.717 Y114.338 E9.58558
G1 X127.162 Y102.783 E10.28832
G1 X126.425 Y102.783 E10.32001
G1 X138.717 Y115.075 E11.06756
G1 X138.717 Y115.812 E11.09926
G1 X125.688 Y102.783 E11.89163
G1 X124.952 Y102.783 E11.92332
G1 X138.717 Y116.548 E12.76052
G1 X138.717 Y117.285 E12.79221
G1 X124.215 Y102.783 E13.67422
G1 X123.478 Y102.783 E13.70592
G1 X138.717 Y118.022 E14.63275
G1 X138.717 Y118.759 E14.66444
G1 X122.741 Y102.783 E15.6361
G1 X122.283 Y102.783 E15.65576
G1 X122.283 Y103.063 E15.66779
G1 X138.717 Y119.496 E16.66726
G1 X138.717 Y120.233 E16.69895
G1 X122.283 Y103.8 E17.69842
G1 X122.283 Y104.537 E17.73011
G1 X138.717 Y120.97 E18.72957
G1 X138.717 Y121.707 E18.76127
G1 X122.283 Y105.274 E19.76073
G1 X122.283 Y106.011 E19.79243
G1 X138.717 Y122.444 E20.79189
G1 X138.717 Y123.181 E20.82358
G1 X122.283 Y106.748 E21.82305
G1 X122.283 Y107.485 E21.85474
G1 X138.717 Y123.918 E22.85421
G1 X138.717 Y124.655 E22.8859
G1 X122.283 Y108.221 E23.88537
G1 X122.283 Y108.762 E23.90861
G1 X122.225 Y108.9 E23.91505
G1 X138.717 Y125.392 E24.91809
G1 X138.717 Y126.128 E24.94978
G1 X122.005 Y109.417 E25.96621
G1 X121.785 Y109.933 E25.99036
G1 X138.717 Y126.865 E27.02017
G1 X138.717 Y127.602 E27.05187
G1 X121.564 Y110.45 E28.09507
G1 X121.344 Y110.967 E28.11922
G1 X138.594 Y128.217 E29.16835
G1 X137.857 Y128.217 E29.20005
G1 X121.124 Y111.484 E30.21774
G1 X120.904 Y112 E30.2419
G1 X137.12 Y128.217 E31.22817
G1 X136.383 Y128.217 E31.25986
G1 X120.684 Y112.517 E32.21469
G1 X120.464 Y113.034 E32.23885
G1 X135.646 Y128.217 E33.16225
G1 X134.909 Y128.217 E33.19395
G1 X120.244 Y113.551 E34.08592
G1 X120.024 Y114.068 E34.11007
G1 X134.172 Y128.217 E34.97061
G1 X133.436 Y128.217 E35.00231
G1 X120.779 Y115.56 E35.77207
G1 X121.449 Y116.605 E35.82545
G1 X121.713 Y117.231 E35.85466
G1 X132.699 Y128.217 E36.52281
G1 X131.962 Y128.217 E36.5545
G1 X122.064 Y118.319 E37.15646
G1 X122.215 Y118.969 E37.18512
G1 X122.229 Y119.221 E37.19599
G1 X131.225 Y128.217 E37.74311
G1 X130.488 Y128.217 E37.7748
G1 X122.273 Y120.002 E38.27442
G1 X122.285 Y120.213 E38.28354
G1 X122.229 Y120.695 E38.30439
G1 X129.751 Y128.217 E38.76185
G1 X129.014 Y128.217 E38.79354
G1 X122.153 Y121.356 E39.21082
G1 X122.142 Y121.452 E39.21499
G1 X121.999 Y121.938 E39.23679
G1 X128.277 Y128.217 E39.61863
G1 X127.54 Y128.217 E39.65033
G1 X121.831 Y122.508 E39.99754
G1 X121.79 Y122.648 E40.00383
G1 X121.607 Y123.02 E40.02167
G1 X126.803 Y128.217 E40.33771
G1 X126.066 Y128.217 E40.3694
G1 X121.364 Y123.514 E40.65542
G1 X121.239 Y123.767 E40.66753
G1 X121.088 Y123.975 E40.67861
G1 X125.329 Y128.217 E40.93658
G1 X124.593 Y128.217 E40.96827
G1 X120.778 Y124.402 E41.2003
G1 X120.506 Y124.775 E41.22015
G1 X120.459 Y124.82 E41.22295
G1 X123.856 Y128.217 E41.42951
G1 X123.119 Y128.217 E41.4612
G1 X120.086 Y125.183 E41.64568
G1 X119.712 Y125.546 E41.66809
G1 X122.382 Y128.217 E41.83049
G1 X121.645 Y128.217 E41.86218
G1 X119.291 Y125.863 E42.00534
G1 X118.853 Y126.162 E42.02815
G1 X120.908 Y128.217 E42.15311
G1 X120.171 Y128.217 E42.18481
G1 X118.389 Y126.435 E42.29316
G1 X117.884 Y126.666 E42.31708
G1 X119.434 Y128.217 E42.41139
G1 X118.697 Y128.217 E42.44308
G1 X117.367 Y126.886 E42.524
G1 X116.783 Y127.039 E42.54995
G1 X117.96 Y128.217 E42.62154
G1 X117.223 Y128.217 E42.65323
G1 X116.193 Y127.186 E42.71593
G1 X115.514 Y127.244 E42.74522
G1 X116.486 Y128.217 E42.80437
G1 X115.75 Y128.217 E42.83606
G1 X114.804 Y127.271 E42.89355
G1 X113.998 Y127.202 E42.92834
G1 X115.013 Y128.217 E42.99004
G1 X114.276 Y128.217 E43.02173
G1 X112.742 Y126.683 E43.115
G92 E0
G1 E-1.4 F3600
;WIPE_START
G1 F7200
G1 X113.591 Y127.532 E-1.97
;WIPE_END
G1 E-2 F3600
; acceleration to travel
M204 S1500
G1 X108.556 Y106.079 F9000
; decel to extrusion
M204 S500
G1 X107.941 Y103.459
; end travel
G1 E0 F2400
G1 F1200
G1 X107.265 Y102.783 E0.04106
G1 X106.529 Y102.783 E0.07275
G1 X107.717 Y103.971 E0.14501
G1 X107.717 Y104.708 E0.1767
G1 X105.792 Y102.783 E0.29377
G1 X105.055 Y102.783 E0.32546
G1 X107.717 Y105.445 E0.48736
G1 X107.717 Y106.182 E0.51905
G1 X104.318 Y102.783 E0.72576
G1 X103.581 Y102.783 E0.75745
G1 X107.717 Y106.919 E1.00898
G1 X107.717 Y107.656 E1.04068
G1 X102.844 Y102.783 E1.33703
G1 X102.107 Y102.783 E1.36872
G1 X107.717 Y108.393 E1.70989
G1 X107.717 Y108.762 E1.72576
G1 X107.99 Y109.403 E1.75572
G1 X101.37 Y102.783 E2.15831
G1 X100.633 Y102.783 E2.19
G1 X108.536 Y110.686 E2.67066
G1 X109.083 Y111.97 E2.73067
G1 X99.672 Y102.559 E3.30304
G92 E0
G1 E-1.4 F3600
;WIPE_START
G1 F7200
G1 X100.521 Y103.408 E-1.97
;WIPE_END
G1 E-2 F3600
; acceleration to travel
M204 S1500
G1 X99.113 Y98.06 F9000
; decel to extrusion
M204 S500
G1 X98.941 Y97.406
; end travel
G1 E0 F2400
G1 F1200
G1 X98.318 Y96.783 E0.03788
G1 X97.581 Y96.783 E0.06957
G1 X98.717 Y97.919 E0.13864
G1 X98.717 Y98.656 E0.17033
G1 X96.844 Y96.783 E0.28422
G1 X96.107 Y96.783 E0.31592
G1 X98.717 Y99.393 E0.47462
G1 X98.717 Y100.13 E0.50632
G1 X95.37 Y96.783 E0.70985
G1 X94.633 Y96.783 E0.74154
G1 X98.717 Y100.867 E0.98989
G1 X98.717 Y101.604 E1.02158
G1 X93.896 Y96.783 E1.31475
G1 X93.159 Y96.783 E1.34644
G1 X109.63 Y113.254 E2.34817
G1 X110.17 Y114.522 E2.40747
G1 X110.166 Y114.527 E2.40773
G1 X92.422 Y96.783 E3.48689
G1 X91.686 Y96.783 E3.51858
G1 X109.814 Y114.912 E4.62114
G1 X109.461 Y115.296 E4.64357
G1 X91.283 Y97.118 E5.74916
G1 X91.283 Y97.855 E5.78085
G1 X109.13 Y115.702 E6.86629
G1 X108.842 Y116.151 E6.88922
G1 X91.283 Y98.592 E7.95715
G1 X91.283 Y99.329 E7.98884
G1 X108.554 Y116.6 E9.03926
G1 X108.335 Y117.117 E9.06343
G1 X91.283 Y100.066 E10.10051
G1 X91.283 Y100.803 E10.1322
G1 X108.116 Y117.636 E11.15598
G1 X108.067 Y117.754 E11.1615
G1 X107.96 Y118.216 E11.18189
G1 X91.283 Y101.54 E12.19614
G1 X91.283 Y102.277 E12.22783
G1 X107.821 Y118.814 E13.23365
G1 X107.785 Y118.969 E13.24047
G1 X107.756 Y119.486 E13.26276
G1 X91.283 Y103.014 E14.26462
G1 X91.283 Y103.75 E14.29631
G1 X107.717 Y120.184 E15.29579
G1 X107.715 Y120.213 E15.29707
G1 X107.807 Y121.011 E15.33159
G1 X91.283 Y104.487 E16.33656
G1 X91.283 Y105.224 E16.36826
G1 X108.334 Y122.274 E17.40525
G92 E0
G1 E-1.4 F3600
;WIPE_START
G1 F7200
G1 X107.485 Y121.426 E-1.97
;WIPE_END
G1 E-2 F3600
; acceleration to travel
M204 S1500
G1 X113.079 Y127.677 F9000
; decel to extrusion
M204 S500
G1 X113.763 Y128.441
; end travel
G1 E0 F2400
G1 F1200
G1 X111.88 Y126.558 E0.11449
G1 X111.418 Y126.347 E0.13636
G1 X110.388 Y125.644 E0.18998
G1 X109.494 Y124.775 E0.2436
G1 X108.761 Y123.767 E0.29722
G1 X108.442 Y123.12 E0.32821
G1 X91.283 Y105.961 E1.37182
G1 X91.283 Y106.698 E1.40351
G1 X112.802 Y128.217 E2.71227
G1 X112.065 Y128.217 E2.74396
G1 X91.283 Y107.435 E4.0079
G1 X91.283 Y108.172 E4.03959
G1 X111.328 Y128.217 E5.25871
G1 X110.591 Y128.217 E5.2904
G1 X91.283 Y108.909 E6.4647
G1 X91.283 Y109.646 E6.49639
G1 X109.854 Y128.217 E7.62587
G1 X109.117 Y128.217 E7.65756
G1 X91.283 Y110.383 E8.74222
G1 X91.283 Y111.12 E8.77391
G1 X108.38 Y128.217 E9.81375
G1 X107.643 Y128.217 E9.84544
G1 X91.283 Y111.857 E10.84046
G1 X91.283 Y112.593 E10.87215
G1 X106.907 Y128.217 E11.82235
G1 X106.17 Y128.217 E11.85404
G1 X91.283 Y113.33 E12.75942
G1 X91.283 Y114.067 E12.79112
G1 X105.433 Y128.217 E13.65168
G1 X104.696 Y128.217 E13.68337
G1 X91.283 Y114.804 E14.49911
G1 X91.283 Y115.541 E14.5308
G1 X103.959 Y128.217 E15.30172
G1 X103.222 Y128.217 E15.33342
G1 X91.283 Y116.278 E16.05952
G1 X91.283 Y117.015 E16.09121
G1 X102.485 Y128.217 E16.77249
G1 X101.748 Y128.217 E16.80419
G1 X91.283 Y117.752 E17.44065
G1 X91.283 Y118.489 E17.47234
G1 X101.011 Y128.217 E18.06398
G1 X100.274 Y128.217 E18.09568
G1 X91.283 Y119.226 E18.6425
G1 X91.283 Y119.963 E18.67419
G1 X99.537 Y128.217 E19.1762
G1 X98.8 Y128.217 E19.20789
G1 X91.283 Y120.7 E19.66507
G1 X91.283 Y121.436 E19.69677
G1 X98.064 Y128.217 E20.10913
G1 X97.327 Y128.217 E20.14082
G1 X91.283 Y122.173 E20.50837
G1 X91.283 Y122.91 E20.54006
G1 X96.59 Y128.217 E20.86279
G1 X95.853 Y128.217 E20.89448
G1 X91.283 Y123.647 E21.17239
G1 X91.283 Y124.384 E21.20408
G1 X95.116 Y128.217 E21.43717
G1 X94.379 Y128.217 E21.46886
G1 X91.283 Y125.121 E21.65713
G1 X91.283 Y125.858 E21.68882
G1 X93.642 Y128.217 E21.83227
G1 X92.905 Y128.217 E21.86396
G1 X91.283 Y126.595 E21.96259
G1 X91.283 Y127.332 E21.99428
G1 X92.168 Y128.217 E22.04809
G1 X91.431 Y128.217 E22.07978
G1 X91.059 Y127.845 E22.1024
G92 E0
G1 E-1.4 F3600
;WIPE_START
G1 F7200
G1 X91.431 Y128.217 E-1.6498
G1 X92.105 Y128.217 E-1.97
;WIPE_END
G1 E-2 F3600
; acceleration to travel
M204 S1500
G1 X116.738 Y115.913 F9000
; decel to extrusion
M204 S500
G1 X119.747 Y114.41
; end travel
G1 E0 F2400
;TYPE:Gap fill
;WIDTH:0.369933
G1 F1200
