; generated by SuperSlicer 2.4 on 2024-02-26 at 16:26:58 UTC


;
;

;
;
; TODO: check the size of the extruder and the y-bar clearance. Optimize & test supports.

; external perimeters extrusion width = 0.40mm
; perimeters extrusion width = 0.40mm
; infill extrusion width = 0.40mm
; solid infill extrusion width = 0.40mm
; top infill extrusion width = 0.40mm
; first layer extrusion width = 0.56mm

; object:{"name":"20T_CF_Slider_Support","id":"20T_CF_Slider_Support.STL id:0 copy 0","object_center":[60.000000,60.000000,0.000000],"boundingbox_center":[60.000000,60.000000,3.500000],"boundingbox_size":[88.000000,88.000000,7.000000]}
; plater:{"center":[60.000000,60.000000,0.000000],"boundingbox_center":[60.000000,60.000000,3.500000],"boundingbox_size":[88.000000,88.000000,7.000000]}

;TYPE:Custom
; M190 S0
;M109 S0 ; uncomment to remove set&wait temp gcode added automatically after this start gcode
print_start EXTRUDER=245 BED=90 CHAMBER=50

;G92 E0
;G1 E10 F1500 ; prime the nozzle
M107
G21 ; set units to millimeters
G90 ; use absolute coordinates
M83 ; use relative distances for extrusion
SET_PRESSURE_ADVANCE ADVANCE=0.04
;_TOOLCHANGE 0
M104 S245 ; set temperature
M109 S245 ; set temperature and wait for it to be reached
M190 S90 ; set bed temperature and wait for it to be reached
M107
;LAYER_CHANGE
;Z:0.25
;HEIGHT:0.25
;BEFORE_LAYER_CHANGE
;0.25


G1 Z0.25 F18000
;AFTER_LAYER_CHANGE
;0.25
TIMELAPSE_TAKE_FRAME
G92 E0
G1 E-2 F3000
G1 Z0.65 F18000
M204 S1000
G1 X15.572 Y15.57
G1 Z0.25
G1 E2 F1800
;TYPE:Skirt
;WIDTH:0.56
G1 X16.555 Y14.587 E0.07315
G1 X18.898 Y12.986 E0.14936
G1 X21.054 Y12.003 E0.12473
G1 X23.337 Y11.37 E0.12466
G1 X25.861 Y11.101 E0.13358
G1 X94.077 Y11.098 E3.59013
G1 X96.371 Y11.315 E0.12127
G1 X98.677 Y11.909 E0.12531
G1 X100.64 Y12.74 E0.11221
G1 X102.466 Y13.839 E0.11219
G1 X104.287 Y15.342 E0.12424
G1 X105.93 Y17.213 E0.13103
G1 X107.258 Y19.357 E0.13275
G1 X108.201 Y21.653 E0.13063
G1 X108.759 Y24.1 E0.1321
G1 X108.911 Y26.144 E0.10784
G1 X108.911 Y93.887 E3.56523
G1 X108.661 Y96.503 E0.13832
G1 X107.975 Y99.006 E0.13657
G1 X106.872 Y101.353 E0.1365
G1 X105.386 Y103.477 E0.13644
G1 X103.564 Y105.313 E0.1361
G1 X101.461 Y106.809 E0.13585
G1 X99.132 Y107.927 E0.13593
G1 X96.644 Y108.635 E0.13615
G1 X93.876 Y108.911 E0.1464
G1 X89.502 Y108.904 E0.23021
G1 X88.556 Y108.81 E0.05004
G1 X87.633 Y108.594 E0.04989
G1 X86.359 Y108.062 E0.07261
G1 X85.307 Y107.377 E0.06611
G1 X84.379 Y106.506 E0.06699
G1 X83.628 Y105.502 E0.06597
G1 X83.059 Y104.376 E0.06642
G1 X82.662 Y102.989 E0.0759
G1 X82.264 Y99.157 E0.20278
G1 X81.63 Y96.382 E0.1498
G1 X80.657 Y93.719 E0.14922
G1 X79.357 Y91.199 E0.14923
G1 X77.756 Y88.869 E0.14875
G1 X73.101 Y83.677 E0.36702
G1 X70.617 Y80.23 E0.22359
G1 X68.564 Y76.577 E0.22056
G1 X68.412 Y76.225 E0.02015
G1 X66.213 Y77.238 E0.12744
G1 X63.232 Y78.037 E0.16242
G1 X59.999 Y78.325 E0.1708
G1 X56.767 Y78.037 E0.1708
G1 X53.788 Y77.238 E0.16233
G1 X51.588 Y76.225 E0.12746
G1 X51.436 Y76.577 E0.02013
G1 X49.383 Y80.23 E0.22056
G1 X46.899 Y83.677 E0.22359
G1 X42.244 Y88.869 E0.36702
G1 X40.643 Y91.199 E0.14874
G1 X39.343 Y93.719 E0.14923
G1 X38.37 Y96.382 E0.14922
G1 X37.734 Y99.164 E0.1502
G1 X37.284 Y103.261 E0.21691
G1 X36.981 Y104.272 E0.05553
G1 X36.479 Y105.324 E0.06137
G1 X35.578 Y106.556 E0.08031
G1 X34.668 Y107.397 E0.06525
G1 X33.516 Y108.128 E0.07176
G1 X32.373 Y108.591 E0.06491
G1 X31.212 Y108.847 E0.06256
G1 X30.343 Y108.911 E0.04585
G1 X26.111 Y108.91 E0.22273
G1 X23.808 Y108.715 E0.12163
G1 X20.848 Y107.92 E0.16134
G1 X18.602 Y106.846 E0.131
G1 X16.552 Y105.411 E0.1317
G1 X14.463 Y103.293 E0.15655
G1 X13.119 Y101.338 E0.12487
G1 X12.099 Y99.199 E0.12472
G1 X11.359 Y96.607 E0.14185
G1 X11.089 Y93.877 E0.14439
G1 X11.089 Y26.114 E3.56629
G1 X11.33 Y23.545 E0.1358
G1 X12.008 Y21.042 E0.13649
G1 X13.103 Y18.69 E0.13651
G1 X14.584 Y16.559 E0.13658
G1 X15.53 Y15.613 E0.07042
G1 X15.886 Y15.97 F18000
G1 F1800
G1 X16.896 Y14.963 E0.07507
G1 X19.128 Y13.438 E0.14227
G1 X21.209 Y12.486 E0.12044
G1 X23.452 Y11.863 E0.1225
G1 X25.901 Y11.606 E0.12957
G1 X94.041 Y11.603 E3.58618
G1 X96.264 Y11.811 E0.11751
G1 X98.497 Y12.382 E0.12126
G1 X100.426 Y13.199 E0.11026
G1 X102.189 Y14.263 E0.10836
G1 X103.948 Y15.719 E0.12021
G1 X105.535 Y17.531 E0.12673
G1 X106.798 Y19.569 E0.12619
G1 X107.712 Y21.787 E0.12624
G1 X108.256 Y24.157 E0.12798
G1 X108.404 Y26.153 E0.10535
G1 X108.404 Y93.875 E3.56411
G1 X108.167 Y96.391 E0.13301
G1 X107.507 Y98.811 E0.13201
G1 X106.445 Y101.081 E0.13191
G1 X104.983 Y103.169 E0.13414
G1 X103.22 Y104.94 E0.13152
G1 X101.185 Y106.384 E0.13131
G1 X98.933 Y107.461 E0.13138
G1 X96.528 Y108.141 E0.13156
G1 X93.864 Y108.404 E0.14088
G1 X89.539 Y108.399 E0.22764
G1 X88.655 Y108.313 E0.04674
G1 X87.769 Y108.106 E0.04788
G1 X86.577 Y107.605 E0.06805
G1 X85.603 Y106.966 E0.06129
G1 X84.743 Y106.153 E0.0623
G1 X84.048 Y105.218 E0.06132
G1 X83.522 Y104.17 E0.0617
G1 X83.164 Y102.915 E0.06869
G1 X82.765 Y99.074 E0.20323
G1 X82.117 Y96.238 E0.15309
G1 X81.121 Y93.515 E0.15258
G1 X79.792 Y90.938 E0.15258
G1 X78.155 Y88.556 E0.15215
G1 X73.504 Y83.37 E0.36662
G1 X71.052 Y79.97 E0.22063
G1 X69.012 Y76.34 E0.21909
G1 X68.673 Y75.547 E0.04542
G1 X66.061 Y76.755 E0.15145
G1 X63.122 Y77.543 E0.16012
G1 X60.021 Y77.818 E0.16383
G1 X56.876 Y77.542 E0.16615
G1 X53.94 Y76.755 E0.16002
G1 X51.327 Y75.547 E0.15147
G1 X50.988 Y76.34 E0.04541
G1 X48.948 Y79.97 E0.21909
G1 X46.496 Y83.37 E0.22063
G1 X41.845 Y88.556 E0.36662
G1 X40.208 Y90.938 E0.15214
G1 X38.879 Y93.515 E0.15258
G1 X37.883 Y96.238 E0.15258
G1 X37.234 Y99.08 E0.15341
G1 X36.783 Y103.182 E0.21721
G1 X36.502 Y104.106 E0.05084
G1 X36.056 Y105.044 E0.05466
G1 X35.184 Y106.237 E0.07775
G1 X34.342 Y107.009 E0.06014
G1 X33.304 Y107.668 E0.06469
G1 X32.242 Y108.101 E0.06036
G1 X31.156 Y108.343 E0.05855
G1 X30.334 Y108.404 E0.0434
G1 X26.122 Y108.404 E0.22166
G1 X23.874 Y108.212 E0.11876
G1 X21.045 Y107.453 E0.15414
G1 X18.839 Y106.398 E0.12867
G1 X16.862 Y105.01 E0.12718
G1 X14.867 Y102.988 E0.14946
G1 X13.568 Y101.102 E0.12055
G1 X12.565 Y99 E0.12254
G1 X11.852 Y96.491 E0.1373
G1 X11.596 Y93.865 E0.13887
G1 X11.596 Y26.126 E3.56501
G1 X11.832 Y23.614 E0.13278
G1 X12.491 Y21.196 E0.13192
G1 X13.552 Y18.924 E0.13195
G1 X14.986 Y16.867 E0.13197
G1 X15.843 Y16.012 E0.06371
G1 X16.199 Y16.37 F18000
G1 F1800
G1 X17.236 Y15.338 E0.07701
G1 X19.358 Y13.889 E0.13522
G1 X21.401 Y12.955 E0.11824
G1 X23.566 Y12.357 E0.11821
G1 X25.94 Y12.111 E0.12557
G1 X94.007 Y12.109 E3.58229
G1 X96.159 Y12.307 E0.11375
G1 X98.317 Y12.856 E0.11722
G1 X100.18 Y13.642 E0.1064
G1 X101.911 Y14.687 E0.10641
G1 X103.609 Y16.096 E0.11616
G1 X105.14 Y17.848 E0.12244
G1 X106.356 Y19.817 E0.12181
G1 X107.235 Y21.96 E0.12188
G1 X107.752 Y24.214 E0.1217
G1 X107.898 Y26.163 E0.10285
G1 X107.898 Y93.863 E3.56299
G1 X107.672 Y96.279 E0.1277
G1 X107.024 Y98.656 E0.1297
G1 X105.996 Y100.846 E0.1273
G1 X104.581 Y102.86 E0.12954
G1 X102.877 Y104.567 E0.12694
G1 X100.911 Y105.958 E0.12676
G1 X98.735 Y106.995 E0.12684
G1 X96.412 Y107.648 E0.12698
G1 X93.852 Y107.898 E0.13539
G1 X89.575 Y107.894 E0.22507
G1 X88.721 Y107.811 E0.04519
G1 X87.906 Y107.618 E0.04405
G1 X86.796 Y107.148 E0.06347
G1 X85.901 Y106.556 E0.05646
G1 X85.108 Y105.801 E0.05761
G1 X84.469 Y104.935 E0.05668
G1 X83.986 Y103.965 E0.05701
G1 X83.665 Y102.84 E0.06154
G1 X83.265 Y98.991 E0.20369
G1 X82.603 Y96.094 E0.15639
G1 X81.586 Y93.311 E0.15593
G1 X80.228 Y90.678 E0.15594
G1 X78.554 Y88.242 E0.15555
G1 X73.907 Y83.063 E0.36622
G1 X71.486 Y79.709 E0.21767
G1 X69.461 Y76.104 E0.21761
G1 X68.912 Y74.817 E0.07365
G1 X68.619 Y75.014 E0.01858
G1 X65.909 Y76.271 E0.15726
G1 X63.012 Y77.048 E0.15781
G1 X59.999 Y77.312 E0.15918
G1 X56.986 Y77.048 E0.15918
G1 X54.092 Y76.272 E0.15771
G1 X51.385 Y75.016 E0.15707
G1 X51.088 Y74.817 E0.0188
G1 X50.539 Y76.104 E0.07367
G1 X48.514 Y79.709 E0.21761
G1 X46.093 Y83.063 E0.21767
G1 X41.446 Y88.242 E0.36622
G1 X39.772 Y90.678 E0.15555
G1 X38.414 Y93.311 E0.15594
G1 X37.397 Y96.094 E0.15593
G1 X36.734 Y98.995 E0.15663
G1 X36.283 Y103.103 E0.21748
G1 X36.024 Y103.939 E0.04609
G1 X35.633 Y104.765 E0.04805
G1 X34.79 Y105.917 E0.07514
G1 X34.017 Y106.62 E0.05498
G1 X33.091 Y107.208 E0.05777
G1 X32.11 Y107.612 E0.05582
G1 X31.1 Y107.84 E0.05451
G1 X30.324 Y107.898 E0.04091
G1 X26.133 Y107.897 E0.22059
G1 X23.939 Y107.71 E0.11588
G1 X21.242 Y106.986 E0.14697
G1 X19.113 Y105.972 E0.12411
G1 X17.171 Y104.608 E0.12486
G1 X15.272 Y102.682 E0.14237
G1 X13.996 Y100.831 E0.11832
G1 X13.031 Y98.802 E0.11824
G1 X12.345 Y96.375 E0.13274
G1 X12.102 Y93.852 E0.13338
G1 X12.102 Y26.138 E3.56375
G1 X12.327 Y23.726 E0.1275
G1 X12.959 Y21.39 E0.12733
G1 X14.002 Y19.159 E0.12964
G1 X15.388 Y17.176 E0.12733
G1 X16.156 Y16.412 E0.057
G1 X16.51 Y16.768 F18000
G1 F1800
G1 X17.541 Y15.743 E0.07654
G1 X19.589 Y14.34 E0.13061
G1 X21.556 Y13.438 E0.11389
G1 X23.681 Y12.851 E0.11602
G1 X25.978 Y12.616 E0.12155
G1 X93.972 Y12.614 E3.57846
G1 X96.054 Y12.802 E0.11
G1 X98.138 Y13.33 E0.11317
G1 X99.934 Y14.085 E0.1025
G1 X101.633 Y15.111 E0.10444
G1 X103.27 Y16.473 E0.11208
G1 X104.72 Y18.133 E0.11601
G1 X105.896 Y20.03 E0.11745
G1 X106.747 Y22.094 E0.11751
G1 X107.249 Y24.271 E0.11758
G1 X107.392 Y26.172 E0.10034
G1 X107.392 Y93.851 E3.56187
G1 X107.17 Y96.21 E0.12467
G1 X106.542 Y98.501 E0.12507
G1 X105.547 Y100.61 E0.1227
G1 X104.18 Y102.551 E0.12494
G1 X102.535 Y104.194 E0.12236
G1 X100.637 Y105.531 E0.12222
G1 X98.537 Y106.528 E0.1223
G1 X96.298 Y107.154 E0.1224
G1 X93.84 Y107.392 E0.12993
G1 X89.611 Y107.389 E0.22257
G1 X88.82 Y107.314 E0.0418
G1 X88.044 Y107.13 E0.04198
G1 X87.016 Y106.691 E0.05883
G1 X86.2 Y106.147 E0.05161
G1 X85.474 Y105.451 E0.05293
G1 X84.89 Y104.653 E0.05204
G1 X84.45 Y103.761 E0.05234
G1 X84.166 Y102.766 E0.05447
G1 X83.766 Y98.908 E0.20414
G1 X83.09 Y95.95 E0.15968
G1 X82.05 Y93.107 E0.15929
G1 X80.663 Y90.417 E0.1593
G1 X78.953 Y87.928 E0.15895
G1 X74.292 Y82.735 E0.36723
G1 X71.905 Y79.424 E0.21478
G1 X69.909 Y75.869 E0.21462
G1 X69.136 Y74.049 E0.10402
G1 X68.386 Y74.563 E0.04786
G1 X65.756 Y75.788 E0.15269
G1 X62.903 Y76.553 E0.15548
G1 X59.978 Y76.806 E0.15451
G1 X57.053 Y76.545 E0.15453
G1 X54.245 Y75.788 E0.15308
G1 X51.617 Y74.565 E0.15253
G1 X50.864 Y74.049 E0.04807
G1 X50.091 Y75.869 E0.10403
G1 X48.095 Y79.424 E0.21462
G1 X45.708 Y82.735 E0.21478
G1 X41.047 Y87.928 E0.36724
G1 X39.337 Y90.417 E0.15895
G1 X37.95 Y93.107 E0.1593
G1 X36.91 Y95.95 E0.15929
G1 X36.234 Y98.911 E0.15984
G1 X35.782 Y103.023 E0.21771
G1 X35.546 Y103.771 E0.04129
G1 X35.21 Y104.485 E0.04154
G1 X34.397 Y105.597 E0.07248
G1 X33.694 Y106.229 E0.04975
G1 X32.876 Y106.749 E0.05102
G1 X31.976 Y107.123 E0.05128
G1 X31.042 Y107.336 E0.05042
G1 X30.315 Y107.392 E0.0384
G1 X26.144 Y107.391 E0.21951
G1 X24.005 Y107.207 E0.113
G1 X21.439 Y106.519 E0.13982
G1 X19.35 Y105.524 E0.12177
G1 X17.481 Y104.207 E0.1203
G1 X15.676 Y102.377 E0.13531
G1 X14.425 Y100.561 E0.11608
G1 X13.498 Y98.605 E0.1139
G1 X12.839 Y96.26 E0.12819
G1 X12.608 Y93.84 E0.12791
G1 X12.608 Y26.149 E3.56251
G1 X12.821 Y23.837 E0.12223
G1 X13.442 Y21.544 E0.12502
G1 X14.451 Y19.393 E0.12501
G1 X15.79 Y17.485 E0.12271
G1 X16.468 Y16.81 E0.05032
G1 X16.823 Y17.168 F18000
G1 F1800
G1 X17.882 Y16.118 E0.07849
G1 X19.82 Y14.792 E0.12361
G1 X21.748 Y13.906 E0.11168
G1 X23.794 Y13.345 E0.11166
G1 X26.016 Y13.121 E0.11753
G1 X93.939 Y13.119 E3.57468
G1 X95.95 Y13.298 E0.10626
G1 X97.96 Y13.804 E0.10909
G1 X99.72 Y14.545 E0.10052
G1 X101.354 Y15.534 E0.10051
G1 X102.93 Y16.849 E0.10801
G1 X104.325 Y18.45 E0.11175
G1 X105.454 Y20.278 E0.1131
G1 X106.27 Y22.267 E0.11315
G1 X106.745 Y24.328 E0.11132
G1 X106.885 Y26.182 E0.09783
G1 X106.885 Y93.839 E3.56075
G1 X106.676 Y96.098 E0.11936
G1 X106.074 Y98.305 E0.12043
G1 X105.098 Y100.374 E0.12037
G1 X103.779 Y102.241 E0.12031
G1 X102.193 Y103.82 E0.11778
G1 X100.363 Y105.105 E0.11767
G1 X98.34 Y106.061 E0.11775
G1 X96.183 Y106.66 E0.11782
G1 X93.828 Y106.885 E0.12452
G1 X89.646 Y106.883 E0.22013
G1 X88.92 Y106.818 E0.03836
G1 X88.182 Y106.643 E0.03987
G1 X87.238 Y106.235 E0.05411
G1 X86.502 Y105.739 E0.04675
G1 X85.842 Y105.102 E0.04826
G1 X85.313 Y104.374 E0.0474
G1 X84.915 Y103.559 E0.04769
G1 X84.668 Y102.692 E0.04747
G1 X84.266 Y98.825 E0.20459
G1 X83.576 Y95.806 E0.16298
G1 X82.515 Y92.904 E0.16265
G1 X81.098 Y90.157 E0.16265
G1 X79.351 Y87.614 E0.16235
G1 X74.678 Y82.407 E0.36825
G1 X72.325 Y79.14 E0.21189
G1 X70.357 Y75.633 E0.21162
G1 X69.36 Y73.279 E0.13454
G1 X68.153 Y74.114 E0.07724
G1 X65.603 Y75.305 E0.1481
G1 X62.836 Y76.051 E0.15081
G1 X60 Y76.299 E0.14985
G1 X57.163 Y76.051 E0.14986
G1 X54.398 Y75.305 E0.15075
G1 X51.851 Y74.116 E0.14794
G1 X50.64 Y73.279 E0.07745
G1 X49.643 Y75.633 E0.13455
G1 X47.675 Y79.14 E0.21162
G1 X45.322 Y82.407 E0.21189
G1 X40.649 Y87.614 E0.36825
G1 X38.902 Y90.157 E0.16235
G1 X37.485 Y92.904 E0.16265
G1 X36.424 Y95.806 E0.16265
G1 X35.734 Y98.827 E0.16307
G1 X35.292 Y102.894 E0.21532
G1 X35.068 Y103.602 E0.03906
G1 X34.763 Y104.247 E0.03756
G1 X34.039 Y105.238 E0.06459
G1 X33.372 Y105.838 E0.04723
G1 X32.625 Y106.309 E0.04647
G1 X31.804 Y106.647 E0.04673
G1 X30.95 Y106.838 E0.04605
G1 X30.306 Y106.885 E0.034
G1 X26.176 Y106.885 E0.21735
G1 X24.114 Y106.712 E0.10888
G1 X21.593 Y106.036 E0.1374
G1 X19.588 Y105.076 E0.11697
G1 X17.792 Y103.807 E0.11575
G1 X16.08 Y102.071 E0.12832
G1 X14.873 Y100.325 E0.11168
G1 X13.965 Y98.407 E0.1117
G1 X13.341 Y96.189 E0.12127
G1 X13.115 Y93.828 E0.12481
G1 X13.115 Y26.161 E3.56125
G1 X13.324 Y23.905 E0.11923
G1 X13.925 Y21.698 E0.12039
G1 X14.9 Y19.629 E0.12037
G1 X16.191 Y17.794 E0.11808
G1 X16.78 Y17.211 E0.04364
G1 X17.134 Y17.567 F18000
G1 F1800
G1 X18.187 Y16.523 E0.07807
G1 X20.051 Y15.242 E0.11903
G1 X21.902 Y14.389 E0.10727
G1 X23.908 Y13.839 E0.10944
G1 X26.054 Y13.627 E0.1135
G1 X93.906 Y13.625 E3.57097
G1 X95.846 Y13.794 E0.10252
G1 X97.782 Y14.279 E0.10502
G1 X99.474 Y14.988 E0.09656
G1 X101.076 Y15.957 E0.09852
G1 X102.59 Y17.224 E0.10391
G1 X103.929 Y18.766 E0.1075
G1 X104.994 Y20.49 E0.10663
G1 X105.782 Y22.402 E0.10881
G1 X106.242 Y24.386 E0.1072
G1 X106.379 Y26.191 E0.0953
G1 X106.379 Y93.828 E3.55962
G1 X106.174 Y96.029 E0.11634
G1 X105.592 Y98.15 E0.11578
G1 X104.65 Y100.137 E0.11573
G1 X103.379 Y101.93 E0.11568
G1 X101.852 Y103.445 E0.1132
G1 X100.091 Y104.677 E0.11313
G1 X98.144 Y105.594 E0.11321
G1 X96.07 Y106.166 E0.11325
G1 X93.816 Y106.379 E0.11914
G1 X89.68 Y106.378 E0.2177
G1 X88.984 Y106.315 E0.03679
G1 X88.323 Y106.156 E0.03579
G1 X87.462 Y105.781 E0.04938
G1 X86.804 Y105.333 E0.0419
G1 X86.239 Y104.787 E0.04137
G1 X85.736 Y104.094 E0.04505
G1 X85.38 Y103.359 E0.04299
G1 X85.169 Y102.618 E0.04056
G1 X84.766 Y98.742 E0.20505
G1 X84.063 Y95.662 E0.16627
G1 X82.98 Y92.7 E0.166
G1 X81.534 Y89.897 E0.16601
G1 X79.75 Y87.301 E0.16576
G1 X75.064 Y82.078 E0.36926
G1 X72.744 Y78.856 E0.209
G1 X70.806 Y75.398 E0.20862
G1 X69.583 Y72.507 E0.16516
G1 X67.918 Y73.664 E0.1067
G1 X65.45 Y74.822 E0.14351
G1 X62.769 Y75.548 E0.14615
G1 X60.022 Y75.793 E0.14516
G1 X57.23 Y75.548 E0.1475
G1 X54.551 Y74.822 E0.14606
G1 X52.085 Y73.666 E0.14335
G1 X50.417 Y72.507 E0.10691
G1 X49.194 Y75.398 E0.16516
G1 X47.256 Y78.856 E0.20862
G1 X44.936 Y82.078 E0.209
G1 X40.25 Y87.301 E0.36926
G1 X38.466 Y89.897 E0.16576
G1 X37.02 Y92.7 E0.16601
G1 X35.937 Y95.662 E0.16601
G1 X35.233 Y98.743 E0.16632
G1 X34.801 Y102.767 E0.213
G1 X34.603 Y103.401 E0.03496
G1 X34.315 Y104.009 E0.03537
G1 X33.679 Y104.88 E0.05678
G1 X33.082 Y105.423 E0.04246
G1 X32.41 Y105.85 E0.04191
G1 X31.67 Y106.158 E0.04217
G1 X30.893 Y106.334 E0.04194
G1 X30.296 Y106.379 E0.03151
G1 X26.186 Y106.379 E0.21629
G1 X24.179 Y106.21 E0.10601
G1 X21.79 Y105.568 E0.13021
G1 X19.863 Y104.65 E0.11235
G1 X18.102 Y103.406 E0.11343
G1 X16.484 Y101.764 E0.12135
G1 X15.322 Y100.09 E0.10726
G1 X14.431 Y98.21 E0.10947
G1 X13.835 Y96.074 E0.11669
G1 X13.621 Y93.816 E0.11937
G1 X13.621 Y26.173 E3.56002
G1 X13.818 Y24.016 E0.11395
G1 X14.392 Y21.893 E0.11575
G1 X15.327 Y19.903 E0.11573
G1 X16.592 Y18.104 E0.11574
G1 X17.091 Y17.61 E0.03696
G1 X17.445 Y17.968 F18000
