; generated by SuperSlicer 2.4 on 2023-10-31 at 15:08:42 UTC


;
;

;
;
; TODO: check the size of the extruder and the y-bar clearance. Optimize & test supports.

; external perimeters extrusion width = 0.32mm
; perimeters extrusion width = 0.32mm
; infill extrusion width = 0.44mm
; solid infill extrusion width = 0.46mm
; top infill extrusion width = 0.44mm
; first layer extrusion width = 0.56mm

; object:{"name":"MagnetHolder","id":"MagnetHolder.STL id:0 copy 0","object_center":[60.000000,60.000000,0.000000],"boundingbox_center":[60.000000,60.000000,3.000000],"boundingbox_size":[14.000000,14.000000,6.000000]}
; plater:{"center":[60.000000,60.000000,0.000000],"boundingbox_center":[60.000000,60.000000,3.000000],"boundingbox_size":[14.000000,14.000000,6.000000]}

;TYPE:Custom
; M190 S0
; M109 S0 ; uncomment to remove set&wait temp gcode added automatically after this start gcode
print_start EXTRUDER=215 BED=55 CHAMBER=15
M107
G21 ; set units to millimeters
G90 ; use absolute coordinates
M83 ; use relative distances for extrusion
;_TOOLCHANGE 0
M104 S215 ; set temperature
M109 S215 ; set temperature and wait for it to be reached
M190 S55 ; set bed temperature and wait for it to be reached
M107
;LAYER_CHANGE
;Z:0.2
;HEIGHT:0.2
;BEFORE_LAYER_CHANGE
;0.2


G1 Z0.2 F18000
;AFTER_LAYER_CHANGE
;0.2
G92 E0
G1 E-2 F3000
G1 Z0.6 F18000
M204 S1000
G1 X50.818 Y50.818
G1 Z0.2
G1 E2 F1800
;TYPE:Skirt
;WIDTH:0.52
G1 X50.393 Y51.243 E0.02384
G1 X49.407 Y52.465 E0.06227
G1 X48.781 Y53.433 E0.04576
G1 X48.223 Y54.497 E0.04767
G1 X47.781 Y55.563 E0.04576
G1 X47.424 Y56.71 E0.04767
G1 X47.119 Y58.25 E0.06227
G1 X47.014 Y59.399 E0.04576
G1 X47.014 Y60.601 E0.04767
G1 X47.119 Y61.75 E0.04576
G1 X47.424 Y63.29 E0.06227
G1 X47.781 Y64.437 E0.04767
G1 X48.223 Y65.503 E0.04576
G1 X48.781 Y66.567 E0.04767
G1 X49.654 Y67.871 E0.06227
G1 X50.393 Y68.757 E0.04576
G1 X51.243 Y69.607 E0.04767
G1 X52.129 Y70.346 E0.04576
G1 X53.433 Y71.219 E0.06227
G1 X54.497 Y71.777 E0.04767
G1 X55.563 Y72.219 E0.04576
G1 X57.068 Y72.665 E0.06227
G1 X58.25 Y72.881 E0.04767
G1 X59.399 Y72.986 E0.04576
G1 X60.601 Y72.986 E0.04767
G1 X61.75 Y72.881 E0.04576
G1 X63.29 Y72.576 E0.06227
G1 X64.437 Y72.219 E0.04767
G1 X65.503 Y71.777 E0.04576
G1 X66.567 Y71.219 E0.04767
G1 X67.871 Y70.346 E0.06227
G1 X68.757 Y69.607 E0.04576
G1 X69.607 Y68.757 E0.04767
G1 X70.346 Y67.871 E0.04576
G1 X71.219 Y66.567 E0.06227
G1 X71.777 Y65.503 E0.04767
G1 X72.219 Y64.437 E0.04576
G1 X72.665 Y62.932 E0.06227
G1 X72.881 Y61.75 E0.04767
G1 X72.986 Y60.601 E0.04576
G1 X72.986 Y59.399 E0.04767
G1 X72.881 Y58.25 E0.04576
G1 X72.665 Y57.068 E0.04767
G1 X72.219 Y55.563 E0.06227
G1 X71.777 Y54.497 E0.04576
G1 X71.219 Y53.433 E0.04767
G1 X70.346 Y52.129 E0.06227
G1 X69.607 Y51.243 E0.04576
G1 X68.757 Y50.393 E0.04767
G1 X67.871 Y49.654 E0.04576
G1 X66.567 Y48.781 E0.06227
G1 X65.503 Y48.223 E0.04767
G1 X64.437 Y47.781 E0.04576
G1 X63.29 Y47.424 E0.04767
G1 X61.75 Y47.119 E0.06227
G1 X60.601 Y47.014 E0.04576
G1 X59.399 Y47.014 E0.04767
G1 X58.25 Y47.119 E0.04576
G1 X56.71 Y47.424 E0.06227
G1 X55.563 Y47.781 E0.04767
G1 X54.497 Y48.223 E0.04576
G1 X53.433 Y48.781 E0.04767
G1 X52.465 Y49.407 E0.04576
G1 X51.243 Y50.393 E0.06227
G1 X50.86 Y50.775 E0.02146
G1 X51.207 Y51.113 F18000
G1 F1800
G1 X50.515 Y51.824 E0.03936
G1 X49.792 Y52.747 E0.04653
G1 X48.652 Y54.706 E0.08991
G1 X48.232 Y55.719 E0.04348
G1 X47.802 Y57.168 E0.05999
G1 X47.491 Y59.414 E0.08991
G1 X47.59 Y61.678 E0.08991
G1 X47.883 Y63.161 E0.05999
G1 X48.232 Y64.281 E0.04653
G1 X49.197 Y66.332 E0.08991
G1 X50.039 Y67.588 E0.05999
G1 X50.74 Y68.43 E0.04348
G1 X52.412 Y69.961 E0.08991
G1 X53.668 Y70.803 E0.05999
G1 X54.706 Y71.348 E0.04653
G1 X56.838 Y72.117 E0.08991
G1 X58.322 Y72.41 E0.05999
G1 X59.414 Y72.509 E0.04348
G1 X61.678 Y72.41 E0.08991
G1 X63.161 Y72.117 E0.05999
G1 X64.281 Y71.768 E0.04653
G1 X66.332 Y70.803 E0.08991
G1 X67.588 Y69.961 E0.05999
G1 X68.43 Y69.26 E0.04348
G1 X69.961 Y67.588 E0.08991
G1 X70.803 Y66.332 E0.05999
G1 X71.348 Y65.294 E0.04653
G1 X72.117 Y63.161 E0.08991
G1 X72.41 Y61.678 E0.05999
G1 X72.509 Y60.586 E0.04348
G1 X72.41 Y58.322 E0.08991
G1 X72.117 Y56.838 E0.05999
G1 X71.768 Y55.719 E0.04653
G1 X70.803 Y53.668 E0.08991
G1 X69.961 Y52.412 E0.05999
G1 X69.26 Y51.57 E0.04348
G1 X67.588 Y50.039 E0.08991
G1 X66.332 Y49.197 E0.05999
G1 X65.294 Y48.652 E0.04653
G1 X63.161 Y47.883 E0.08991
G1 X61.678 Y47.59 E0.05999
G1 X60.586 Y47.491 E0.04348
G1 X58.322 Y47.59 E0.08991
G1 X56.839 Y47.883 E0.05999
G1 X55.719 Y48.232 E0.04653
G1 X53.668 Y49.197 E0.08991
G1 X52.747 Y49.792 E0.04348
G1 X51.57 Y50.74 E0.05999
G1 X51.249 Y51.07 E0.01825
G1 X51.582 Y51.403 F18000
G1 F1800
G1 X51.088 Y51.897 E0.02771
G1 X50.176 Y53.03 E0.0577
G1 X49.08 Y54.915 E0.08649
G1 X48.683 Y55.874 E0.04119
G1 X48.268 Y57.268 E0.0577
G1 X47.968 Y59.428 E0.08649
G1 X48.062 Y61.606 E0.08649
G1 X48.343 Y63.033 E0.0577
G1 X48.683 Y64.126 E0.04539
G1 X49.08 Y65.085 E0.04119
G1 X49.773 Y66.364 E0.0577
G1 X51.088 Y68.103 E0.08649
G1 X52.694 Y69.577 E0.08649
G1 X53.636 Y70.227 E0.04539
G1 X54.915 Y70.92 E0.0577
G1 X55.874 Y71.317 E0.04119
G1 X57.269 Y71.732 E0.0577
G1 X59.428 Y72.032 E0.08649
G1 X61.606 Y71.938 E0.08649
G1 X63.033 Y71.657 E0.0577
G1 X64.126 Y71.317 E0.04539
G1 X65.085 Y70.92 E0.04119
G1 X66.364 Y70.227 E0.0577
G1 X68.103 Y68.912 E0.08649
G1 X69.577 Y67.306 E0.08649
G1 X70.227 Y66.364 E0.04539
G1 X70.92 Y65.085 E0.0577
G1 X71.657 Y63.033 E0.08649
G1 X71.938 Y61.606 E0.0577
G1 X72.032 Y60.572 E0.04119
G1 X71.938 Y58.394 E0.08649
G1 X71.657 Y56.967 E0.0577
G1 X71.317 Y55.874 E0.04539
G1 X70.92 Y54.915 E0.04119
G1 X70.227 Y53.636 E0.0577
G1 X68.912 Y51.897 E0.08649
G1 X67.306 Y50.423 E0.08649
G1 X66.364 Y49.773 E0.04539
G1 X65.085 Y49.08 E0.0577
G1 X64.126 Y48.683 E0.04119
G1 X62.732 Y48.268 E0.0577
G1 X60.572 Y47.968 E0.08649
G1 X58.394 Y48.062 E0.08649
G1 X57.268 Y48.268 E0.04539
G1 X55.874 Y48.683 E0.0577
G1 X54.915 Y49.08 E0.04119
G1 X53.636 Y49.773 E0.0577
G1 X51.897 Y51.088 E0.08649
G1 X51.624 Y51.36 E0.01529
G1 X51.961 Y51.697 F18000
G1 F1800
G1 X51.435 Y52.224 E0.02952
G1 X50.56 Y53.313 E0.05542
G1 X49.509 Y55.124 E0.08306
G1 X48.802 Y57.095 E0.08306
G1 X48.534 Y58.466 E0.05542
G1 X48.445 Y59.442 E0.03891
G1 X48.534 Y61.534 E0.08306
G1 X48.802 Y62.905 E0.05542
G1 X49.134 Y63.97 E0.04424
G1 X49.509 Y64.876 E0.0389
G1 X50.174 Y66.105 E0.05542
G1 X51.435 Y67.776 E0.08306
G1 X52.977 Y69.193 E0.08306
G1 X54.136 Y69.972 E0.05542
G1 X55.124 Y70.491 E0.04424
G1 X56.03 Y70.866 E0.0389
G1 X57.369 Y71.265 E0.05542
G1 X59.442 Y71.555 E0.08306
G1 X61.534 Y71.466 E0.08306
G1 X62.631 Y71.265 E0.04424
G1 X63.97 Y70.866 E0.05542
G1 X64.876 Y70.491 E0.0389
G1 X66.105 Y69.826 E0.05542
G1 X67.776 Y68.565 E0.08306
G1 X69.193 Y67.023 E0.08306
G1 X69.972 Y65.864 E0.05542
G1 X70.491 Y64.876 E0.04424
G1 X70.866 Y63.97 E0.0389
G1 X71.265 Y62.631 E0.05542
G1 X71.555 Y60.558 E0.08306
G1 X71.466 Y58.466 E0.08306
G1 X71.265 Y57.369 E0.04424
G1 X70.866 Y56.03 E0.05542
G1 X69.972 Y54.136 E0.08306
G1 X69.193 Y52.977 E0.05542
G1 X68.565 Y52.224 E0.0389
G1 X67.023 Y50.807 E0.08306
G1 X65.864 Y50.028 E0.05542
G1 X64.876 Y49.509 E0.04424
G1 X62.905 Y48.802 E0.08306
G1 X61.534 Y48.534 E0.05542
G1 X60.558 Y48.445 E0.03891
G1 X58.466 Y48.534 E0.08306
G1 X57.095 Y48.802 E0.05542
G1 X56.03 Y49.134 E0.04424
G1 X54.136 Y50.028 E0.08306
G1 X53.313 Y50.56 E0.03891
G1 X52.224 Y51.435 E0.05542
G1 X52.004 Y51.655 E0.01234
G1 X52.341 Y51.992 F18000
G1 F1800
G1 X51.782 Y52.551 E0.03133
G1 X50.944 Y53.596 E0.05313
G1 X49.938 Y55.333 E0.07964
G1 X49.262 Y57.223 E0.07964
G1 X49.005 Y58.537 E0.05313
G1 X48.922 Y59.457 E0.03662
G1 X49.005 Y61.463 E0.07964
G1 X49.262 Y62.777 E0.05313
G1 X49.585 Y63.814 E0.0431
G1 X50.443 Y65.629 E0.07964
G1 X51.191 Y66.74 E0.05313
G1 X51.782 Y67.449 E0.03662
G1 X53.26 Y68.809 E0.07964
G1 X54.371 Y69.557 E0.05313
G1 X55.333 Y70.062 E0.0431
G1 X57.223 Y70.738 E0.07964
G1 X58.537 Y70.995 E0.05313
G1 X59.457 Y71.078 E0.03662
G1 X61.463 Y70.995 E0.07964
G1 X62.777 Y70.738 E0.05313
G1 X63.814 Y70.415 E0.0431
G1 X65.629 Y69.557 E0.07964
G1 X66.74 Y68.809 E0.05313
G1 X67.449 Y68.218 E0.03662
G1 X68.809 Y66.74 E0.07964
G1 X69.557 Y65.629 E0.05313
G1 X70.062 Y64.667 E0.0431
G1 X70.415 Y63.814 E0.03662
G1 X70.799 Y62.531 E0.05313
G1 X71.078 Y60.543 E0.07964
G1 X70.995 Y58.537 E0.07964
G1 X70.738 Y57.223 E0.05313
G1 X70.415 Y56.186 E0.0431
G1 X70.062 Y55.333 E0.03662
G1 X69.426 Y54.154 E0.05313
G1 X68.218 Y52.551 E0.07964
G1 X66.74 Y51.191 E0.07964
G1 X65.629 Y50.443 E0.05313
G1 X64.667 Y49.938 E0.0431
G1 X62.777 Y49.262 E0.07964
G1 X61.463 Y49.005 E0.05313
G1 X60.543 Y48.922 E0.03662
G1 X58.537 Y49.005 E0.07964
G1 X57.223 Y49.262 E0.05313
G1 X56.186 Y49.585 E0.0431
G1 X55.333 Y49.938 E0.03662
G1 X54.154 Y50.574 E0.05313
G1 X52.551 Y51.782 E0.07964
G1 X52.383 Y51.95 E0.00939
G1 X52.721 Y52.287 F18000
G1 F1800
G1 X52.13 Y52.878 E0.03314
G1 X51.329 Y53.878 E0.05085
G1 X50.367 Y55.542 E0.07621
G1 X50.036 Y56.341 E0.03433
G1 X49.668 Y57.569 E0.05085
G1 X49.399 Y59.471 E0.07621
G1 X49.477 Y61.391 E0.07621
G1 X49.721 Y62.649 E0.05085
G1 X50.036 Y63.659 E0.04196
G1 X50.367 Y64.458 E0.03433
G1 X50.975 Y65.587 E0.05085
G1 X52.13 Y67.122 E0.07621
G1 X53.543 Y68.424 E0.07621
G1 X54.605 Y69.141 E0.05085
G1 X55.542 Y69.633 E0.04196
G1 X56.341 Y69.964 E0.03433
G1 X57.569 Y70.332 E0.05085
G1 X59.471 Y70.601 E0.07621
G1 X61.391 Y70.523 E0.07621
G1 X62.431 Y70.332 E0.04196
G1 X63.659 Y69.964 E0.05085
G1 X64.458 Y69.633 E0.03433
G1 X65.587 Y69.025 E0.05085
G1 X67.122 Y67.87 E0.07621
G1 X68.424 Y66.457 E0.07621
G1 X69.141 Y65.395 E0.05085
G1 X69.633 Y64.458 E0.04196
G1 X69.964 Y63.659 E0.03433
G1 X70.332 Y62.431 E0.05085
G1 X70.601 Y60.529 E0.07621
G1 X70.523 Y58.609 E0.07621
G1 X70.279 Y57.351 E0.05085
G1 X69.964 Y56.341 E0.04196
G1 X69.141 Y54.605 E0.07621
G1 X68.424 Y53.543 E0.05085
G1 X67.87 Y52.878 E0.03433
G1 X66.457 Y51.576 E0.07621
G1 X65.395 Y50.859 E0.05085
G1 X64.458 Y50.367 E0.04196
G1 X62.649 Y49.721 E0.07621
G1 X61.391 Y49.477 E0.05085
G1 X60.529 Y49.399 E0.03433
G1 X58.609 Y49.477 E0.07621
G1 X57.351 Y49.721 E0.05085
G1 X56.341 Y50.036 E0.04196
G1 X54.605 Y50.859 E0.07621
G1 X53.878 Y51.329 E0.03433
G1 X52.878 Y52.13 E0.05085
G1 X52.763 Y52.245 E0.00644
G1 X53.1 Y52.582 F18000
G1 F1800
G1 X52.477 Y53.205 E0.03495
G1 X51.713 Y54.161 E0.04856
G1 X50.796 Y55.75 E0.07279
G1 X50.181 Y57.479 E0.07279
G1 X49.876 Y59.486 E0.08051
G1 X49.949 Y61.319 E0.07279
G1 X50.134 Y62.331 E0.04081
G1 X50.487 Y63.503 E0.04856
G1 X51.274 Y65.161 E0.07279
G1 X52.477 Y66.795 E0.08051
G1 X53.825 Y68.04 E0.07279
G1 X54.672 Y68.624 E0.04081
G1 X55.75 Y69.204 E0.04856
G1 X57.669 Y69.866 E0.08051
G1 X59.486 Y70.124 E0.07279
G1 X61.319 Y70.051 E0.07279
G1 X62.331 Y69.866 E0.04081
G1 X63.503 Y69.513 E0.04856
G1 X65.161 Y68.726 E0.07279
G1 X66.795 Y67.523 E0.08051
G1 X68.04 Y66.175 E0.07279
G1 X68.726 Y65.161 E0.04856
G1 X69.204 Y64.25 E0.04081
G1 X69.866 Y62.331 E0.08051
G1 X70.124 Y60.514 E0.07279
G1 X70.051 Y58.681 E0.07279
G1 X69.866 Y57.669 E0.04081
G1 X69.513 Y56.497 E0.04856
G1 X68.624 Y54.672 E0.08051
G1 X67.523 Y53.205 E0.07279
G1 X66.175 Y51.96 E0.07279
G1 X65.161 Y51.274 E0.04856
G1 X64.25 Y50.796 E0.04081
G1 X62.331 Y50.134 E0.08051
G1 X60.514 Y49.876 E0.07279
G1 X58.681 Y49.949 E0.07279
G1 X57.479 Y50.181 E0.04856
G1 X56.497 Y50.487 E0.04081
G1 X54.672 Y51.376 E0.08051
G1 X53.205 Y52.477 E0.07279
G1 X53.143 Y52.539 E0.00349
G1 E-2 F3000
M204 S1500
G1 Z0.6 F18000
; printing object MagnetHolder.STL id:0 copy 0
; acceleration to travel
G1 X55.174 Y54.778
; decel to extrusion
M204 S1000
G1 X56.529 Y56.271
; end travel
G1 Z0.2
G1 E2 F1800
;TYPE:Internal perimeter
;WIDTH:0.56
G1 X56.43 Y56.361 E0.00572
G1 X56.159 Y56.648 E0.017
G1 X55.911 Y56.956 E0.017
G1 X55.687 Y57.282 E0.017
G1 X55.49 Y57.624 E0.017
G1 X55.319 Y57.981 E0.017
G1 X55.177 Y58.35 E0.017
G1 X55.063 Y58.728 E0.017
G1 X54.98 Y59.115 E0.017
G1 X54.926 Y59.506 E0.017
G1 X54.903 Y59.901 E0.017
G1 X54.911 Y60.296 E0.017
G1 X54.949 Y60.69 E0.017
G1 X55.018 Y61.079 E0.017
G1 X55.116 Y61.462 E0.017
G1 X55.244 Y61.836 E0.017
G1 X55.401 Y62.199 E0.017
G1 X55.585 Y62.549 E0.017
G1 X55.796 Y62.883 E0.017
G1 X56.032 Y63.2 E0.017
G1 X56.292 Y63.498 E0.017
G1 X56.574 Y63.775 E0.017
G1 X56.877 Y64.029 E0.017
G1 X57.199 Y64.259 E0.017
G1 X57.537 Y64.463 E0.017
G1 X57.891 Y64.641 E0.017
G1 X58.256 Y64.79 E0.017
G1 X58.633 Y64.911 E0.017
G1 X59.018 Y65.002 E0.017
G1 X59.408 Y65.063 E0.017
G1 X59.802 Y65.094 E0.017
G1 X60.198 Y65.094 E0.017
G1 X60.592 Y65.063 E0.017
G1 X60.982 Y65.002 E0.017
G1 X61.367 Y64.911 E0.017
G1 X61.744 Y64.79 E0.017
G1 X62.109 Y64.641 E0.017
G1 X62.463 Y64.463 E0.017
G1 X62.801 Y64.259 E0.017
G1 X63.123 Y64.029 E0.017
G1 X63.426 Y63.775 E0.017
G1 X63.708 Y63.498 E0.017
G1 X63.968 Y63.2 E0.017
G1 X64.204 Y62.883 E0.017
G1 X64.415 Y62.549 E0.017
G1 X64.599 Y62.199 E0.017
G1 X64.756 Y61.836 E0.017
G1 X64.884 Y61.462 E0.017
G1 X64.982 Y61.079 E0.017
G1 X65.051 Y60.69 E0.017
G1 X65.089 Y60.296 E0.017
G1 X65.097 Y59.901 E0.017
G1 X65.074 Y59.506 E0.017
G1 X65.02 Y59.115 E0.017
G1 X64.937 Y58.728 E0.017
G1 X64.823 Y58.35 E0.017
G1 X64.681 Y57.981 E0.017
G1 X64.51 Y57.624 E0.017
G1 X64.313 Y57.282 E0.017
G1 X64.089 Y56.956 E0.017
G1 X63.841 Y56.648 E0.017
G1 X63.57 Y56.361 E0.017
G1 X63.277 Y56.095 E0.017
G1 X62.964 Y55.853 E0.017
G1 X62.634 Y55.636 E0.017
G1 X62.288 Y55.445 E0.017
G1 X61.928 Y55.281 E0.017
G1 X61.556 Y55.146 E0.017
G1 X61.176 Y55.04 E0.017
G1 X60.788 Y54.964 E0.017
G1 X60.395 Y54.918 E0.017
G1 X60 Y54.902 E0.017
G1 X59.605 Y54.918 E0.017
G1 X59.212 Y54.964 E0.017
G1 X58.824 Y55.04 E0.017
G1 X58.444 Y55.146 E0.017
G1 X58.072 Y55.281 E0.017
G1 X57.712 Y55.445 E0.017
G1 X57.366 Y55.636 E0.017
G1 X57.036 Y55.853 E0.017
G1 X56.723 Y56.095 E0.017
G1 X56.573 Y56.231 E0.0087
G1 X56.877 Y56.654 F18000
;TYPE:External perimeter
G1 F1800
G1 X56.793 Y56.73 E0.00486
G1 X56.549 Y56.988 E0.01527
G1 X56.326 Y57.265 E0.01527
G1 X56.125 Y57.558 E0.01527
G1 X55.948 Y57.865 E0.01527
G1 X55.794 Y58.186 E0.01527
G1 X55.666 Y58.517 E0.01527
G1 X55.565 Y58.857 E0.01527
G1 X55.489 Y59.205 E0.01527
G1 X55.441 Y59.557 E0.01527
G1 X55.421 Y59.911 E0.01527
G1 X55.428 Y60.266 E0.01527
G1 X55.462 Y60.62 E0.01527
G1 X55.524 Y60.97 E0.01527
G1 X55.612 Y61.314 E0.01527
G1 X55.727 Y61.65 E0.01527
G1 X55.868 Y61.976 E0.01527
G1 X56.033 Y62.29 E0.01527
G1 X56.223 Y62.591 E0.01527
G1 X56.435 Y62.876 E0.01527
G1 X56.668 Y63.143 E0.01527
G1 X56.922 Y63.392 E0.01527
G1 X57.194 Y63.62 E0.01527
G1 X57.483 Y63.827 E0.01527
G1 X57.787 Y64.01 E0.01527
G1 X58.105 Y64.17 E0.01527
G1 X58.433 Y64.304 E0.01527
G1 X58.772 Y64.412 E0.01527
G1 X59.117 Y64.494 E0.01527
G1 X59.468 Y64.549 E0.01527
G1 X59.822 Y64.577 E0.01527
G1 X60.178 Y64.577 E0.01527
G1 X60.532 Y64.549 E0.01527
G1 X60.883 Y64.494 E0.01527
G1 X61.228 Y64.412 E0.01527
G1 X61.567 Y64.304 E0.01527
G1 X61.895 Y64.17 E0.01527
G1 X62.213 Y64.01 E0.01527
G1 X62.517 Y63.827 E0.01527
G1 X62.806 Y63.62 E0.01527
G1 X63.078 Y63.392 E0.01527
G1 X63.332 Y63.143 E0.01527
G1 X63.565 Y62.876 E0.01527
G1 X63.777 Y62.591 E0.01527
G1 X63.967 Y62.29 E0.01527
G1 X64.132 Y61.976 E0.01527
G1 X64.273 Y61.65 E0.01527
G1 X64.388 Y61.314 E0.01527
G1 X64.476 Y60.97 E0.01527
G1 X64.538 Y60.62 E0.01527
G1 X64.573 Y60.266 E0.01527
G1 X64.579 Y59.911 E0.01527
G1 X64.559 Y59.557 E0.01527
G1 X64.511 Y59.205 E0.01527
G1 X64.435 Y58.857 E0.01527
G1 X64.334 Y58.517 E0.01527
G1 X64.206 Y58.186 E0.01527
G1 X64.052 Y57.865 E0.01527
G1 X63.875 Y57.558 E0.01527
G1 X63.674 Y57.265 E0.01527
G1 X63.451 Y56.988 E0.01527
G1 X63.207 Y56.73 E0.01527
G1 X62.944 Y56.491 E0.01527
G1 X62.663 Y56.274 E0.01527
G1 X62.367 Y56.079 E0.01527
G1 X62.056 Y55.907 E0.01527
G1 X61.732 Y55.76 E0.01527
G1 X61.398 Y55.638 E0.01527
G1 X61.056 Y55.543 E0.01527
G1 X60.708 Y55.475 E0.01527
G1 X60.355 Y55.434 E0.01527
G1 X60 Y55.42 E0.01527
G1 X59.645 Y55.434 E0.01527
G1 X59.292 Y55.475 E0.01527
G1 X58.944 Y55.543 E0.01527
G1 X58.602 Y55.638 E0.01527
G1 X58.268 Y55.76 E0.01527
G1 X57.944 Y55.907 E0.01527
G1 X57.633 Y56.079 E0.01527
