; generated by SuperSlicer 2.4 on 2023-10-31 at 00:09:33 UTC


;
;

;
;
; TODO: check the size of the extruder and the y-bar clearance. Optimize & test supports.

; external perimeters extrusion width = 0.42mm
; perimeters extrusion width = 0.45mm
; infill extrusion width = 0.44mm
; solid infill extrusion width = 0.45mm
; top infill extrusion width = 0.43mm
; first layer extrusion width = 0.56mm

; object:{"name":"sun_gear","id":"sun_gear.STL id:0 copy 0","object_center":[60.000000,60.000000,0.000000],"boundingbox_center":[60.000000,60.000000,8.000000],"boundingbox_size":[25.000000,24.988142,16.000000]}
; plater:{"center":[60.000000,60.000000,0.000000],"boundingbox_center":[60.000000,60.000000,8.000000],"boundingbox_size":[25.000000,24.988142,16.000000]}

;TYPE:Custom
; M190 S0
;M109 S0 ; uncomment to remove set&wait temp gcode added automatically after this start gcode
print_start EXTRUDER=215 BED=55 CHAMBER=15

;G92 E0
;G1 E10 F1500 ; prime the nozzle
M107
G21 ; set units to millimeters
G90 ; use absolute coordinates
M83 ; use relative distances for extrusion
SET_PRESSURE_ADVANCE ADVANCE=0.04
;_TOOLCHANGE 0
M104 S215 ; set temperature
M109 S215 ; set temperature and wait for it to be reached
M190 S55 ; set bed temperature and wait for it to be reached
M107
;LAYER_CHANGE
;Z:0.2
;HEIGHT:0.2
;BEFORE_LAYER_CHANGE
;0.2


G1 Z0.2 F18000
;AFTER_LAYER_CHANGE
;0.2
TIMELAPSE_TAKE_FRAME
G92 E0
G1 E-2 F3000
G1 Z0.6 F18000
M204 S1000
G1 X47.901 Y47.294
G1 Z0.2
G1 E2 F1800
;TYPE:Skirt
;WIDTH:0.52
G1 X46.928 Y48.298 E0.05543
G1 X45.772 Y49.734 E0.07314
G1 X45 Y50.899 E0.05543
G1 X44.128 Y52.523 E0.07314
G1 X43.583 Y53.81 E0.05543
G1 X43.024 Y55.567 E0.07314
G1 X42.725 Y56.932 E0.05544
G1 X42.479 Y59.078 E0.08569
G1 X42.479 Y60.922 E0.07314
G1 X42.667 Y62.691 E0.07056
G1 X43.024 Y64.433 E0.07056
G1 X43.583 Y66.19 E0.07314
G1 X44.128 Y67.477 E0.05543
G1 X45.167 Y69.371 E0.08569
G1 X46.232 Y70.876 E0.07314
G1 X47.141 Y71.937 E0.05543
G1 X48.465 Y73.22 E0.07314
G1 X49.554 Y74.096 E0.05543
G1 X51.365 Y75.273 E0.08569
G1 X53.015 Y76.095 E0.07314
G1 X54.319 Y76.6 E0.05543
G1 X56.092 Y77.104 E0.07314
G1 X57.465 Y77.361 E0.05543
G1 X59.301 Y77.531 E0.07314
G1 X60.699 Y77.531 E0.05543
G1 X62.535 Y77.361 E0.07314
G1 X63.908 Y77.104 E0.05543
G1 X65.681 Y76.6 E0.07314
G1 X66.985 Y76.095 E0.05543
G1 X68.635 Y75.273 E0.07314
G1 X69.823 Y74.537 E0.05543
G1 X71.535 Y73.22 E0.08569
G1 X73.072 Y71.702 E0.08569
G1 X74.228 Y70.266 E0.07314
G1 X75 Y69.101 E0.05543
G1 X75.872 Y67.477 E0.07314
G1 X76.417 Y66.19 E0.05543
G1 X77.053 Y64.126 E0.08569
G1 X77.392 Y62.313 E0.07314
G1 X77.521 Y60.922 E0.05543
G1 X77.521 Y59.078 E0.07314
G1 X77.333 Y57.309 E0.07056
G1 X76.976 Y55.567 E0.07056
G1 X76.417 Y53.81 E0.07314
G1 X75.532 Y51.84 E0.08569
G1 X74.833 Y50.629 E0.05543
G1 X73.768 Y49.124 E0.07314
G1 X72.859 Y48.063 E0.05543
G1 X71.535 Y46.78 E0.07314
G1 X70.446 Y45.904 E0.05543
G1 X68.909 Y44.885 E0.07314
G1 X66.985 Y43.905 E0.08569
G1 X65.681 Y43.4 E0.05543
G1 X63.908 Y42.896 E0.07314
G1 X62.535 Y42.639 E0.05543
G1 X60.699 Y42.469 E0.07314
G1 X59.301 Y42.469 E0.05543
G1 X57.152 Y42.688 E0.08569
G1 X55.351 Y43.082 E0.07314
G1 X54.02 Y43.506 E0.05543
G1 X52.038 Y44.366 E0.08569
G1 X50.441 Y45.287 E0.07314
G1 X49.301 Y46.095 E0.05543
G1 X47.946 Y47.255 E0.07076
G1 X48.256 Y47.617 F18000
G1 F1800
G1 X48.222 Y47.647 E0.0018
G1 X47.29 Y48.608 E0.0531
G1 X46.153 Y50.021 E0.07197
G1 X45.031 Y51.799 E0.08336
G1 X44.435 Y52.997 E0.0531
G1 X43.779 Y54.689 E0.07197
G1 X43.413 Y55.976 E0.0531
G1 X43.08 Y57.76 E0.07197
G1 X42.956 Y59.093 E0.0531
G1 X42.956 Y60.907 E0.07197
G1 X43.138 Y62.617 E0.06823
G1 X43.483 Y64.302 E0.06823
G1 X44.033 Y66.031 E0.07197
G1 X44.555 Y67.264 E0.0531
G1 X45.565 Y69.107 E0.08336
G1 X46.613 Y70.588 E0.07197
G1 X47.484 Y71.605 E0.0531
G1 X48.786 Y72.868 E0.07197
G1 X49.829 Y73.707 E0.0531
G1 X51.342 Y74.709 E0.07197
G1 X53.215 Y75.662 E0.08336
G1 X54.463 Y76.145 E0.0531
G1 X56.208 Y76.642 E0.07197
G1 X57.524 Y76.888 E0.0531
G1 X59.331 Y77.055 E0.07197
G1 X60.669 Y77.055 E0.0531
G1 X62.476 Y76.888 E0.07197
G1 X64.532 Y76.455 E0.08336
G1 X65.808 Y76.05 E0.0531
G1 X67.479 Y75.342 E0.07197
G1 X68.658 Y74.709 E0.0531
G1 X70.171 Y73.707 E0.07197
G1 X71.214 Y72.868 E0.0531
G1 X72.71 Y71.392 E0.08336
G1 X73.847 Y69.979 E0.07197
G1 X74.587 Y68.863 E0.0531
G1 X75.445 Y67.264 E0.07197
G1 X76.221 Y65.311 E0.08336
G1 X76.587 Y64.024 E0.0531
G1 X76.92 Y62.24 E0.07197
G1 X77.044 Y60.907 E0.0531
G1 X77.044 Y59.093 E0.07197
G1 X76.92 Y57.76 E0.0531
G1 X76.587 Y55.976 E0.07197
G1 X76.221 Y54.689 E0.0531
G1 X75.565 Y52.997 E0.07197
G1 X74.969 Y51.799 E0.0531
G1 X74.014 Y50.256 E0.07197
G1 X72.71 Y48.608 E0.08336
G1 X71.778 Y47.647 E0.0531
G1 X70.171 Y46.293 E0.08336
G1 X68.658 Y45.291 E0.07197
G1 X67.479 Y44.658 E0.0531
G1 X65.808 Y43.95 E0.07197
G1 X64.532 Y43.545 E0.0531
G1 X62.76 Y43.157 E0.07197
G1 X60.669 Y42.945 E0.08336
G1 X59.331 Y42.945 E0.0531
G1 X57.24 Y43.157 E0.08336
G1 X55.468 Y43.545 E0.07197
G1 X54.192 Y43.95 E0.0531
G1 X52.521 Y44.658 E0.07197
G1 X50.692 Y45.693 E0.08336
G1 X49.6 Y46.466 E0.0531
G1 X48.302 Y47.578 E0.0678
G1 X48.612 Y47.941 F18000
G1 F1800
G1 X48.543 Y47.999 E0.00359
G1 X47.652 Y48.918 E0.05077
G1 X46.533 Y50.309 E0.07081
G1 X45.826 Y51.376 E0.05077
G1 X44.982 Y52.948 E0.07081
G1 X44.483 Y54.127 E0.05077
G1 X43.942 Y55.828 E0.07081
G1 X43.668 Y57.078 E0.05078
G1 X43.433 Y59.108 E0.08103
G1 X43.433 Y60.892 E0.07081
G1 X43.61 Y62.544 E0.0659
G1 X43.942 Y64.172 E0.0659
G1 X44.483 Y65.873 E0.07081
G1 X44.982 Y67.052 E0.05077
G1 X45.962 Y68.844 E0.08103
G1 X46.994 Y70.301 E0.07081
G1 X47.826 Y71.272 E0.05077
G1 X49.108 Y72.515 E0.07081
G1 X50.105 Y73.317 E0.05077
G1 X51.816 Y74.432 E0.08103
G1 X53.414 Y75.228 E0.07081
G1 X54.608 Y75.69 E0.05077
G1 X56.325 Y76.179 E0.07081
G1 X57.583 Y76.414 E0.05077
G1 X59.36 Y76.579 E0.07081
G1 X60.64 Y76.579 E0.05077
G1 X62.417 Y76.414 E0.07081
G1 X64.416 Y75.993 E0.08103
G1 X65.636 Y75.605 E0.05077
G1 X67.28 Y74.909 E0.07081
G1 X68.407 Y74.303 E0.05077
G1 X69.895 Y73.317 E0.07081
G1 X70.892 Y72.515 E0.05077
G1 X72.348 Y71.082 E0.08103
G1 X73.467 Y69.691 E0.07081
G1 X74.174 Y68.624 E0.05077
G1 X75.018 Y67.052 E0.07081
G1 X75.517 Y65.873 E0.05077
G1 X76.058 Y64.172 E0.07081
G1 X76.332 Y62.922 E0.05077
G1 X76.567 Y60.892 E0.08103
G1 X76.567 Y59.108 E0.07081
G1 X76.39 Y57.456 E0.0659
G1 X76.058 Y55.828 E0.0659
G1 X75.517 Y54.127 E0.07081
G1 X75.018 Y52.948 E0.05077
G1 X74.174 Y51.376 E0.07081
G1 X73.467 Y50.309 E0.05077
G1 X72.174 Y48.728 E0.08103
G1 X70.892 Y47.485 E0.07081
G1 X69.895 Y46.683 E0.05077
G1 X68.407 Y45.697 E0.07081
G1 X66.586 Y44.772 E0.08103
G1 X65.392 Y44.31 E0.05077
G1 X63.675 Y43.821 E0.07081
G1 X62.417 Y43.586 E0.05077
G1 X60.64 Y43.421 E0.07081
G1 X59.36 Y43.421 E0.05077
G1 X57.583 Y43.586 E0.07081
G1 X56.325 Y43.821 E0.05077
G1 X54.364 Y44.395 E0.08103
G1 X52.489 Y45.206 E0.08103
G1 X50.944 Y46.099 E0.07081
G1 X49.899 Y46.838 E0.05077
G1 X48.658 Y47.901 E0.06483
G1 X48.968 Y48.264 F18000
G1 F1800
G1 X48.865 Y48.352 E0.00539
G1 X48.015 Y49.229 E0.04844
G1 X46.914 Y50.596 E0.06964
G1 X45.858 Y52.276 E0.0787
G1 X45.313 Y53.369 E0.04844
G1 X44.679 Y55.006 E0.06964
G1 X44.345 Y56.181 E0.04844
G1 X44.022 Y57.906 E0.06964
G1 X43.91 Y59.122 E0.04844
G1 X43.91 Y60.878 E0.06964
G1 X44.081 Y62.471 E0.06357
G1 X44.401 Y64.041 E0.06357
G1 X44.933 Y65.714 E0.06964
G1 X45.409 Y66.839 E0.04844
G1 X46.36 Y68.58 E0.0787
G1 X47.374 Y70.013 E0.06964
G1 X48.169 Y70.94 E0.04844
G1 X49.429 Y72.162 E0.06964
G1 X50.381 Y72.928 E0.04844
G1 X51.844 Y73.898 E0.06964
G1 X53.614 Y74.795 E0.0787
G1 X54.752 Y75.236 E0.04844
G1 X56.441 Y75.716 E0.06964
G1 X57.641 Y75.941 E0.04844
G1 X59.389 Y76.103 E0.06964
G1 X60.611 Y76.103 E0.04844
G1 X62.359 Y75.941 E0.06964
G1 X64.3 Y75.53 E0.0787
G1 X65.463 Y75.16 E0.04844
G1 X67.08 Y74.475 E0.06964
G1 X68.156 Y73.898 E0.04844
G1 X69.619 Y72.928 E0.06964
G1 X70.571 Y72.162 E0.04844
G1 X71.831 Y70.94 E0.06964
G1 X73.086 Y69.404 E0.07871
G1 X73.76 Y68.386 E0.04844
G1 X74.591 Y66.839 E0.06964
G1 X75.067 Y65.714 E0.04844
G1 X75.599 Y64.041 E0.06964
G1 X75.86 Y62.848 E0.04844
G1 X76.09 Y60.878 E0.0787
G1 X76.09 Y59.122 E0.06964
G1 X75.919 Y57.529 E0.06357
G1 X75.599 Y55.959 E0.06357
G1 X75.067 Y54.286 E0.06964
G1 X74.251 Y52.477 E0.0787
G1 X73.64 Y51.42 E0.04844
G1 X72.626 Y49.987 E0.06964
G1 X71.831 Y49.06 E0.04844
G1 X70.571 Y47.838 E0.06964
G1 X69.619 Y47.072 E0.04844
G1 X68.156 Y46.102 E0.06964
G1 X66.386 Y45.205 E0.0787
G1 X65.248 Y44.764 E0.04844
G1 X63.559 Y44.284 E0.06964
G1 X62.359 Y44.059 E0.04844
G1 X60.611 Y43.897 E0.06964
G1 X59.389 Y43.897 E0.04844
G1 X57.641 Y44.059 E0.06964
G1 X56.441 Y44.284 E0.04844
G1 X54.537 Y44.84 E0.0787
G1 X52.92 Y45.525 E0.06964
G1 X51.195 Y46.504 E0.0787
G1 X50.198 Y47.21 E0.04844
G1 X49.014 Y48.225 E0.06187
G1 X49.324 Y48.587 F18000
G1 F1800
G1 X49.186 Y48.705 E0.00719
G1 X48.377 Y49.539 E0.04611
G1 X47.295 Y50.884 E0.06848
G1 X46.271 Y52.514 E0.07637
G1 X45.753 Y53.555 E0.04611
G1 X45.129 Y55.165 E0.06848
G1 X44.811 Y56.283 E0.04611
G1 X44.494 Y57.979 E0.06848
G1 X44.387 Y59.137 E0.04611
G1 X44.387 Y60.863 E0.06848
G1 X44.494 Y62.021 E0.04611
G1 X44.811 Y63.717 E0.06848
G1 X45.129 Y64.835 E0.04611
G1 X45.836 Y66.626 E0.07638
G1 X46.653 Y68.147 E0.06848
G1 X47.295 Y69.116 E0.04611
G1 X48.377 Y70.461 E0.06848
G1 X49.186 Y71.295 E0.04611
G1 X50.656 Y72.539 E0.07637
G1 X52.095 Y73.492 E0.06848
G1 X53.119 Y74.042 E0.04611
G1 X54.709 Y74.715 E0.06848
G1 X55.817 Y75.067 E0.04611
G1 X57.7 Y75.467 E0.07638
G1 X59.419 Y75.626 E0.06848
G1 X60.581 Y75.626 E0.04611
G1 X62.497 Y75.437 E0.07638
G1 X64.183 Y75.067 E0.06848
G1 X65.291 Y74.715 E0.04611
G1 X66.881 Y74.042 E0.06848
G1 X67.905 Y73.492 E0.04611
G1 X69.344 Y72.539 E0.06848
G1 X70.249 Y71.81 E0.04611
G1 X71.623 Y70.461 E0.07638
G1 X72.705 Y69.116 E0.06848
G1 X73.347 Y68.147 E0.04611
G1 X74.164 Y66.626 E0.06848
G1 X74.871 Y64.835 E0.07638
G1 X75.189 Y63.717 E0.04611
G1 X75.506 Y62.021 E0.06848
G1 X75.613 Y60.863 E0.04611
G1 X75.613 Y59.137 E0.06848
G1 X75.506 Y57.979 E0.04611
G1 X75.189 Y56.283 E0.06848
G1 X74.871 Y55.165 E0.04611
G1 X74.247 Y53.555 E0.06848
G1 X73.729 Y52.514 E0.04611
G1 X72.705 Y50.884 E0.07637
G1 X71.623 Y49.539 E0.06848
G1 X70.814 Y48.705 E0.04611
G1 X69.344 Y47.461 E0.07637
G1 X67.905 Y46.508 E0.06848
G1 X66.881 Y45.958 E0.04611
G1 X65.291 Y45.285 E0.06848
G1 X64.183 Y44.933 E0.04611
G1 X62.3 Y44.533 E0.07638
G1 X60.581 Y44.374 E0.06848
G1 X59.419 Y44.374 E0.04611
G1 X57.7 Y44.533 E0.06848
G1 X56.557 Y44.746 E0.04611
G1 X54.709 Y45.285 E0.07638
G1 X52.941 Y46.047 E0.07638
G1 X51.446 Y46.91 E0.06848
G1 X50.497 Y47.582 E0.04611
G1 X49.369 Y48.548 E0.05891
G1 E-2 F3000
M204 S1500
G1 Z0.6 F18000
; printing object sun_gear.STL id:0 copy 0
; acceleration to travel
G1 X54.299 Y53.806
; decel to extrusion
M204 S1000
G1 X57.586 Y57.312
; end travel
G1 Z0.2
G1 E2 F1800
;TYPE:Internal perimeter
;WIDTH:0.56
G1 X57.531 Y57.356 E0.00304
G1 X57.194 Y57.717 E0.02123
G1 X56.909 Y58.12 E0.02123
G1 X56.682 Y58.559 E0.02123
G1 X56.517 Y59.024 E0.02123
G1 X56.416 Y59.507 E0.02123
G1 X56.383 Y60 E0.02123
G1 X56.416 Y60.493 E0.02123
G1 X56.517 Y60.976 E0.02123
G1 X56.682 Y61.441 E0.02123
G1 X56.909 Y61.88 E0.02123
G1 X57.194 Y62.283 E0.02123
G1 X57.531 Y62.644 E0.02123
G1 X57.914 Y62.955 E0.02123
G1 X58.336 Y63.212 E0.02123
G1 X58.789 Y63.408 E0.02123
G1 X59.264 Y63.542 E0.02123
G1 X59.753 Y63.609 E0.02123
G1 X60.247 Y63.609 E0.02123
G1 X60.736 Y63.542 E0.02123
G1 X61.211 Y63.408 E0.02123
G1 X61.664 Y63.212 E0.02123
G1 X62.086 Y62.955 E0.02123
G1 X62.469 Y62.644 E0.02123
G1 X62.812 Y62.276 E0.02161
G1 X63.13 Y61.813 E0.02414
G1 X63.321 Y61.433 E0.01831
G1 X63.483 Y60.976 E0.02084
G1 X63.584 Y60.493 E0.02123
G1 X63.617 Y60 E0.02123
G1 X63.584 Y59.507 E0.02123
G1 X63.483 Y59.024 E0.02123
G1 X63.318 Y58.559 E0.02123
G1 X63.091 Y58.12 E0.02123
G1 X62.806 Y57.717 E0.02123
G1 X62.469 Y57.356 E0.02123
G1 X62.086 Y57.045 E0.02123
G1 X61.664 Y56.788 E0.02123
G1 X61.211 Y56.592 E0.02123
G1 X60.736 Y56.458 E0.02123
G1 X60.247 Y56.391 E0.02123
G1 X59.753 Y56.391 E0.02123
G1 X59.264 Y56.458 E0.02123
G1 X58.789 Y56.592 E0.02123
G1 X58.336 Y56.788 E0.02123
G1 X57.914 Y57.045 E0.02123
G1 X57.632 Y57.274 E0.01561
G1 X57.861 Y57.761 F18000
G1 F1800
G1 X57.596 Y58.044 E0.01666
G1 X57.352 Y58.39 E0.01819
G1 X57.158 Y58.765 E0.01819
G1 X57.016 Y59.164 E0.01819
G1 X56.93 Y59.578 E0.01819
G1 X56.901 Y60 E0.01819
G1 X56.93 Y60.422 E0.01819
G1 X57.016 Y60.836 E0.01819
G1 X57.158 Y61.235 E0.01819
G1 X57.352 Y61.61 E0.01819
G1 X57.596 Y61.956 E0.01819
G1 X57.885 Y62.265 E0.01819
G1 X58.213 Y62.532 E0.01819
G1 X58.574 Y62.752 E0.01819
G1 X58.962 Y62.92 E0.01819
G1 X59.369 Y63.034 E0.01819
G1 X59.789 Y63.092 E0.01819
G1 X60.211 Y63.092 E0.01819
G1 X60.631 Y63.034 E0.01819
G1 X61.038 Y62.92 E0.01819
G1 X61.426 Y62.752 E0.01819
G1 X61.787 Y62.532 E0.01819
G1 X62.115 Y62.265 E0.01819
G1 X62.408 Y61.952 E0.01843
G1 X62.684 Y61.55 E0.02095
G1 X62.844 Y61.229 E0.01541
G1 X62.984 Y60.836 E0.01795
G1 X63.07 Y60.422 E0.01819
G1 X63.099 Y60 E0.01819
G1 X63.07 Y59.578 E0.01819
G1 X62.984 Y59.164 E0.01819
G1 X62.842 Y58.765 E0.01819
G1 X62.648 Y58.39 E0.01819
G1 X62.404 Y58.044 E0.01819
G1 X62.115 Y57.735 E0.01819
G1 X61.787 Y57.468 E0.01819
G1 X61.426 Y57.248 E0.01819
G1 X61.038 Y57.08 E0.01819
G1 X60.631 Y56.966 E0.01819
G1 X60.211 Y56.908 E0.01819
G1 X59.789 Y56.908 E0.01819
G1 X59.369 Y56.966 E0.01819
G1 X58.962 Y57.08 E0.01819
G1 X58.574 Y57.248 E0.01819
G1 X58.213 Y57.468 E0.01819
G1 X57.904 Y57.72 E0.01713
G1 X58.238 Y58.114 F18000
;TYPE:External perimeter
G1 F1800
G1 X57.998 Y58.371 E0.01514
G1 X57.795 Y58.659 E0.01514
G1 X57.633 Y58.972 E0.01514
G1 X57.515 Y59.304 E0.01514
G1 X57.443 Y59.649 E0.01514
G1 X57.419 Y60 E0.01514
G1 X57.443 Y60.351 E0.01514
G1 X57.515 Y60.696 E0.01514
G1 X57.633 Y61.028 E0.01514
G1 X57.795 Y61.341 E0.01514
G1 X57.998 Y61.629 E0.01514
G1 X58.238 Y61.886 E0.01514
G1 X58.512 Y62.108 E0.01514
G1 X58.813 Y62.291 E0.01514
G1 X59.136 Y62.432 E0.01514
G1 X59.475 Y62.527 E0.01514
G1 X59.824 Y62.575 E0.01514
G1 X60.176 Y62.575 E0.01514
G1 X60.525 Y62.527 E0.01514
G1 X60.864 Y62.432 E0.01514
G1 X61.187 Y62.291 E0.01514
G1 X61.488 Y62.108 E0.01514
G1 X61.762 Y61.886 E0.01514
G1 X62.003 Y61.627 E0.01524
G1 X62.237 Y61.286 E0.01777
G1 X62.368 Y61.026 E0.01252
G1 X62.485 Y60.696 E0.01505
G1 X62.557 Y60.351 E0.01514
G1 X62.581 Y60 E0.01514
G1 X62.557 Y59.649 E0.01514
G1 X62.485 Y59.304 E0.01514
G1 X62.367 Y58.972 E0.01514
G1 X62.205 Y58.659 E0.01514
G1 X62.002 Y58.371 E0.01514
G1 X61.762 Y58.114 E0.01514
G1 X61.488 Y57.892 E0.01514
G1 X61.187 Y57.709 E0.01514
G1 X60.864 Y57.568 E0.01514
G1 X60.525 Y57.473 E0.01514
G1 X60.176 Y57.425 E0.01514
G1 X59.824 Y57.425 E0.01514
G1 X59.475 Y57.473 E0.01514
G1 X59.136 Y57.568 E0.01514
G1 X58.813 Y57.709 E0.01514
G1 X58.512 Y57.892 E0.01514
G1 X58.285 Y58.076 E0.01256
;WIPE_START
M204 S1500
G1 X57.853 Y58.006 F18000
;WIPE_END
G1 E-2 F3000
G1 Z0.6 F18000
; acceleration to travel
G1 X63.166 Y60.376
; decel to extrusion
M204 S1000
G1 X66.708 Y61.956
; end travel
G1 Z0.2
G1 E2 F1800
;TYPE:Internal perimeter
G1 X66.94 Y62.205 E0.01466
G1 X67.26 Y62.465 E0.01771
G1 X67.612 Y62.679 E0.01771
G1 X67.99 Y62.843 E0.01771
G1 X68.386 Y62.954 E0.01771
G1 X68.794 Y63.01 E0.01771
G1 X69.206 Y63.01 E0.01771
G1 X69.614 Y62.954 E0.01771
G1 X70.01 Y62.843 E0.01771
G1 X70.388 Y62.679 E0.01771
G1 X70.835 Y62.407 E0.02247
G1 X70.564 Y63.36 E0.0426
G1 X70.337 Y64.004 E0.02936
G1 X70.07 Y64.633 E0.02935
G1 X69.766 Y65.244 E0.02936
G1 X69.425 Y65.836 E0.02935
G1 X69.048 Y66.405 E0.02936
G1 X68.636 Y66.95 E0.02936
G1 X68.192 Y67.468 E0.02935
G1 X67.717 Y67.958 E0.02935
G1 X67.212 Y68.418 E0.02936
G1 X66.68 Y68.846 E0.02935
G1 X66.123 Y69.241 E0.02935
G1 X65.543 Y69.6 E0.02936
G1 X64.941 Y69.923 E0.02935
G1 X64.321 Y70.208 E0.02936
G1 X63.684 Y70.455 E0.02936
G1 X63.034 Y70.662 E0.02935
G1 X62.454 Y70.808 E0.02571
G1 X62.768 Y70.202 E0.02933
G1 X62.905 Y69.814 E0.01771
G1 X62.989 Y69.411 E0.01771
G1 X63.017 Y69 E0.01771
G1 X62.989 Y68.589 E0.01771
